/* XPM */
static char *_bf9512a339443bbb4d801d77d79dcc9uwFW5X2nREYrot6z[] = {
/* columns rows colors chars-per-pixel */
"380 313 256 2 ",
"   c None",
".  c #020101",
"X  c #0B0102",
"o  c #0C0908",
"O  c #130102",
"+  c #1B0102",
"@  c #1D040A",
"#  c #170906",
"$  c #1A110E",
"%  c #230103",
"&  c #2B0103",
"*  c #24020A",
"=  c #2C020B",
"-  c #240A0C",
";  c #2C0A0D",
":  c #260B03",
">  c #330204",
",  c #3C0203",
"<  c #33020C",
"1  c #3B020C",
"2  c #330A0B",
"3  c #3C0A0D",
"4  c #370A05",
"5  c #281604",
"6  c #361708",
"7  c #2D0412",
"8  c #290814",
"9  c #340412",
"0  c #3C0313",
"q  c #350B13",
"w  c #3C0B13",
"e  c #3C031B",
"r  c #37051B",
"t  c #291315",
"y  c #381417",
"u  c #382508",
"i  c #382612",
"p  c #3A1E24",
"a  c #430204",
"s  c #4B0205",
"d  c #44020C",
"f  c #4B020D",
"g  c #4C0B0D",
"h  c #440A0A",
"j  c #53040D",
"k  c #5B030D",
"l  c #540A0E",
"z  c #570608",
"x  c #48150B",
"c  c #57150B",
"v  c #440313",
"b  c #4C0314",
"n  c #440A13",
"m  c #4C0A13",
"M  c #44031A",
"N  c #4C041A",
"B  c #440A1B",
"V  c #4C0A1C",
"C  c #540413",
"Z  c #5B0413",
"A  c #540A13",
"S  c #5C0A14",
"D  c #53041B",
"F  c #5B041B",
"G  c #530A1D",
"H  c #5C0A1C",
"J  c #481419",
"K  c #571518",
"L  c #64020D",
"P  c #6B020D",
"I  c #66090D",
"U  c #72030E",
"Y  c #78060E",
"T  c #67160D",
"R  c #640314",
"E  c #6B0314",
"W  c #640A14",
"Q  c #6C0A14",
"!  c #63041B",
"~  c #6C041B",
"^  c #640A1B",
"/  c #6C0B1B",
"(  c #730313",
")  c #7B0514",
"_  c #740C16",
"`  c #7B0B16",
"'  c #74051B",
"]  c #7B051C",
"[  c #740C1A",
"{  c #7C0C1A",
"}  c #641214",
"|  c #6C1314",
" . c #6D121A",
".. c #681918",
"X. c #75121B",
"o. c #7B131A",
"O. c #781717",
"+. c #76130D",
"@. c #472805",
"#. c #572708",
"$. c #5A2817",
"%. c #513311",
"&. c #672816",
"*. c #772718",
"=. c #673917",
"-. c #773819",
";. c #6E2D0D",
":. c #4C0A21",
">. c #540C22",
",. c #5B0C23",
"<. c #590520",
"1. c #5B1325",
"2. c #571524",
"3. c #4B1621",
"4. c #6C0421",
"5. c #620C23",
"6. c #670722",
"7. c #740422",
"8. c #7B0423",
"9. c #7D0C22",
"0. c #760B23",
"q. c #651526",
"w. c #791523",
"e. c #72322C",
"r. c #552D21",
"t. c #5A4216",
"y. c #684617",
"u. c #774918",
"i. c #79571B",
"p. c #744D0A",
"a. c #794525",
"s. c #795725",
"d. c #6E4828",
"f. c #786318",
"g. c #793B44",
"h. c #820515",
"j. c #820A16",
"k. c #82061C",
"l. c #8B041B",
"z. c #830C1B",
"x. c #8C0D1C",
"c. c #8B0515",
"v. c #930215",
"b. c #93041B",
"n. c #9C051A",
"m. c #920D1D",
"M. c #9C0B1C",
"N. c #990716",
"B. c #83131B",
"V. c #8C121C",
"C. c #841A1C",
"Z. c #8C191B",
"A. c #861615",
"S. c #93131D",
"D. c #9C131E",
"F. c #931A1D",
"G. c #9B1A1F",
"H. c #911617",
"J. c #8D020F",
"K. c #A10D1D",
"L. c #A40A1A",
"P. c #A3121E",
"I. c #AC141D",
"U. c #A41A1F",
"Y. c #842B17",
"T. c #863719",
"R. c #8B3717",
"E. c #830523",
"W. c #8B0523",
"Q. c #840C21",
"!. c #8C0C22",
"~. c #890929",
"^. c #940523",
"/. c #9B0523",
"(. c #930D22",
"). c #9C0C23",
"_. c #990729",
"`. c #841322",
"'. c #8C1322",
"]. c #881826",
"[. c #951422",
"{. c #9B1323",
"}. c #941924",
"|. c #9C1A23",
" X c #94142A",
".X c #9B1329",
"XX c #951B29",
"oX c #9C1C29",
"OX c #8C1633",
"+X c #A30625",
"@X c #A40C23",
"#X c #AB0E25",
"$X c #A50B28",
"%X c #AB0D29",
"&X c #A70627",
"*X c #B20F26",
"=X c #B20F28",
"-X c #A41522",
";X c #AC1324",
":X c #A41A23",
">X c #AB1A24",
",X c #AE1329",
"<X c #AC1C29",
"1X c #A2192A",
"2X c #B21225",
"3X c #B31B26",
"4X c #B41429",
"5X c #B41C2A",
"6X c #BB1C2A",
"7X c #B91729",
"8X c #8A2425",
"9X c #982528",
"0X c #893A24",
"qX c #95352E",
"wX c #A3212C",
"eX c #AB2128",
"rX c #BD212C",
"tX c #B5202B",
"yX c #B92331",
"uX c #C21E2A",
"iX c #C4212B",
"pX c #C9222B",
"aX c #894819",
"sX c #8A5719",
"dX c #95591A",
"fX c #934B1A",
"gX c #A45818",
"hX c #A0491E",
"jX c #986818",
"kX c #906615",
"lX c #A7771B",
"zX c #B17C1D",
"xX c #A4681B",
"cX c #894624",
"vX c #964724",
"bX c #885726",
"nX c #995826",
"mX c #8B4E33",
"MX c #A55A25",
"NX c #A25230",
"BX c #876625",
"VX c #976525",
"CX c #96712C",
"ZX c #A66625",
"AX c #AA7825",
"SX c #B2762C",
"DX c #9A6054",
"FX c #B4841C",
"GX c #B98725",
"HX c #B1892B",
"JX c #9F8122",
"KX c #C28D24",
"LX c #C79424",
"PX c #C8932B",
"IX c #C6961F",
"UX c #D4A282",
/* pixels */
"                                                                                                                                                                                                                                                                                                                                                                                                                                                                                                                                                                                                                                                                                                                                                                                        ",
"                                                                                                                                                                                                                                                                                                                                                                                                                                                                                                                                                                                                                                                                                                                                                                                        ",
"                                                                                                                                                                                                                                                                                                                                                                                                                                                                                                                                                                                                                                                                                                                                                                                        ",
"                                                                                                                                                                                                                                                                                                                                                                                                                                                                                                                                                                                                                                                                                                                                                                                        ",
"                                                                                                                                                                                                                                                                                                                                                                                                                                                                                                                                                                                                                                                                                                                                                                                        ",
"                                                                                                                                                                                                                                                                                                                                                                                                                                                                                                                                                                                                                                                                                                                                                                                        ",
"                                                                                                                                                                                                                                                                                                                                                                                                                                                                                                                                                                                                                                                                                                                                                                                        ",
"                                                                                                                                                                                                                                                                                                                                                                                                                                                                                                                                                                                                                                                                                                                                                                                        ",
"                                                                                                                                                                                                                                                                                                                                                                                                                                                                                                                                                                                                                                                                                                                                                                                        ",
"                                                                                                                                                                                                                                                                                                                                                                                                                                                                                                                                                                                                                                                                                                                                                                                        ",
"                                                                                                                                                                                                                                                                                                                                                                                                                                                                                                                                                                                                                                                                                                                                                                                        ",
"                                                                                                                                                                                                                                                                                                                                                                                                                                                                                                                                                                                                                                                                                                                                                                                        ",
"                                                                                                                                                                                                                                                                                                                                                                                                                                                                                                                                                                                                                                                                                                                                                                                        ",
"                                                                                                                                                                                                                                                                                                                                                                                                                                                                                                                                                                                                                                                                                                                                                                                        ",
"                                                                                                                                                                                                                                                                                                                                                                                                                                                                                                                                                                                                                                                                                                                                                                                        ",
"                                                                                                                                                                                                                                                                                                                                                                                                                                                                                                                                                                                                                                                                                                                                                                                        ",
"                                                                                                                                                                                                                                                                                                                                                                                                                                                                                                                                                                                                                                                                                                                                                                                        ",
"                                                                                                                                                                                                                                                                                                                                                                                                                                                                                                                                                                                                                                                                                                                                                                                        ",
"                                                                                                                                                                                                                                                                                                                                                                                                                                                                                                                                                                                                                                                                                                                                                                                        ",
"                                                                                                                                                                                                                                                                                                                                                                                                                                                                                                                                                                                                                                                                                                                                                                                        ",
"                                                                                                                                                                                                                                                                                                                                                                                                                                                                                                                                                                                                                                                                                                                                                                                        ",
"                                                                                                                                                                                                                                                                                                                                                                                                                                                                                                                                                                                                                                                                                                                                                                                        ",
"                                                                                                                                                                                                                                                                                                                                                                                                                                                                                                                                                                                                                                                                                                                                                                                        ",
"                                                                                                                                                                                                                                                                                                                                                                                                                                                                                                                                                                                                                                                                                                                                                                                        ",
"                                                                                                                                                                                                                                                                                                                                                                                                                                                                                                                                                                                                                                                                                                                                                                                        ",
"                                                                                                                                                                                                                                                                                                                                                                                                                                                                                                                                                                                                                                                                                                                                                                                        ",
"                                                                                                                                                                                                                                                                                                                                                                                                                                                                                                                                                                                                                                                                                                                                                                                        ",
"                                                                                                                                                                                                                                                                                                                                                                                                                                                                                                                                                                                                                                                                                                                                                                                        ",
"                                                                                                                                                                                                                                                                                                                                                                                                                                                                                                                                                                                                                                                                                                                                                                                        ",
"                                                                                                                                                                                                                                                                                                                                                                                                                                                                                                                                                                                                                                                                                                                                                                                        ",
"                                                                                                                                                                                                                                                                                                                                                                                                                                                                                                                                                                                                                                                                                                                                                                                        ",
"                                                                                                                                                                                                                                                                                                                                                                                                                                                                                                                                                                                                                                                                                                                                                                                        ",
"                                                                                                                                                                                                                                                                                                                                                                                                                                                                                                                                                                                                                                                                                                                                                                                        ",
"                                                                                                                                                                                                                                                                                                                                                                                      % % >                   , + +                                                                                                                                                                                                                                                                                                                                                                     ",
"                                                                                                                                                                                                                                                                                                                                                                                    % 2 3 4 s j         W l , , 1 * +                                                                                                                                                                                                                                                                                                                                                                   ",
"                                                                                                                                                                                                                                                                                                                                                                                  d % K .. . .W k L L L L Q Q _ W , O                                                                                                                                                                                                                                                                                                                                                                   ",
"                                                                                                                                                                                                                                                                                                                                                                                  4 2 ..o.B.B.V.'.}.}.XXXX|.|.}.V.I & s                                                                                                                                                                                                                                                                                                                                                                 ",
"                                                                                                                                                                                                                                                                                                                                                                                  & w  .B.V.V.S.[.|.oXwXwXwX:X:X{.` 3 z                                                                                                                                                                                                                                                                                                                                                                 ",
"                                                                                                                                                                                                                                                                                                                                                                                  % J O.V.V.S.[.[.|.oX1XwXwXwX:X:XB.m l                                                                                                                                                                                                                                                                                                                                                                 ",
"                                                                                                                                                                                                                                                                                                                                                                                  + K w.V.V.[.}.[.}.oXwXwXwXwX1X:XV.S a                                                                                                                                                                                                                                                                                                                                                                 ",
"                                                                                                                                                                                                                                                                                                                                                                                > % K `.V.S.}.}.[.}.|.oXwXwXwX1X-XS.W ,                                                                                                                                                                                                                                                                                                                                                                 ",
"                                                                                                                                                                                                                                                                                                                                                                                & 2 ..Z.S.}.}.}.[.[.|.oXwXwXwX1X:XF.X.,                                                                                                                                                                                                                                                                                                                                                                 ",
"                                                                                                                                                                                                                                                                                                                                                                                > J O.Z.}.[.[.[.[.[.[.|.oXwXwXwX1X[.o.m                                                                                                                                                                                                                                                                                                                                                                 ",
"                                                                                                                                                                                                                                                                                                                                                                                1 K o.V.[.[.[.[.[.[.[.|.oX1XwXwXoX|.].} s                                                                                                                                                                                                                                                                                                                                                               ",
"                                                                                                                                                                                                                                                                                                                                                                                3 ..Z.F.[.[.[.[.[.[.[.|.oXoXwXwX1XoX}.X.a                                                                                                                                                                                                                                                                                                                                                               ",
"                                                                                                                                                                                                                                                                                                                                                                              4 J O.S.F.[.{.[.[.[.[.[.}.|.oXoXwX1XoX[.o.s                                                                                                                                                                                                                                                                                                                                                               ",
"                                                                                                                                                                                                                                                                                                                                                                              4 K C.F.D.{.{.[.[.[.[.[.[.[.|.oXoX1XoX}.`.S j                                                                                                                                                                                                                                                                                                                                                             ",
"                                                                                                                                                                                                                                                                                                                                                                            h w ..V.D.S.{.{.[.[.[.[.[.[.[.[.|.oXoXoX}.'./ s                                                                                                                                                                                                                                                                                                                                                             ",
"                                                                                                                                                                                                                                                                                                                                                                            4 K o.S.S.F.{.{.[.[.[.[.[.[.[.}.|.|.oXoXXX'.X.f                                                                                                                                                                                                                                                                                                                                                             ",
"                                                                                                                                                                                                                                                                                                                                                                          , 3 ..B.S.F.F.{.{.[.[.[.[.[.[.[.[.}.|.oXoXoX}.`.} W                                                                                                                                                                                                                                                                                                                                                           ",
"                                                                                                                                                                                                                                                                                                                                                                          % J o.S.S.F.F.[.{.[.[.[.[.[.[.[.[.[.[.|.oX|.}.]. .j                                                                                                                                                                                                                                                                                                                                                           ",
"                                                                                                                                                                                                                                                                                                                                                                        > ; K B.S.[.[.[.[.{.[.[.[.[.[.[.[.[.[.[.[.|.|.}.Z.X.f ,                                                                                                                                                                                                                                                                                                                                                         ",
"                                                                                                                                                                                                                                                                                                                                                                        % n  .V.S.F.[.[.[.[.[.[.[.[.[.[.[.[.[.[.[.|.[.}.V.o.S & &                                                                                                                                                                                                                                                                                                                                                       ",
"                                                                                                                                                                                                                                                                                                                                                                      & : A o.S.S.S.[.[.[.[.[.[.[.[.[.[.[.[.[.[.[.[.[.}.V.{ W 2 O                                                                                                                                                                                                                                                                                                                                                       ",
"                                                                                                                                                                                                                                                                                                                                                                      O ; c j.S.S.S.[.[.[.[.[.[.[.[.[.[.[.[.[.[.[.[.[.[.x.{ W h : %                                                                                                                                                                                                                                                                                                                                                     ",
"                                                                                                                                                                                                                                                                                                                                                                    % $ x T +.A.S.[.[.[.[.[.[.[.[.[.[.[.[.[.[.[.[.[.[.[.x.j.+.c 6 O                                                                                                                                                                                                                                                                                                                                                     ",
"                                                                                                                                                                                                                                                                                                                                                                    # 5 $.-.Y.Y.Z.V.S.[.[.[.[.[.[.[.[.[.[.[.[.[.[.[.(.x.B.A.Y.;.@.5 +                                                                                                                                                                                                                                                                                                                                                   ",
"                                                                                                                                                                                                                                                                                                                                                                  5 $ @.u.sXdXfXY.V.V.[.[.[.[.[.[.[.[.[.[.S.[.[.(.(.!.B.A.R.xXdX;.u X                                                                                                                                                                                                                                                                                                                                                   ",
"                                                                                                                                                                                                                                                                                                                                                                  5 5 %.aXdXxXdXY.z.x.[.[.[.[.[.[.[.[.[.F.S.[.[.(.^.x.` Y.xXGXlXp.@.# +                                                                                                                                                                                                                                                                                                                                                 ",
"                                                                                                                                                                                                                                                                                                                                                                  # i y.sXjXxXjXT.o.x.x.[.[.[.[.}.S.S.S.S.S.[.(.^.!.j.+.fXGXKXFXsX%.5 X                                                                                                                                                                                                                                                                                                                                                 ",
"                                                                                                                                                                                                                                                                                                                                                                u 5 %.u.sXjXlXjXT.o.x.x.V.[.[.[.S.S.S.S.S.S.m.x.x.x.) Y.ZXKXIXGXkX=.6 X                                                                                                                                                                                                                                                                                                                                                 ",
"                                                                                                                                                                                                                                                                                                                                                                5 u %.p.kXjXlXjXT.o.z.x.V.S.[.[.S.S.S.S.S.S.x.x.x.h.Y fXSXKXIXKXjX=.i # :                                                                                                                                                                                                                                                                                                                                               ",
"                                                                                                                                                                                                                                                                                                                                                                $ i y.sXjXlXlXjXY.B.z.x.V.V.S.S.S.S.S.S.V.V.x.x.k.) +.MXKXLXIXKXAXy.%.t X                                                                                                                                                                                                                                                                                                                                               ",
"                                                                                                                                                                                                                                                                                                                                                              6 # %.sXjXlXlXlXjXY.B.z.V.V.V.V.V.V.V.V.V.V.V.V.z.` U *.ZXKXLXKXKXHXu.%.i X                                                                                                                                                                                                                                                                                                                                               ",
"                                                                                                                                                                                                                                                                                                                                                              # 5 =.dXlXzXlXAXdX*.` z.x.V.V.V.V.V.V.V.V.V.V.V.z.` U *.ZXKXKXKXKXGXu.%.i o 6                                                                                                                                                                                                                                                                                                                                             ",
"                                                                                                                                                                                                                                                                                                                                                              X i u.jXlXzXFXAXvXO.` j.z.x.V.V.x.x.x.V.V.V.V.j.j.) _ ;.ZXGXGXGXKXGXbX%.i # 5                                                                                                                                                                                                                                                                                                                                             ",
"                                                                                                                                                                                                                                                                                                                                                            # # %.sXlXzXFXFXAXcX+.` j.j.V.V.V.x.x.x.x.x.x.j.j.h.) _ T dXGXFXGXKXGXVX%.i $ O                                                                                                                                                                                                                                                                                                                                             ",
"                                                                                                                                                                                                                                                                                                                                                            5 5 t.sXlXzXFXFXZXT.+.` j.z.j.j.j.j.x.x.j.j.j.j.` ) ) _ T fXzXGXGXKXPXCX=.i $ O                                                                                                                                                                                                                                                                                                                                             ",
"                                                                                                                                                                                                                                                                                                                                                            # i y.kXlXzXFXGXVXY.` ` j.j.j.j.j.j.j.` ` ` ` ) _ ) _ _ T aXAXGXGXKXPXAXy.i # O                                                                                                                                                                                                                                                                                                                                             ",
"                                                                                                                                                                                                                                                                                                                                                          # # i y.sXlXzXFXAXnXO.` ` ` ` ` ` U Q I I k I I I Q ( ( E I T.ZXGXGXKXPXHXy.6 O                                                                                                                                                                                                                                                                                                                                               ",
"                                                                                                                                                                                                                                                                                                                                                        # o 5 %.u.jXlXzXzXAXcX+.) ) ` ` _ I I z s a a a s z k I Q W I ;.dXzXGXKXPXHXy.5 5                                                                                                                                                                                                                                                                                                                                               ",
"                                                                                                                                                                                                                                                                                                                                                        # 5 %.i.jXAXzXFXzXZXT.+.) ` _ Q I z s a , , , , a a s z k I k T aXAXGXKXPXHXy.5                                                                                                                                                                                                                                                                                                                                                 ",
"                                                                                                                                                                                                                                                                                                                                                        5 u i.AXGXKXKXGXGXnX*.Q _ Q Q I z s a , , , , , a a a s z z z z -.ZXGXGXPXHXy.5                                                                                                                                                                                                                                                                                                                                                 ",
"                                                                                                                                                                                                                                                                                                                                                          @.i.zXKXLXLXKXGXdXT I I I S j a a , , , , a a a a a s s s s s ;.dXzXGXGXHXy.5                                                                                                                                                                                                                                                                                                                                                 ",
"                                                                                                                                                                                                                                                                                                                                                          #.i.zXIXIXLXLXGXsXT z j j j s a , , , , a a a a a a s s s s s &.sXlXGXGXHXt.#                                                                                                                                                                                                                                                                                                                                                 ",
"                                                                                                                                                                                                                                                                                                                                                          #.u.lXLXIXLXLXzXaXT j s d a a , , , , , a a a a a a a s s s s c aXxXGXGXAXy.:                                                                                                                                                                                                                                                                                                                                                 ",
"                                                                                                                                                                                                                                                                                                                                                          #.=.jXKXIXIXLXzXaXT s d d d a , , a a a a a a a a a a a s a a c u.jXlXzXAXy.5                                                                                                                                                                                                                                                                                                                                                 ",
"                                                                                                                                                                                                                                                                                                                                                          p.#.sXFXLXLXKXzXaXT j d d d a , a a x #.$.&.$.#.c x h a a a s z ;.dXlXlXlXs.5                                                                                                                                                                                                                                                                                                                                                 ",
"                                                                                                                                                                                                                                                                                                                                                            @.p.lXKXKXGXlXaX;.c s a a a a , x &.y.u.u.u.u.=.&.c s a s s s ;.sXjXlXlXBXu t.                                                                                                                                                                                                                                                                                                                                              ",
"                                                                                                                                                                                                                                                                                                                                                            #.%.kXGXGXzXxXaX-.&.l s a a , , x #.=.=.y.y.y.=.=.c g a a s s #.aXjXlXlXCX%.@.                          O X X X     + X X O                 + .                         + . . %                                                                                                                                                                                                                                             ",
"                                                                                                                                                                                                                                                                                                                                                            @.@.p.kXjXjXjXsXT.*...j s a , , 4 6 x x x @.@.@.x x h a a a s c u.jXlXzXCX%.5                         X X X o # y ; + O O X + +           2 . . =                     y . . . . # + + + +                                                                                                                                                                                                                                   ",
"                                                                                                                                                                                                                                                    1 % * - - - - - - - - - * = * * * * * * * % @ @ + O O O O O O O O O X X X X X .                         u u p.kXjXlXjXsX-.*.O.W j d , 1 < & & & & & : 4 4 , , , a a s l -.dXlXzXlXy.:                         . X o + ; 2 2 ; - - - % % = = = ; ; * + + + - ; ; ; ; ; ; ; ; - + X X X X . . . . X o o $ $ $ $ t -                                                                                                                                                                                                                   ",
"                                                                                                                                                                                                                                    & < = 2 q y p p - % % & < > , , d d d d f b C C b b b b b b v v v 0 = * * 7 7 7 * @ O O X X . $                           6 BXHXFXGXlXfX-.*.O. .Z f d , < > 4 3 > % % % % & > , a a s l -.dXlXzXlXBXu @.                    . X o O % 2 w w w w w 3 3 h n v b A A A G G H H S S W S S S l j C b n n n n 3 3 2 = % % + X X X X . o $ t $ -                                                                                                                                                                                                           ",
"                                                                                                                                                                                                                          & % - @ - t q w n n N b b b C Z ! ~ ' 9.{ { { 9.Q.Q.E.E.E.E.8.8.7.7.7.7.4.~ F N 0 M M :.B r 7 * O X X . o                           5 BXPXIXLXlXaX*.....^ Z C f d 3 x =.=.$.x 3 : % % > , , a s s &.sXlXGXFXCX%.+                     . X o # % 2 n n n n n n m b A Z R ~ [ [ 9.9.Q.!.!.!.(.(.(.(.m.m.l.W.z.z.Q.z.k.k.{ ' R Z C v 9 7 8 @ # X X . X $ $ t -                                                                                                                                                                                                   ",
"                                                                                                                                                                                                                    > = - * = w n m S ^ / ' ] ] 8.8.k.k.W.^._.).+X+X+X/.).)._.+X+X_._._.^.W.W.E.E.8.8.4.F N D <.<.:.M 9 7 @ O X . .                           5 i.HXIXIXlXaX&.W W S Z C b d K e.bXbXs.a.d.$.2 & > , a d s s &.sXjXlXlXCXt.O                     . . o # % = w w w n m m N A Z F ~ ] k.k.W.W.^.^././.+X+X+X+X@X$X$X$X@X@X$X+X@X+X+X/.^.l.h.] ' ~ F F b d < = + O X X X $ $ @ +                                                                                                                                                                                           ",
"                                                                                                                                                                                                              1 = * ; 2 w b S ~ ' ] k.l.b.^.^./._._././.+X+X+X+X&X&X&X&X+X+X+X+X+X/._._.^.W.W.E.8.8.7.4.<.D D <.<.N M 9 * @ X . . .                           # t.JXLXGXlXaX..W S Z Z C C s c -.bXsXsXbXVXbX$.> > , d d s s T aXjXlXlXjXt.# 5                     . . o + * ; 2 q w n m b A D F ~ 8.E.W.W.^.^._./././.+X+X$X+X$X$X#X#X#X#X#X#X#X&X&X&XL.+X/./.b.l.k.] ' ' R C d 9 * @ O X X X X # @                                                                                                                                                                                     ",
"                                                                                                                                                                                                      , 1 w w 1 v A S R ' ] k.l.l.^././.+X+X+X+X&X+X+X&X+X+X&X&X&X&X&X+X+X+X_._._._._.^.W.W.E.8.7.7.4.6.F D D D N M r 7 @ . . .                               O u i.lXlXxXaX| R S Z Z Z C f s &.a.bXBXVXVXbX&.3 , d d s s s T aXjXAXHXAXi.5 X                       . . X O @ - ; 8 q w n b D F 4.8.W.W.W.^.^.^._._._.).)._._._.+X$X$X#X#X#X#X#X#X#X#X#X#X#X#X$X+X+X/.^.^.l.] ( ~ S C s > % O X . X o # +                                                                                                                                                                               ",
"                                                                                                                                                                                                d d 4 2 w N H R ' ] k.l.l.b.b./././.+X$X$X$X$X$X$X&X&X&X&X#X$X$X$X$X_._._.^.^._._._.^.~.W.E.8.7.4.4.6.6.F D N M e e = O . X                                   : 5 %.kXjXZXvXO.R F Z Z Z C C j c &.a.bXVXVXbX&.d , d d s s z T cXVXHXHXHXBXi .                         . . . . X # @ ; q w v A F 7.8.E.W.W.W.W.^.^.^.^.^.^._.^._.).$X$X#X#X#X$X$X$X$X#X#X#X#X#X;X;X,X%X$X+X/./.b.b.l.l.h.( S v = * + X X . . O +                                                                                                                                                                         ",
"                                                                                                                                                                                        > > 1 1 1 f j I E _ ) h.c.l.l.b.b./.+X+X+X$X$X%X$X%X%X$X$X$X$X+X&X$X$X$X$X+X_.^.^.W.W.~.~.~.~.~.W.E.8.7.4.6.6.F D N M r 7 + O +                                         5 @.sXAXAXvXO.W ! Z Z Z C j j l c &.a.bXVXmX$.d d d d s j j T cXdXlXHXHXCX%.# 5                               X . . @ 8 8 w b F ' 8.E.W.W.W.W.W.W.W.W.!.W.^.^.^.@X$X%X%X#X#X#X$X+X@X@X@X$X;X;X;X4X4X4X4X;X#X#X@X+XL.n.b.b.l.] Q R Z d > + O X . X O +                                                                                                                                                                   ",
"                                                                                                                                                                                  & + + % 1 m S Q ) ) h.J.J.v.v.b.b.b././.$X%X$X%X%X%X%X$X%X$X$X+X+X+X+X$X$X$X#X$X+X_.^.W.W.E.E.~.W.~.~.E.E.8.7.4.! D N v 0 9 % O +                                             @.u BXHXSXvXO.W ! Z Z Z Z j k k l c $.=.a.e.K d d d s f j j T cXsXjXFXHXJXs.u #                                   . . X - q b F ' 8.E.E.W.W.W.W.W.W.W.W.W.!.).+X,X,X,X%X=X#X#X$X+X)././.@X$X;X;X6X7X7X7X7X4X4X2X#X@X@XL.L.b.b.b.v.v.h.( S v 2 * + O X X O %                                                                                                                                                             ",
"                                                                                                                                                                            > & % + & m S Q ` h.c.J.v.v.v.v.v.N.N.n.n.$X$X%X4X4X4X,X,X,X%X$X).)./.).).$X#X#X#X%X%X%X+X).W.E.E.8.8.E.~.E.E.E.8.7.4.F D v 9 * O +                                                   u i.HXSXvXO.W R R Z Z Z j k k j C C A K K m v d d f f j k I 0XaXdXzXGXHXCX%.#                                       + O 8 v F ~ 8.8.E.E.E.E.E.E.E.E.k.!.^.$X#X,X2X2X=X=X=X%X$X+X)./.^.^./.@X;X4X4X7X7X6X7X6X7X4X2X#X@X@XL.n.n.n.n.N.b.x.] ' W Z m 9 * X X X +                                                                                                                                                         ",
"                                                                                                                                                                      > & % % 3 m A Q ) c.l.v.v.v.v.v.b.b.n.n.@X@X@X$X,X2X4X7X4X4X,X$X$X).^.^.^././.$X#X%X=X2X4X4X2X%X+X_.W.E.8.8.8.8.E.E.E.8.7.6.F N 9 * O                                                       5 y.SXSXaXO.W R R R Z Z k j Z C A G V N N b v d d f f j Z Q *.T.dXlXHXCXy.t O 6                                       O 8 v F 4.7.8.8.E.E.E.E.E.E.k.l.^.@X#X2X2X2X2X2X2X2X=X#X#X@X).m.l.b.m.).;X4X7X6X6X6X6X7X7X7X4X;X;X@XK.K.M.M.n.n.N.N.b.b.l.z.[ H n = @ O + &                                                                                                                                                     ",
"                                                                                                                                                                  & % % d C W _ ) c.l.v.v.l.v.J.v.v.v.n.n.@X#X,X,X,X2X4X7X6X6X4X,X$X).!.W.l.W.^./.$X;X2X4X4X4X4X4X=X=X%X$X_.W.8.7.7.7.8.8.8.7.4.6.D v 9 *                                                         5 y.SXSXaX| ! R R R R Z Z j C A m v v v v 0 0 1 d f f j R Q 8X0XfXZXZX-.x > + .                                       + 8 v F ~ 7.7.8.8.8.8.8.8.E.W.^.$X#X;X4X2X2X2X2X=X2X=X=X#X#X@X^.l.] z.m.).-X,X7X7X7X6X6X6X6X4X4X;X;X-X-X-XM.M.b.N.n.n.n.n.M.m.x.{ Q S d = + + &                                                                                                                                                 ",
"                                                                                                                                                            , & % & a I ` c.b.v.v.v.b.v.c.h.c.J.v.N.L.#X;X2X4X4X4X4X4X7X7X7X4X,X).^.k.] ] k.^.).%X%X2X4X4X4X4X4X4X=X2X2X%X$X^.E.8.4.4.4.7.7.4.4.! F b 9 =                                                       @.5 y.SXSX0X| ! R R R ! Z C j m m h 4 4 4 2 < < 1 d f f j R X.8X0XvXnXvX..j f 3 +                                       + 7 v F ! ~ 4.7.7.7.7.7.8.E.^.@X#X=X2X2X2X2X2X2X=X2X=X*X=X#X@X).l.) ] z.x.(.-X,X2X4X7X7X7X7X4X3X2X;X;X;X-X{.M.m.m.m.m.m.m.M.M.M.M.m.x.` R m 1 % 8 =                                                                                                                                             ",
"                                                                                                                                                        & 2 & > s I ( c.N.n.n.b.b.l.l.h.h.h.c.b.M.P.;X3X7X7X7X4X4X4X4X4X2X;X;X{.x.) ' ) k.l.).#X=X=X=X4X4X4X4X4X4X=X2X2X#X%X).W.E.7.! 6.! 4.4.6.! D b < 8 %                                                   & t ; $.nXZXR.X.R R R R ! Z C f d x =.=.y.y.t.y = 1 d d f Z Q X.8XqXvXnX0XQ R S m 1 X                                     % 9 v F ! ! 4.4.4.4.7.7.8.!.).#X#X=X2X2X2X2X2X2X2X2X2X*X=X=X#X@Xm.k.( ' { z.(.{.-X;X,X,X4X4X3X3X4X4X4X,X;X-X-X{.M.b.c.x.c.c.m.).{.K.K.M.x.) ~ Z 0 = 8 9                                                                                                                                         ",
"                                                                                                                                                  & % - & d k ( h.c.v.N.n.N.m.l.h.) ) ) h.c.m.-X>X2X3X6X7X4X4X4X4X4X4X,X;X@X{.z._ ( ( ] l.).@X#X=X=X2X4X4X4X4X4X4X2X2X2X#X#X$X_.W.' ! F F F ! 6.F D b 0 * O                                                   O ; 2 c aXnXR.X.E R R R R Z C f , $.s.s.BXBXs.i = 1 d d f Z [ `.8XqXqXvX*.Q ~ R C v +                                     = 9 b D F 6.6.6.4.4.4.8.W.).$X#X2X2X2X2X*X*X2X2X2X2X;X;X;X;X;X-X{.x.( R ! [ Q.(.[.{.-X-X;X;X;X>X;X;X;X;X;X;X-X-X-XM.l.x.h.h.z.x.{.P.P.D.M.M.m.z.[ S n 2 8 w v                                                                                                                                   ",
"                                                                                                                                              % % : > s L Y c.v.N.n.n.n.N.m.c.h.) ) ) h.b.D.;X3X3X7X7X7X2X2X2X2X;X;X,X$X).(.z.Q Q E ) x.M.@X#X;X#X2X2X2X2X2X2X2X2X2X=X2X#X#X#X@X^.z.~ ! F D F F F D b v 9 # O                                                 O 2 d z *.vXR.Q W R R R R R Z f > $.s.BXBXBXs.J = 1 d f j R B.].8X9XqXqXo.E ~ ! Z C 1 %                                 + = 0 b D F F F 6.6.4.7.E._.$X#X#X2X2X2X2X2X2X2X=X2X;X;X;X;X;X-X-X@X(.{ R Z ^ ' z.x.[.[.{.{.-X-X-X-X-X-X;X;X;X;X;X-X{.[.x.h.) ) j.x.S.{.D.D.@XM.M.m.x.` W b 1 q y 1                                                                                                                               ",
"                                                                                                                                          % + + 2 m Q h.J.v.N.N.n.L.n.N.m.c.c.) U ) h.m.-X;X;X2X2X2X;X;X-X-X-X-X@X@X).).!.z.Q R R ( h.m.M.@X#X#X#X;X;X2X2X2X2X2X2X2X2X=X#X#X#X$X).!.] R F D D D D D C b 0 * O                                                 + n j z O.qX8X_ W R R R R R Z b 1 $.s.BXBXBXs.y = 1 d f C / ].}.}.9XqX8X[ Q ~ ~ R W m & +                               + < v b D D F F ! ! 4.8.^.@X#X#X2X=X2X2X2X2X2X2X2X2X#X;X;X;X;X@X-X{.).x.( Z Z W [ { z.'.}.[.[.{.{.{.{.{.-X-X-X-X-X-X-X{.S.x.) ) ) ] x.[.{.{.-X-X-XK.M.m.c.` Q Z d 2 = = >                                                                                                                         ",
"                                                                                                                                      & + + & s Q j.v.N.N.N.n.n.n.M.N.b.c.h.Y ) ) x.m.D.-X;X;X;XI.P.-X{.).{.(.{.(.(.(.!.{ Q L k R ) l.M.K.@X;X#X#X#X#X2X2X2X2X2X2X2X2X=X#X#X#X$X@X).W.' ! D D D D D C b v = @ O                                               % m I I ` 8X8X_ R R R R R E R Z h $.s.s.i.s.d.x < 1 d f Z [ }.oX}.9XqX].Q / / / Q / ^ n = + % % +                     O % 1 b C D D D F ! ~ ] W./.$X#X;X2X2X2X2X2X2X2X2X2X=X#X;X;X@X@X@X@X{.{.!.` R C C W / { `.'.'.'.'.'.V.S.[.[.{.{.{.{.{.{.{.S.x.z.` ) ) h.x.[.|.:X:X-X-XP.K.K.M.b.h.( R f 1 = = &                                                                                                                     ",
"                                                                                                                                  % + + > g Q j.c.b.N.n.n.n.M.M.M.N.m.x.h.) ) ) z.m.D.P.P.-X-X-XD.D.[.m.!.'.!.!.z.Q.Q.9.~ Z j Z E ] m.M.@XK.@X@X#X#X#X#X;X;X;X2X2X2X2X=X;X#X#X$X$X).^.Q.~ F D D N N D b v 0 = O                                               & A E ( ` 8X8X' E E E E E E E W m #.d.s.s.s.=.w < 1 d f S 9.XXoX}.9X9Xo.Q  ./ [ [ X.w.^ n 9 * @ # X .                 + = v b C D D D F ! ' W.).@X@X#X#X2X2X2X2X2X2X2X2X2X=X#X;X;X@X@XK.M.).[.'.{ / k C A W / [ B.`.`.B.B.B.B.V.V.V.[.[.[.S.S.S.S.m.x.z.j.) ) h.x.[.[.|.|.:X-X-X-X-XK.M.m.c.` Q A 0 7 * = 2                                                                                                               ",
"                                                                                                                              % + + > s I ) c.N.N.M.M.M.M.M.M.M.M.m.c.h.) ) ) z.x.m.).{.{.).{.{.m.x.x.x.x.Q.z.9.{ { { / R C j Z ( k.l.M.M.@X@X@X@X#X#X#X;X;X;X2X2X2X2X2X2X;X#X#X$X).).!.k.~ Z D N N b b b 0 9 + O                                             & S E ( ` `.`._ E E E E E E E R m h $.d.s.d.@.2 < 1 , f ^ `.XXoX}.9X8XX.X.X. .X.w.9.w.q.A d d v B 8 .               + = 0 v b N D D D F ' c.m.M.@X#X;X;X2X2X2X2X2X2X2X2X2X2X;X;X-X@X@XM.M.m.[.!.z.[ Z f b C R / { o.B.B.B.B.B.B.V.V.V.V.V.V.S.S.m.x.x.x.z.` ) ) h.c.S.{.|.|.:X-X-X-XP.P.P.P.D.m.h.Q Z d 2 - - %                                                                                                           ",
"                                                                                                                          % + + > j Q j.c.N.N.M.M.M.M.K.K.K.M.M.m.c.h.) ) ) j.x.x.m.(.(.m.m.m.x.x.z.z.z.z.z.{ 9.{ [ / R Z j j Z ' h.l.m.M.).).@X@X@X#X#X#X;X;X2X2X2X2X2X2X2X;X#X$X@X).).!.] R Z b b b b b v e 7 +                                             > R ( ) { z.z.( E E E E E E ( Q S 1 2 r.r.y ; = > , d C [ ].XXXXXX9X].X.X.X.[ 0.w.w.w.H f j R [ w.1.& &           O % 9 0 v b N D D F ~ k.b.M.@X@X;X;X;X2X2X2X2X2X2X2X2X2X2X;X#X@X@X@XM.M.m.S.x.z.[ W f d b C R [ { o.o.B.B.z.B.B.z.z.z.z.V.V.V.x.x.x.x.z.j.j.) h.h.c.S.{.|.:X:X-X-X-XP.P.P.P.P.N.b.j.Q Z m = + + + &                                                                                                     ",
"                                                                                                                      % + + & s Q ` c.N.M.L.K.M.M.K.K.K.K.K.M.{.x.h.) ) ` z.z.x.x.x.m.x.x.x.z.V.B.B.z.z.{ { { [ [ ~ R Z j f C R ' j.x.c.m.M.).).@XK.#X#X;X;X;X2X2X2X2X2X2X2X;X;X#X$X@X).^.!.] R Z C N b v v 0 9 * %                                           , E ( ) { z.{ ( E E R E E ( ] { / n * ; 6 6 $.=.=.c f W 9.].XXXXXX9Xw.[ X.X.[ w.w.w.H f j Q Q.'.'.].H > + O + O O * < 1 v v b N D F ~ k.b.M.M.@X#X;X;X;X2X2X2X2X2X2X2X2X2X2X#X#X@X@XM.M.m.m.x.z.{ ` / C d v b Z ~ [ { o.o.o.B.B.z.z.z.z.z.B.z.B.x.x.x.x.z.z.j.j.j.` j.x.S.{.|.:X-X-X:X-X-X-X-XP.P.K.M.m.x.] R f > % + + %                                                                                                 ",
"                                                                                                                  & + % 1 l Q j.c.N.N.M.K.K.K.P.K.P.P.K.K.@X{.m.j.) ) ) z.z.z.x.x.x.x.x.z.z.z.z.B.{ { { { { [ [ / R k j f f Z R ( { j.x.c.m.m.M.M.K.@X#X;X;X;X2X2X2X2X2X2X2X;X,X#X$X$X@X).(.W.' R D N b v v v 0 7 + +                                         z _ ) ] { Q.{ ( E R R E E ) l.x.o.A = 6 $.u.bXnXnX&.l [ ].}.XXXXXXXX[ / 0.0.w.w.q.A b H 0.'. X.X(.[.].H 1 % + % = 9 0 v v v b N D ~ ] l.M.M.-X-X#X;X;X;X;X2X2X2X;X2X2X2X2X2X#X#X@XK.M.m.b.x.x.z.` ' / Z b v v C ! / [ { o.{ o.o.B.B.B.z.z.B.j.j.B.z.z.z.z.z.z.z.z.` j.j.x.S.{.|.:X-X:X-X-X:X-X:XP.P.P.P.K.M.m.j.Q C 1 = O O + &                                                                                           ",
"                                                                                                            + + % & s k _ j.m.N.M.M.M.P.P.P.P.P.P.P.P.P.).).(.z.` ` ` { z.z.z.x.z.z.z.z.z.z.z.{ { { { { { { [ / R Z j f s f Z W ( ` ` j.z.c.m.M.M.).@X-X;X;X;X2X2X2X2X2X,X,X,X,X;X$X$X@X).).(.W.] R D b v v v v 0 = + O X                                 a z ( ) ) ] { 9.] E R R R E E ] l.m.!./ g &.bXVXZXZXnX*.W o.].}.XXXXXX]./ ^ 6.6.q.H A C 6.`.OX X.X.X{.(.!.0.F v 0 0 0 0 v v v b b Z R k.m.).@X@X-X#X#X#X#X;X;X;X;X;X;X;X;X2X2X2X;X;X@XK.M.m.c.z.j.{ ' ' / S b d d b Z ! / [ { o.o.o.o.z.z.B.o.{ { z.z.z.z.z.z.z.z.j.j.z.j.j.j.x.S.{.{.:X-X-X-X-X-X-X-XP.P.-X-XP.P.D.S.z._ S v = + O + O                                                                                       ",
"                                                                                                      % O O O & l Q j.c.N.N.M.M.M.K.P.P.P.P.-X-X-XP.P.D.{.(.x.j.) { z.z.z.z.z.z.z.z.z.{ z.{ { { { { { { ` [ [ ^ Z j f f s f Z W E _ ` ` j.x.c.m.M.).-X;X;X;X2X2X2X2X#X#X#X$X$X$X$X-X-X@X@X.X).(.W.' ! C b b v v 0 < * + X .                           & , k ` z.h.] ) ' { [ ~ R R R E ( ] !.^.!.[ K -.ZXZXZXZXnX*.W `.}.}.XXXXXX]./ H ^ G N b D 0.]. X.X.X.X.X.X X!.0.Z b v v v v v v v b C R ] m.M.@X@X@X$X#X#X$X$X@X).).M.).).@X;X;X2X2X;X;X-X).M.b.x.j.{ ' _ Q / ! b d d d C S / [ { o.o.{ { { { { { { { { { z.z.z.z.j.j.z.z.z.j.j.j.j.x.m.{.{.:X-X-X-X-X-X-X-X-X-X-X;X;X-XP.P.M.m.Q.^ m = # X X X                                                                                   ",
"                                                                                                  + O X + 4 l _ j.N.M.L.M.K.K.K.P.P.P.P.P.P.-X-X-X-XD.[.[.x.j.` { z.z.z.z.z.z.z.z.{ { ` ` ` { { { { { _ _ _ / W C f f s s f Z R Q _ _ ` { j.x.m.m.).-X;X;X2X2X;X;X#X@X).).).).)..X.X$X$X$X-X{.).(.Q.' F b b b v v 0 < = @ X X                       & a L j.x.(.!.x.{ ' ~ ~ R R R R E ( k.!.^.!.{ ..cXZXZXZXZXnX*.Q `.}.}.XXXXXX].^ H H b A 5.w.OX.X.X.X.X X X X'.9.^ C v v v v v v v b C R ] l.m.).@X@X@X$X@X@X).m.l.x.z.x.!.^./.$X;X2X2X2X;X@X).M.b.z.{ ` [ Q Q W ! C d d d f A ^ / [ [ [ _ { ` ` ` ` ` ` { { z.z.z.z.j.B.B.z.z.z.z.j.j.h.x.S.{.|.:X-X-X-X-X-X-X-X-X-X-X:X:X:X;X>X;X-X[.z./ A 1 @ X X +                                                                               ",
"                                                                                              + O O + , W ` m.M.L.L.L.K.K.P.P.P.P.P.-X-X-X-X-X-X-X-X{.x.z.{ ) { z.z.z.z.z.B.B.B.o.o.{ ` ` ` _ { { { [ _ [ _ Q S C f d d f j Z k W Q _ _ _ ] j.x.m.).-X;X;X2X;X;X;X@X).l.W.Q.E.E.W.(. X.X.X$X-X{.{.(.Q.[ ! C b b b b v 1 = # X                   & & s Q z.m.[.[.{.[.'.{ ~ ! Z Z ! R E ( z.m.m.(.{ | aXZXxXZXZXnX*.Q `.}.}.XX}.}.`.^ H H 5.w.]. X.X.X.X{.{. X X'.w.6.D b v v v v v v b C R ] x.m.).).@X@X@X{.m.m.z.k.] ) ` z.W.^.@X;X4X4X4X7X;X-X).m.x.j.` ' Q W W W ^ Z b d d d C S / / [ [ _ _ _ ` ` _ ` ` { { o.{ z.z.j.B.B.z.z.z.z.z.j.j.h.z.V.[.{.:X-X-X-X-X-X-X-X-X-X:X>X>X>X>X3X2X>X;X{.'.X.H 9 * O -                                                                             ",
"                                                                                          + O O + , W j.S.P.I.I.L.P.P.P.P.-XP.P.P.-X-XP.P.-X-X-X{.{.x.j.` ` { { B.z.z.z.z.z.B.o.o.{ { { ` _ _ [ [ [ [ [ [ Q W Z f d d d f j Z k W W Q Q _ ' { z.x.{.-X;X2X7X3X2X;X).m.x.] ' ' ' ' 0.Q.!.(.{.{.-X{.{.[.Q.[ ! Z C b b b v 0 7 @ +             % % w l _ x.).{.{.{.[..X X`.~ Z Z Z R R E ' x.^.^.(.z.| aXZXZXZXZXnX*./ `.}.}.}.[.}.w.H H 0.`.OX X.X.X.X.X{.{.[.'.9.6.F N v v v v v v b C E k.l.m.).).).{.{.(.x.z.{ ] ] ' ' { !.(.).;X4X7X6X7X7X;X-X).m.z.` [ Q Q W W S F F C d d d b Z ^ / [ [ [ _ _ _ _ _ _ ` ` ` { ` z.z.j.j.z.z.z.z.x.x.z.z.j.h.j.x.[.|.:X:X-X-X-X-X-X-X-X-X>X>X>X>X3X3X3X3X3X>X:X}.o.W d = 8 %                                                                         ",
"                                                                                      + o # % h } B.S.K.L.I.I.I.I.I.P.P.P.-X-X-X-X-X-X-X-X-X-X{.[.x.j.` ` z.z.z.z.z.z.z.z.B.B.o.o.{ { { { [ [ [ [ [ [ [ _ Q R C f d d d f C j k S W W Q Q _ ` z.x.{.-X3X3X6X6X6X7X;X-Xm.z.] ' ~ ~ ~ ' 8.Q.!.{.{.{.{.{.{.!.{ ~ Z C C b b v e 7 @ +       % + - w A [ !.{.{..X.X|..X.X.X`./ Z C Z ! R E ] x.(.^.(.z.| T.MXMXnXnXcX..Q `.}.}.[.[.}.w.A 6.]. X.X.X.X.X.X(.(.'.Q.0.~ F b b v v v v v b C ~ z.b.^.).).).{.(.!.z.{ { ' ' ' ` { !.[.:X,X4X6X6X6X6X6X;X-X).l.j.' Q W W W S S F F C d d d b C R / / [ [ _ _ _ _ _ _ ` { ` { { { z.j.j.z.z.z.x.V.V.V.V.x.j.h.j.x.}.|.:X-X-X-X-X-X-X-X-X:X:X>X>X>X5X5X3X3X3X3X>X-XF.o.} n 8 - >                                                                     ",
"                                                                                  O X o O 4 W B.D.P.I.I.I.I.I.I.I.I.I.P.P.-X-X;X-X-X-X-X-X-X{.S.z.) j.j.z.B.z.z.z.z.z.z.z.z.B.o.{ { { { _ [ [ [ _ [ [ [ Q R Z j d d d d b C j k Z W R R Q Q ` z.m.{.-X3X6X6X6X6X6X7X<X-X{.!.z.' ~ ~ ~ ~ ' 0.Q.!.{.{.{.{.[.!.{ ~ Z Z C b b v 0 = + O + + + * = d Z { {.{.[..X.X.X.X.X[.'./ Z C Z R ~ ' k.!.(.m.(.{ W *.cXbXmXa.&.A ^ `.}.[.[.[.].w.A 0.OX.X.X.X.X.X X X!.Q.0.~ Z C b b b b b b b Z ' z.m.M.).).{.[.!.z.{ [ ' ( ' ] { z.S.{.-X3X6X6XuXuXuX6X6X>X-X{.x.{ ' Q W W S S S S Z C f d d d C S / / [ [ _ _ _ _ _ _ ` { { { { { { z.z.B.z.z.V.V.S.F.S.S.x.h.) ) z.[.|.-X-X-X:X:X:X-X-X-X-X-X:X>X>X<X3X3X3X3X3X3X2X-XS.o.H w ; &                                                                   ",
"                                                                              + X O + > S o.S.P.I.I.I.I.I.I.I.I.I.I.I.P.-X-X;X;X;X-X-X-X:X{.S.z.` ) j.z.'.'.V.z.z.B.z.z.B.z.o.{ { { { [ _ [ _ [ _ [ _ X.Q R C f d d d f b C j k S S R R W Q ` z.m.{.;X3X6XiXuXiXiXuX6X3X;X-X{.x.{ ' ~ ~ ~ ~ ' { Q.'.{.{.{.[.!.{ ~ F F Z C b v 0 = = = 7 = < 1 d k ] (.{..X.X.X.X.X|.{.!.[ Z C Z R ~ ' k.^.m.m.(.{ S g c $.&.c n d W `.}.[.[.[.].q.A w. X.X.X X X X X!.Q.{ ~ Z C b b b b b C Z R ) l.M.M.).(.[.'.z.` ' ~ ~ ' ' j.z.x.{.-X;X3X6XiXiXiXiXuXuX6X>X:X[.x.` [ W W S S S S S S A b d d d f Z ^ / [ [ _ _ _ _ _ _ ` { { { ` { { j.z.B.B.V.V.S.F.{.{.F.S.x.) ) ) z.[.{.-X-X-X:X:X>X:X-X-X-X-X:X:X>X>X>X3X3X3X3X3X3X;X@XS.X.K y 2 <                                                               ",
"                                                                            O X O & l o.V.D.I.I.I.I.I.I.>X>X;X;X;X;X;X;X;X-X:X:X>X-X-X:X[.'.z.` ` j.x.V.S.}.V.V.B.B.B.B.B.B.B.o.o.o.{ ` _ [ [ [ _ _ _ [ Q k j s d d d f C j C k Z Z Z R W Q _ z.m.-X;X3X6XuXiXiXpXpXiX6X6X2X-X{.[.x.{ ' ~ ! ! ~ ~ 0.Q.'.}.{.[.!.9./ ! Z Z C b b v 0 1 1 1 1 1 d j Q Q.[.[..X|.|.[.[.{.!.' Z C Z R ~ ) x.(.(.(.(.9.C > > 4 4 x K m W `.}.[.[.[.].^ Z w. X{..X X X!.W.Q.[ ~ Z C C b N C C Z R ' h.b.n.M.).(.!.z.{ ( Q ~ ~ ' ] z.x.m.D.-X;X3X6XuXpXpXpXiXiX6X6X;X:X[.z.' Q W S S S S S Z Z A A b d d f C ^ / [ [ _ _ _ _ _ _ _ ` ` o.{ { z.j.B.B.B.V.V.S.{.|.|.|.|.F.x.) ) ) j.S.{.:X-X:X:X>X:X-X-X-X-X;X:X>X>X>X>X>X3X3X3X3X2X2X;X{.B...J - %                                                             ",
"                                                                        + X o + 1 Q V.P.P.I.I.I.I.I.I.>X>X;X;X;X;X;X;X;X;X-X:X:X>X:X:X[.B.{ _ ` j.V.F.[.[.[.}.V.V.V.B.B.B.B.o.o.o.o.{ _ _ [ [ [ _ X._ [ W k j d d d d f C C C j Z Z k R R Q _ z.S.D.;X3X6X6XiXiXpXpXpXiX6X7X;X-X|.[.x.Q.{ ' ~ ! ! ~ 6.0.Q.'.!.!.Q.9.0.~ ! R Z Z C b b v d d d d f Z ' Q.[.{.[.[.[.{.{.!.' Z C Z R ~ ] !.(.(.(.(.{ S g x c #.-.e.T | Z.}.[.[.[.].H Z 9.'.{.(.(.(.!.Q.[ R Z C C C Z D Z Z E ) c.b.m.M.m.!.{ [ [ / ~ ~ ~ ~ ] z.m.M.D.P.;X2X6XuXuXpXpXpXiXiX6X7X>X|.[.B.[ W S S Z Z Z Z Z Z A A b v d d C S / / [ _ _ _ _ _ _ _ ` ` o.{ { { j.B.B.V.V.S.F.G.|.|.|.|.|.[.x.) U Y j.S.|.:X:X:X:X:X:X-X;X;X;X;X>X>X>X>X>X>X3X3X3X3X3X7X7X-XV...y @ O                                                           ",
"                                                                      X X O % h ` M.I.I.I.I.I.I.I.I.I.>XI.>X;X;X;X;X:X:X:X:X:X:X>X:X}.B.[ _ ` z.S.F.|.|.|.|.F.S.V.V.B.B.B.B.o.o.o.[ [ [ _ [ [ [ X.X.X./ W Z f d d d d f j j Z Z Z k k k R Q _ z.S.D.-X3X6XrXiXiXiXpXpXiX6X7X;X;X:X{.D.(.!.z.` ~ ! ! ! ! / { Q.E.Q.9.0.0./ ~ R ! F Z Z C b f d d f j R { '.[.[.[.{.{.{.!.' Z C Z R ' k.!.(.(.(.(.'.o.0XmXbXsXnXnXaXY.8X}..X[.[.].H S w.'.(.(.!.!.{ ' R Z j C C Z Z Z R E ) c.b.c.x.z.{ [ / ~ R R Q Q ~ ' z.m.).@XP.P.;X;X3X6XuXpXpXiXiXiX6X5X:X{.'.{ Q W S S A A S S Z Z C A b v d d f Z ^ / X.[ X.X.[ _ _ _ ` ` o.{ o.B.B.B.V.V.S.F.G.G.U.:X:X:XU.:XG.x.Y U Y j.[.|.:X:X:X:X>X>X>X;X;X>X>X>X>X>X>X>X3X3X3X3X3X7X7X2X{.X.n - o X %                                                       ",
"                                                                  O X o # & l o.D.I.I.I.I.I.I.I.I.I.I.>XI.>X>X;X>X:X:X:X:X:X:X:X-X[.B._ _ ` V.{.|.|.|.|.G.G.G.F.S.V.B.B.B.B.o.o.o.{ [ [ _ [ [ [ X.X.[ Q Z C f d d d d b C C C k S l k Z Z W _ { V.G.U.>X3XrXrXiXiXiXiXrX6X>X>X-X-X{.D.S.S.x.z.{ [ / ! R R ~ ' / / 6.q.q.0.0.[ / / ! R Z C C f d d f C ~ 9.'.'.[.[.D.D.x.Q Z C Z R ' k.(.(.(.(.(.'.C.0XNXZXSXSXZXMXNXqX]. X.X.X`.S H 9.'.(.(.!.9.~ R Z Z C C C Z R R E ) h.h.h.{ ' / ^ ! ! ! ! R ~ E ' ] x.m.).-XP.P.;X;X;X3X6XiXiXiXiXiX6X5X:X{.'.{ Q W S A A C A A Z Z C C b b d d f C S / X.X.X.X.[ [ _ _ { ` o.o.o.B.B.B.V.S.F.G.G.U.U.:X:X:X:X:X:XD.m.h.Y ) z.[.:X:X:X>X>X<X<X>X<X<X<X>X>X>X>X>X3X3X3X3X3X3X3X:X}. .3 @ o X . O                                                     ",
"                                                                X X # + 4 l j.D.I.I.I.I.>XI.I.>X>X>X:X:XI.;X:X>X>X>X>X>X>X:X:X|.}.z._ _ ` x.{.:X:X:XU.:XG.G.G.G.F.V.V.B.B.B.o.o.o.{ { [ [ [ [ X.X.X.[ Q Z j d d d d m C C A l j j j j Z Z W Q { V.S.G.:X3XtXrXrXiXiXiX6X5X:X-X{.{.{.D.(.S.V.z.{ ' / R R R R R Z A m N H ^ 0.0.0.[ ' ~ R R Z j f f f f Z Q { !.[.S.S.S.x.Q j C Z R ' k.^.(.(.(.(.S.Z.O.T.NXSXSXSXMXvXO._ Q.[. Xw.A ^ 9.'.(.(.!.{ R j C C C C Z R ~ ' ' ) ] ' / W A A A Z Z ! ! R ~ E ' ] h.c.m.M.M.M.-X-X;X>X5X6XrXiXrXrX5X>X{.}.`.[ W S S A C C A A A A l A A b d d d b S / / X.X.X.{ { { { o.o.o.o.B.B.B.V.V.S.G.G.U.U.U.:X:X:X:X:X:X:X:XS.h.Y ) j.}.|.:X>X<X<X5X5X5X5X5X<X<X>X>X>X3X3X3X3X3XeX9X`.H 3 + O X X . . O                                                   ",
"                                                              X . o O & g +.S.P.I.I.I.>X>X>X>X>X>X>X>X>X>X>X>X>X>X>X>X>X>X:X|.'.o._ _ { V.|.:X>X:X:XU.:X:X:XG.G.F.S.V.B.B.B.o.o.o.{ { [ [ [ X.X.X.X._ W Z j d d d f b C A j j l j j k Z Z Z W _ B.V.G.-X<X3XtXrX6X6X6X5X>X-X{.{.[.[.x.x.z.z.{ ' / Q R R S Z C f , < > d C ! / 0.[ ' ~ Q E R Z f s s s j k Q { x.m.S.S.x.Q j C Z E ' k.^.(.(.(.m.S.'.{ +.Y.vXNXNXvX*.I W [ '.'.0.Z ^ `.'.m.(.z.' Z C C C Z Z R R ~ ~ ~ ! S C v 3 3 v b A Z F F ! ! R Q ' ` { z.x.x.x.m.{.|.:X<X5XtXrXtXtX<X:X|.'.`./ H A A A C C A A A A l A A b b d d f S ^  .X.X.X.{ { { { o.o.o.o.B.B.B.V.V.F.|.G.U.U.U.:X:X:X>X>X>X>X:X:Xm.h.U Y j.[.|.<X<X5X5X5X5X5X5X5X5X3X3X3X3X3X3X<XwX8X..n - # X X X . . . . X                                                 ",
"                                                            . . X o O ; x | '.[.D.P.;X>X>X>X>X>X>X>X>X>X>X>X>X>X>X>X>X>X:X|.V.o._ Q ` V.|.:X>X>X>X:XU.:X:X:X:X|.F.F.V.B.B.B.o.o.o.o.X.X.X.X.X.X.X.X.Q Z j b d d d f b C C j j j j l j j l A l W _ B.V.{.>X<XtXtX5X5X5X<X:X{.[.V.`.9.{ [ [ / / W R S Z A C C f , & % % & 1 d A S ^ ! R R R R C f d d d s j L _ j.x.S.S.x.Q k Z R E ' k.^.(.(.(.(.m.V.j.( _ +.+.+.+.Q W W Q { 9.[ Z / `.x.m.(.z.Q Z C b C Z Z F F G V v 1 = % % % * 2 9 v v m b b A A C S S W W Q Q [ { B.'.|.|.:XeXeXeXeXeX|.F.B.X.S m m m g l j j j C C l A C b m d d f C ^ / X.X.o.o.o.o.o.o.o.o.B.B.B.V.V.S.F.|.G.U.U.U.:X:X>X>X>X>XeX:X:XS.c.Y U U ) [.1X<X5X5X5XtX5X6X6X6X6X7X3X5X<X1X9Xw.K 2 # o X X X X . . . . . X                                               ",
"                                                          . . . X X X O + > g  .`.}.:X:X:X>X>X>X>X>X>X3X3X>X>X>X>X>X>X:X|.Z.` Q Q _ V.{.:X>X>XeX>X:X:X:X:X:X:X|.F.F.V.B.B.B.o.o.o.X.X.X.X.X.X.X.X.X.Q Z j b d d f f C C j j j j j l j j l g g g l | o.F.|.:X<X<X<X<X:X|.[.V.B.X./ / ! ! Z C C C f f f f d d d > % + + + % % & > , d f f b b d , 1 1 , d j k E ) x.S.S.z.Q k k R E ] W.(.m.m.(.(.m.m.x.` ) _ _ _ ( ' Q Q Q _ _ Q R [ `.m.m.m.z.R C b b b b b b 0 = * + O O O O O O + * * = = = = = = < 1 3 3 3 h g A W [ o.'.}.}.|.:X:X:X|.F.V.o.S 3 q w n m g j j j C l l A C C b d d v b S / X.X.o.o.o.o.o.o.o.o.B.B.B.Z.}.}.|.|.G.U.U.U.U.:XeX:XeXeXeXwX9X|.x.Y U P P ( x.oX<X5XtXtXrXrXrXrX6X6X3X<X9X8X..x ; # # X . . . . . . . . . . X                                             ",
"                                                        . . . X X X . X X O + = n } w.}.|.:X:X>X>X3X3X3X3X3X3X>X<X<X:X}.B._ Q Q _ z.S.F.|.|.|.|.|.|.:X:X:X:X|.|.F.F.V.V.B.B.o.o.o.o.o.X.X.X.X.X.X.X.W k f g d d s f b C j C C j j j f m n 3 & & 4 g W B.}.:X:X:X:X:X{.}.'.w. .H A b m v d d d , 1 1 > > > < & % + O O O O O O + + + % % % % % + + % > , s k L ( j.m.S.j.Q k k R E ] W.(.m.m.(.m.m.m.c.x.k.) ) ) ) ) ) ) ` _ _ Q Q ` x.m.m.x.{ R C f d 3 1 = % + O X X X X X X X X X O O O O O O O O O O + + + + % = 3 A W X.B.V.}.|.|.|.F.Z.O.} 3 % @ - = 3 d g f j j j A C C A b g d d b A ^ X.X.X.o.o.o.o.o.o.o.B.B.B.V.F.F.G.|.|.:XU.U.U.U.:X9X8X8XO.} W Q ` ) Y P P P ( z.[.<XtXyXrXrXrXrX6X6X5XwXw.K 2 : o o o . . . . . . . . . . . . X                                           ",
"                                                      . . . . . . . . . X X X X + & h } w.}.|.:X>X3X3X3X3X3X3X<X<X1X}.z._ Q Q _ { z.V.Z.B.o.X. .X.o.}.|.|.:X|.G.F.H.V.V.B.B.o.o.o.o.o.o.o.o.o.X.o.X.W j f m d d f f j j j j C j f g d 3 = % O O + 4 l Q B.F.|.|.|.[.'.`.9. .H m 3 1 < < = = & & % % % % + + O O X X X X X X X X X X X X X X X X X O % > s k L ( j.x.x.` L k k R E ] x.(.m.m.m.m.m.m.l.x.z.h.{ { ] ) h.j.j.j.{ _ ( z.V.m.m.x.` R C j d 1 * O X X X X X X X X X X X X X X X X X X X X X X X X X X X O % 3 A W { B.V.F.}.F.Z.B.X.l + O X X O + & 1 v b j j j A A A f g d d f C W  .X.X.o.o.o.o.o.o.o.B.B.V.V.F.F.G.|.|.G.P.P.G.F.C.} h & * % & > l Q ( U P P P U ` }.<XyXyXyXrXrX6XrXeXw.x : # o o o o . . . . . X . . . . . . . X                                         ",
"                                                    . . . . . . . . . . . . . . . X O & h } B.|.>X3X3X3X3X3X5X<X:X}.` Q Q Q Q _ ` { [ W l a 4 4 4 g } C.Z.F.G.G.F.H.V.V.B.B.o.o.o.o.o.o.o.o.o.o.X.Q I j f d d s f C C j j j C f g 3 2 * + O X . O * h S O.Z.}.}.}.'.`.X. .A v < * - @ @ + + O O O O X X X X X X . . . . . . . . . X X X X X . . . X O & d k L ( ) z.z._ L k L L ( j.!.m.m.m.m.m.m.x.x.x.x.x.z.k.k.k.h.c.c.c.z.) ) x.V.V.x.z.' R C j d 1 + X . . . . . . . . . . . . . . . . . . . . . . . . . . . X O % 3 m W X.C.C.B.C.C.o.S > O X X . . X O + 2 d s j f C A A f b d d d b S  .X.X.o.o.o.o.o.o.B.B.B.V.V.F.F.G.G.G.D.S.F.C.} 4 % O X X X O O % d R E P U U U ( ` V.1XtXyXyXrXrXtX9XK : # o o o . X o . . . . . . . . . . . . . X                                       ",
"                                                  . . . . . . . . . . . . . . . . . . O + , S Z.:X3X3X3X3X3XeXwXV.` _ Q Q Q Q Q Q S g > % + O O O + > l O.C.Z.F.F.F.V.V.C.B.o.o.o.o.o.o.o.o.o.o.X.Q k j f d d f f C C j j j m g 3 & + O X X . . . + % g } o.].].].w.X...K v = + O X . . . . . . . . . . . . . . . . . . . . . . . . . . . . . . X X X % d k L U ( ` [ Q k k L R _ z.(.(.m.m.m.m.m.x.x.z.z.z.{ { { o.z.z.c.l.c.j.j.V.m.V.x.z.[ Z C j d 1 + X . . . . . . . . . . . . . . . . . . . . . . . . . . . . . . + 3 A } X.O.o.o.| } 1 + . X . . . . X X + > d s f f A A g m d d d f C / X.X.o.o.o.o.o.o.B.B.V.V.F.F.F.G.G.F.H.].w.g % O X . . . . X X X + 1 Z P U U ( E E ( z.[.eXyXyXrXtX].x # o . . .           . . . . . . . . . . . . .                                     ",
"                                                . . . . . . . . . . . . . . . . . . . . X + 1 | |.3X6X6X5XeX|.B._ Q Q E Q Q Q W A 1 % O X o X . . . O % x ..O.Z.Z.V.V.Z.B.C.o.o.o.o.o.o.o.o.O.o.X.Q k j f d d f f C C C l g n 2 % O X X . . .         & K X.o.O.O.X.^ m 3 = + X .                                                           . . . . X + > j L P ( Q Q k k k L E ' z.!.(.m.m.m.l.x.z.X./ W k j f d v g R ) x.x.c.x.S.S.S.x.z.Q Z f b f 1 + X . . . .                                                     . + 2 m S } | } K 4 + .         . . . . X O & 1 s f C C b m d d d d j W  .X.X.o.o.o.B.C.C.B.Z.Z.F.F.F.F.H.Z.w.q.2 + . X     . . . . X X X + 1 k P U U U P P P ` [.1XtXrX<X].x # X .                   . . . . . . . . . . . .                                   ",
"                                              . . . . . . . . . . . . . . .         . . . O & S S.3X6X6X5X9XB.Q W W Q E Q Q W m 2 + O X . . . . . . . X + 3 K O.C.V.V.V.V.C.C.o.o.o.o.o.o.o.O.X.X.W k f f d d f C C Z C g m 3 % O X X . . .           > , S  . . .} m > % + X .                                                                 . . . O & s k P E E R k k k L E ] x.l.x.x.m.m.x.{  .S d h g h , 4 & % , Q z.x.c.m.S.S.S.x.{ Q C f f f 1 * X . . . .                                                       . + 2 g A K K h % X               . . . X O % , f C C C m m d d d f Z / X.X.o.o.o.B.C.C.B.Z.Z.F.F.F.Z.C.O.K & O %           . . . . . . X + 1 S E ( U P I I P U j.{.<X<X].J - .                       . . . . . . . . . . . .                                 ",
"                                            . . . . . . . . . . . . . .               . . X % l V.>XtXeX|.B.Q I W Q Q Q Q W A 2 + # . . .             . . O & J ..O.C.Z.Z.B.C.C.o.o.o.O.O.o.o.X. .W j s d d s f C C Z C m w % O . . . . .               & d A H A n 1 % O X .                                                                       . . % a z L E R k k k k L E ] x.x.m.m.m.x.z./ m > > $.a.-.cXmXe.; & Z z.x.x.m.m.m.m.x.{ Q C f f d 1 * X . . . .                                                         . O & 1 n 3 * X O                 . . . X O & 1 f C b b g d d d f C / X.o.o.o.o.B.C.B.B.Z.Z.F.Z.Z.C.O.K > O                       . . . . + 3 S I P U P P I I P ( x.}.w.K ; +                         . . . . . . . . . . . .                               ",
"                                          . . . . . . . . . . . . .                   . . X % l B.|.|.}.` Q Q I Q Q Q Q W A < + X . .                     . . + 3 K O.C.C.B.B.B.C.o.o.o.O.o.o.X. .S j s d d s f C C C m w : X X . . . .                   O 9 3 > = + O . .                                                                           . + , z L P L k k k k L E ] x.x.m.m.m.x.z.W 3 w r.mXcXmXNXvXcXy = C { x.x.m.m.m.m.x.{ R j f f d 1 * O . . . .                                                           . O * * + O .                       . . X + > d g b b g d d d f j / X.o.o.o.B.C.B.B.B.Z.Z.Z.Z.C.O.K & %                             . . . + 3 S I U U P I R W I Q Q H n - X O                         . . . . . . . . . . . .                             ",
"                                        . . . . . . . . . . . .                       . . X % s o.B.o._ Q Q Q _ Q Q Q W A 3 + X . .                           . O 2 K O.o.B.B.B.C.C.o.O.o.o.X.X.Q S j s d d s j j C m w + X . . . . .                     . + * * @ O . .                                                                             . O > z L P L L k k L R E ] z.!.x.x.m.x.z.S 1 r.mXe.| qXNXqXe.J 2 f _ x.x.m.S.m.x.x.` W j f f d 1 * O X . . .                                                             . X O X .                           . . X + > d f f f g d d d j W X.X.o.o.C.C.B.B.V.Z.Z.Z.C.O.K < &                                 . . . # 3 l W Q P P I W R Z b n = + # . X                           . . . . . . . . . . .                           ",
"                                      . . . . . . . . . . . .                         . . X % s Q _ Q Q Q _ _ _ Q W W A d % . .                                 . X 3 S O.A.B.V.C.C.O.O.o.o.X. .W Z j s s s s j C m n - X . . . . .                         . O O O . .                                                                               . O & s L P P L k k k R E ] z.!.S.x.m.x.z.S 3 K e.| I *.qX8X..w 9 j _ x.x.m.m.m.x.x.` W j f f d 1 * O X . . .                                                               . . . .                             . . X + & , d b f d d d s S / o.o.o.C.B.A.B.Z.Z.Z.C.O.K 4 %                                     . . . X & h l I L L I R Z m 9 % + # . . .                           . . . . . . . . . . .                         ",
"                                    . . . . . . . . . . . .                           . . O & h z I I Q _ _ _ Q W l l 1 & . .                                     . O h } o.B.V.Z.C.C.O.o.X.X. .W k s s s s f f m w % X . . . . .                             . . . .                                                                                 . X % s k L L L k k L R E ] z.!.!.x.m.x.z.^ n m S W R W W R C d d j _ x.x.m.S.x.x.x.` I j f f v 1 * O . . . .                                                                 . .                                 . . X O % > d d d d d d j Q X.o.o.C.A.A.V.Z.Z.Z.O...h &                                               . O 2 d j k Z Z A n 2 - + X . . .                             . . . . . . . . X . .                       ",
"                                  . . . . . . . . . . . .                             . . O & , s k I Q _ _ Q W l s 1 % .                                           O % l +.A.V.Z.C.C.O.o.o.X. .W j s d s s g n 2 + X . . . . .                                 .                                                                                     . X + a k L P L k k L R E ] z.!.!.x.m.m.z./ A N S R R R Z Z b m g k ' x.x.m.S.x.x.x.` W j f f v < * O . . . .                                                                                                       . . X O + & > 1 1 d d s W X.o.o.C.B.Z.Z.Z.Z.C.O.K &                                                   . . * > , d d d 1 = @ O X . . .                                 . . . . . . . . . .                     ",
"                                . . . . . . . . . . . .                             . . X X + & , z I W W W l s , 2 O X                                               + , I +.A.Z.C.C.O.o.X.X. .S j s d d d 3 ; + X . . . . .                                                                                                                         . . + > z L P L L k L P E ) z.x.!.V.m.m.V.[ S A S ! ! Z D D b N b k ' x.x.S.S.x.x.x.{ R f d d v 9 * O . . . .                                                                                                         . . X X + + & > , , d l | o.o.B.Z.Z.Z.Z.Z.O.} > %                                                       . O * & & & * % + O X X . .                                   . . . . . . . . . .                   ",
"                              . . . . . . . . . . .                                 . . X X O % & a s s s a , & * .                                                     + j +.A.Z.Z.C.C.o.X.X. .S f d d 1 2 * O X . . . . .                                                                                                                             . O & s L P L L k L L P _ j.x.!.V.m.m.'.{ W Z S ! R Z Z C f b b k ` x.x.S.S.x.x.x.{ R f d d 0 9 * O . . . .                                                                                                           . . X X O + % & > , j W o.B.B.Z.Z.Z.Z.C.O.g O                                                           . . O + + + O O X X . .                                       . . . . . . . . . .                 ",
"                            . . . . . . . . . . .                                   . X X X X O + % % & & % + X .                                                         , } o.A.Z.Z.C.o.X. .W A d , 4 & + X . . . . . .                                                                                                                               . X % s L P P L L L L E ( j.x.x.x.m.(.'.{ Q R S Z Z Z j j l g d k ` x.x.m.S.x.V.x.{ R f d d 1 < * O X . . .                                                                                                             . . X X X + % & > d S X.C.Z.Z.F.F.Z.O.} 4 O                                                               . . X X X X . . .                                           . . . . . . . . . .               ",
"                          . . . . . . . . . . .                                     . . . . X X O O O O O X .                                                             & l +.A.V.Z.B.o.| } S f d > % + X . . . . .                                                                                                                                   . . + a k L P L R L P E ( j.x.x.x.m.m.!.z.' R Z S S k z ..*.c a k ` x.x.m.S.m.V.x.{ R f d 1 1 = * O X . . .                                                                                                                 . . X X + + & , z Q C.Z.Z.F.F.Z...x + +                                                                     . . .                                                   . . . . . . . . .               ",
"                        . . . . . . . . . .                                           . . . . . . . . . . .                                                               & a T A.H.Z.C.C.| W l d > % O X . . . . .                                                                                                                                     O . + , z P P E E L P P ( ) x.x.x.m.m.x.x.{ Q Z z z T T.fXaXT s R ` x.V.V.S.m.V.x.{ R b v 1 < = * O X . . .                                                                                                                   . . . O + % > s I A.Z.F.F.Z.C.K & +                                                                                                                                 . . . . . . . .               ",
"                      . . . . . . . . . .                                                 . . . . . .                                                                     > > c A.H.Z.Z.C.| S s > % + X . . . .                                                                                                                                         O . + > z P P E E E P P ( ) z.x.x.(.m.x.x.z._ I T *.vXMXgXfX| k R { x.V.V.m.x.V.x.{ R b v 0 < = @ O X X . .                                                                                                                       . X O + & a I A.Z.F.F.Y.O.x + %                                                                                                                                   . . . . . .                 ",
"                    . . . . . . . . . .                                                                                                                                     & g +.H.H.Z.B.Q z , & + O X . . .                                                                                                                                             . O > z P P E E E E E ( ) z.l.x.x.m.m.x.z.{ I Y.MXgXgXgXhXO.E E { x.V.V.m.x.x.x.{ R f d 1 < = @ O X X . .                                                                                                                         . X O + > z +.A.F.F.C...4 O                                                                                                                                       . . . . o                 ",
"                    . . . . . . . . .                                                                                                                                       & h +.A.H.F.V._ z , % O X . . .                                                                                                                                               . O > z L P E E E E E ( ) z.l.x.x.x.m.x.!.{ +.R.MXgXgXgXhXO.E E { x.V.V.S.x.x.x.{ R f d 1 < = @ O X X . .                                                                                                                           . X + & s +.A.F.F.O.c % +                                                                                                                                         . . .                   ",
"                    . . . . . . . .                                                                                                                                         & 4 T A.H.F.V._ z 4 + X . . .                                                                                                                                                 . O & z L P E E E E E ( ) z.c.x.x.m.m.x.x.{ Q R.MXgXgXgXhXO.E ( { x.V.S.[.V.x.z.` R b 0 1 < * O X X X . .                                                                                                                           . . O % a I A.H.Z.| 4 O X                                                                                                                                           . .                   ",
"                    . . . . . . .                                                                                                                                             & c A.H.G.V._ z 2 O X . .                                                                                                                                                   . O & z L P E E E E E ( ) z.x.x.x.x.m.m.x.z._ Y.nXgXgXMX0X_ E ( { x.V.S.'.V.x.z.` R b 0 < = * + O X X . .                                                                                                                             . X + , L ` A.A.} & X X                                                                                                                                                                 ",
"                      . . . . .                                                                                                                                               + g O.H.G.H.` g * X X .                                                                                                                                                     . O & z L P ( ( ( ( ( ( ) z.l.x.x.m.m.x.x.z.X.O.*.fXMXvXO.E E ( ] x.x.x.V.x.x.z._ R b 0 < = * * * = + X .                                                                                                                               . O > z +.A.O.c & X .                                                                                                                                                                 ",
"                          .                                                                                                                                                   . 4 | A.F.H.+.h + X . .                                                                                                                                                     . O & z P U ( ( ( ( ( ( ) z.x.x.x.m.m.x.z.{ X.| *.vXvX*.I E E ( { x.x.x.x.x.x.z._ R b 0 < = * < G ^ n + +                                                                                                                               . X % s +.O.| h + .                                                                                                                                                                   ",
"                                                                                                                                                                              . % c O.x.` Q > X . .                                                                                                                                                       . O > L ) ) ) ( ( ( ( ( ) z.x.x.x.x.m.!.x.{ X. .O.8XO.P E E E E { Q.x.x.x.x.!.z._ R b 0 = * * , ' z.S * %                                                                                                                                 . % , c | A 2 O .                                                                                                                                                                   ",
"                                                                                                                                                                              . O 4 } X.| l % X . .                                                                                                                                                       . + , P h.l.k.( ( ( ( ( ) z.x.x.x.x.m.m.x.{ [ / / / Q R E ~ R Q { Q.x.V.V.x.x.j._ Z b 0 = * * d _ k.Z = &                                                                                                                                 . O > g g 1 % X .                                                                                                                                                                   ",
"                                                                                                                                                                                . + < m m 2 O . .                                                                                                                                                         . * s P h.x.Q._ P ( ( ( ) j.x.c.l.x.m.x.!.{ ' ~ ! ! Z Z Z Z Z R { Q.x.!.x.B.z.{ ( Z d < = * % d [ ` C % &                                                                                                                                 . X % > > % O .                                                                                                                                                                     ",
"                                                                                                                                                                                . X + % % O . .                                                                                                                                                           X & z I ( ' [ E P ( ( ( ) z.x.c.l.x.x.l.W.] ~ ! ! R S Z Z Z Z R [ Q.z.'.'.z.z.{ Q Z v < = * % 3 / / m % %                                                                                                                                   . O + + O .                                                                                                                                                                       ",
"                                                                                                                                                                                  . X X X X .                                                                                                                                                           & O 2 s j f s j k E ( ( ( ) h.x.x.l.l.x.x.z.] ~ ! S *.0XcX-.K Z ! [ z.z.!.!.z.z.{ Q C d < = * % v ^ W 3 + %                                                                                                                                     . X . .                                                                                                                                                                         ",
"                                                                                                                                                                                    . X X . .                                                                                                                                                           % + 2 a , > > , j E ( ( ( ) h.x.x.l.x.x.l.z.] R F ^ 0XNXnXcX&.C R [ Q.z.!.!.x.z.{ Q C d < = * = b ^ S > O                                                                                                                                                                                                                                                                                                                       ",
"                                                                                                                                                                                      . . . .                                                                                                                                                           % * 4 , > > > d k E ( ( ( ] k.k.l.l.l.l.l.Q.' F C c T.MXdXfX&.Z R [ { Q.Q.!.z.z.] Q C 1 < * % = G ^ A &                                                                                                                                                                                                                                                                                                                         ",
"                                                                                                                                                                                        . .                                                                                                                                                             O 2 a s g d f Z Q ( ( ( ( ] k.k.l.l.l.l.l.Q.' Z A *.fXgXdXfX*.R ~ [ { Q.Q.Q.z.z.] Q C 1 = * % < D H N %                                                                                                                                                                                                                                                                                                                         ",
"                                                                                                                                                                                                                                                                                                                                                      + + , z k L I E ( _ ) ) ( ( ] z.z.x.x.x.x.W.Q.~ C T fXgXgXgXMX*.R ~ [ { z.z.z.z.j.{ Q C 1 = * % < A F V %                                                                                                                                                                                                                                                                                                                         ",
"                                                                                                                                                                                                                                                                                                                                                      X % d k L P ( _ ) ) j.) ( ( ) k.z.l.x.x.x.z.] ! b ;.ZXxXxXMXvXO.R ~ ' { z.z.z.z.j.{ Q b 1 = % % > A F V %                                                                                                                                                                                                                                                                                                                         ",
"                                                                                                                                                                                                                                                                                                                                                      X 2 s L P ( ( ) ) j.h.) ( ( ' k.k.k.z.z.z.z.' ! m -.ZXZXnXT.T R R ~ { { j.j.z.z.j.{ R f > = % % 1 A Z N %                                                                                                                                                                                                                                                                                                                         ",
"                                                                                                                                                                                                                                                                                                                                                    % O 3 z L U ( ( ) ) h.h.h.( ( ( k.k.k.z.z.z.z.[ F m &.-.;.T S Z F R E { z.j.z.z.z.z.{ R d < = * & 1 A F b =                                                                                                                                                                                                                                                                                                                         ",
"                                                                                                                                                                                                                                                                                                                                                    & = d k P U ( ( ) ) h.x.h.( E ( ] z.k.Q.z.Q.{ ' ! A K S z Z F F F R E ] z.j.z.z.z.z.' R d < = * & v A A N =                                                                                                                                                                                                                                                                                                                         ",
"                                                                                                                                                                                                                                                                                                                                                    O 2 s L P ( ( ( ) ) j.z.) E R ( ] k.k.Q.k.k.9.7.! D 2.H H H D D F R ~ ' { j.z.z.z.z.' Z d < = = < n A A b = &                                                                                                                                                                                                                                                                                                                       ",
"                                                                                                                                                                                                                                                                                                                                                  + O 2 g L P ( ( ( ) h.j.z.) R R E ] ] k.k.k.k.8.7.! G n d A A m s j R E ' { j.z.z.j.{ ' Z 1 = = = > b A A v 9 O                                                                                                                                                                                                                                                                                                                       ",
"                                                                                                                                                                                                                                                                                                                                                  . @ 2 s I E ( ( ) ) j.z.z.( Z Z E ' ] k.k.k.k.] ' ! N x c &.&.&.&.T Q Q ' { { z.z.z.{ ' Z 1 = = = 1 V A b v 0 %                                                                                                                                                                                                                                                                                                                       ",
"                                                                                                                                                                                                                                                                                                                                                X X - 3 j R Q E ( ) ) j.z.{ Q Z C R ' ] k.k.k.k.] ' H g $.u.sXsXsXsXVXT._ ' ] { { j.k.{ ' C 1 = = < 0 N b b v 0 % +                                                                                                                                                                                                                                                                                                                     ",
"                                                                                                                                                                                                                                                                                                                                                . $ q n A R Q Q _ ) ` j.z.` Q C C R ' ] k.k.k.z.{ [ S g =.sXdXkXkXkXjXT._ ' ] ] { j.k.{ ' C 1 = = < v b b b v 0 * X                                                                                                                                                                                                                                                                                                                     ",
"                                                                                                                                                                                                                                                                                                                                                X t y K S W W Q _ ` { j.j.' R C C R ' ] k.k.E.8.{ ' S g ;.sXkXjXjXkXjXT._ ] ] k.j.j.k.] [ A < = = < v b b b v 1 = .                                                                                                                                                                                                                                                                                                                     ",
"                                                                                                                                                                                                                                                                                                                                              O t y J K H W W Q _ _ ` j.z.' S C C R ' ] k.E.E.8.] ' R c -.sXkXjXjXjXjXT._ ] k.k.j.j.k.] ' C < = < 1 v b b v v 1 = .                                                                                                                                                                                                                                                                                                                     ",
"                                                                                                                                                                                                                                                                                                                                              X t y J K H H ^ / / _ _ ` ` / Z C C R ' ] k.k.8.8.] ] E ..aXjXjXjXjXjXVXY.) ] k.k.k.k.k.{ ' C < = 2 1 v b b v d 1 = O                                                                                                                                                                                                                                                                                                                     ",
"                                                                                                                                                                                                                                                                                                                                              O t y J K K H ^ ^ Q Q Q Q Q W A b C R ' ] ] k.] ] { ] _ ;.aXjXjXjXjXVXcXO.( ] k.k.k.k.k.] ' b < = 1 0 v b v v 0 1 < + .                                                                                                                                                                                                                                                                                                                   ",
"                                                                                                                                                                                                                                                                                                                                              O t y J K K 1.5.^ ^ W Q Q R S C C C R ~ ] ] ] ] ] ] ] _ | aXZXZXnXaX*.Q ( ' ] ] ] ] ] ] ] ~ b < = 1 v v v v v v 1 < * .                                                                                                                                                                                                                                                                                                                   ",
"                                                                                                                                                                                                                                                                                                                                              O t y J K 2.1.5.^ ^ ^ ! ! ! F A C C Z ~ ' ] ] ] ] ] ] ~ } -.vX0X*.Q E ' ' ' ) ] ] ] ] ] ] ~ b < < 1 v v v v v v 1 < = X                                                                                                                                                                                                                                                                                                                   ",
"                                                                                                                                                                                                                                                                                                                                              + - y J 3.2.1.q.5.^ ^ ! ! ! ! F Z C Z ~ ' ] ] ] 8.] ] ' ~ Q Q Q ~ ~ ~ ' ' ' ] ] k.k.] ] ] ~ b < < 1 v v v v v v 1 < = O .                                                                                                                                                                                                                                                                                                                 ",
"                                                                                                                                                                                                                                                                                                                                                # y J 3.2.2.1.q.5.^ ! ! R ! ! F Z Z R ' ] ] ] 8.8.8.7.~ ~ ~ 4.4.~ ~ ' ' ' ] ] k.k.] ] ] Q d < < v v v b v v v d 1 < + .                                                                                                                                                                                                                                                                                                                 ",
"                                                                                                                                                                                                                                                                                                                                                O y J J 2.2.1.q.5.5.6.! ! ! ! F Z Z R ' ] ] ] 8.8.] ' ~ ~ ~ ~ R R R E ~ ' ] ] k.k.] ] ] Q d > < v v v v v v v d 1 > * .                                                                                                                                                                                                                                                                                                                 ",
"                                                                                                                                                                                                                                                                                                                                                + t y J 3.2.1.q.q.5.5.! ! ! ! F Z Z R ' ] ] ] ] ] ] ' W W } ....} W W E ' ] ] k.k.k.] ] Q d < 1 v b v v v v v v 1 > = X X                                                                                                                                                                                                                                                                                                               ",
"                                                                                                                                                                                                                                                                                                                                                O + y J 3.2.1.1.5.5.5.! ! ! ! F Z Z ! ~ ] ] ] ] ] ' ~ S &.bXsXsXsX-.} R ' ] ] ] ] ] ] ] ! d > 1 v v v v b b v v d 1 = + .                                                                                                                                                                                                                                                                                                               ",
"                                                                                                                                                                                                                                                                                                                                                  . t y J 3.2.1.1.5.5.! ! ! ! F Z Z ! ~ ] ] ] ] 8.7.~ l -.VXjXjXjXnX..Z ' ] ] ] ] ] ] ] ! d 1 v v b v v b b v v d 1 < * .                                                                                                                                                                                                                                                                                                               ",
"                                                                                                                                                                                                                                                                                                                                                  . - y J 3.2.1.1.,.,.5.6.! ! F C C F ~ ' ] ] ] 8.7.~ l -.kXjXjXjXdX&.Z ' ] ] ] ] ] ] ' R d 1 d v b b b b b b v d 1 > 7 X                                                                                                                                                                                                                                                                                                               ",
"                                                                                                                                                                                                                                                                                                                                                    O t y 3.2.1.1.,.,.,.<.! F F C b D ~ ' ] ] ] ] 7.~ l -.kXjXjXjXVX&.F ' ] ] ] ] ] ] ' R d 1 d b b b b b b b b v 1 1 9 O .                                                                                                                                                                                                                                                                                                             ",
"                                                                                                                                                                                                                                                                                                                                                    X 8 y J 3.2.1.1.,.,.<.<.F F N b D ~ ' ] 8.8.8.7.~ l -.VXjXjXjXVX&.Z ~ ] ] ] ] ] ] ' F d 1 d b b b b m m m m v d 1 9 @ .                                                                                                                                                                                                                                                                                                             ",
"                                                                                                                                                                                                                                                                                                                                                      O t y J >.1.1.,.,.<.<.<.D N b D ~ ' ] 8.] 8.7.~ A -.kXjXjXjXbX$.Z ~ ] ] ] ] ] ] [ F d 1 v b b b b b m m m v d 1 9 * .                                                                                                                                                                                                                                                                                                             ",
"                                                                                                                                                                                                                                                                                                                                                      X @ t y J >.,.,.,.,.<.<.N M v D ! 7.] ] ] 8.7./ A -.VXVXjXjXi.K Z ' ] ] ] ] ] ] [ S d 1 v b b b b b b b m b d d e 8 .                                                                                                                                                                                                                                                                                                             ",
"                                                                                                                                                                                                                                                                                                                                                        . $ q B :.>.,.>.>.:.M M M M D ! 7.] ] ] ] 7./ S &.bXnXjXkXu.$.^ ' ] ] ] ] ] { [ Z 1 1 v b b b b b b b m b d v 0 7 .                                                                                                                                                                                                                                                                                                             ",
"                                                                                                                                                                                                                                                                                                                                                        . O 8 y B :.>.:.:.e r e M N D ! 7.' 8.] ] ' / S c #.;.aXaXu.-.O.] ] ] ] ] ] { [ Z , 1 v b b b b b b b b b v v 0 8 .                                                                                                                                                                                                                                                                                                             ",
"                                                                                                                                                                                                                                                                                                                                                          . @ 8 y :.:.:.e 9 9 r M N D ! 4.7.' ] ] ' / W ..&.-.0Xa.a.e.w.] ) ] ] ] ] { [ S 1 1 v b b b b b b b b b v v 0 8 .                                                                                                                                                                                                                                                                                                             ",
"                                                                                                                                                                                                                                                                                                                                                          . O - 8 r r e r r r r M N D ! 4.7.7.' ' ' [ ^ e.0X*.} W S R Q ' ] ] ] ] ] ] [ A 1 1 v b b b b b A b b b v v e 7 .                                                                                                                                                                                                                                                                                                             ",
"                                                                                                                                                                                                                                                                                                                                                            . # - 8 r r r r e e M N D ! 4.7.7.' ' ' ' /  .Q W R ~ ~ ~ ' ) ] ] ] ] ] ] / A 1 1 v b b b b b A b b b v v e * .                                                                                                                                                                                                                                                                                                             ",
"                                                                                                                                                                                                                                                                                                                                                            . o @ 8 7 r r e e e M N D F 4.4.7.' ] 7.7.~ ~ ~ ~ ~ ~ ~ ~ ' ) ] ] ] ] ] ' / A 1 0 v b b b b b b b b b v v 0 * .                                                                                                                                                                                                                                                                                                             ",
"                                                                                                                                                                                                                                                                                                                                                            O X @ 8 7 r r e e e M N D F ~ ~ 7.7.7.7.7.' ~ ~ ~ ~ ~ ~ ~ ' ] ] ] ] ] ] ] / A < 1 v b b b b b b b b b v 0 e O                                                                                                                                                                                                                                                                                                               ",
"                                                                                                                                                                                                                                                                                                                                                          . X @ @ 8 7 r r e e e M N D F ! 4.4.7.7.7.7.' ~ ~ ~ ~ ~ ~ ~ ' ] ] ] ] ] ] ] / b < 1 v b b b b N b b b b v 0 9 .                                                                                                                                                                                                                                                                                                               ",
"                                                                                                                                                                                                                                                                                                                                                        X + y y r 7 r r r e e e M N D F ! 4.4.7.7.7.7.' ~ R R R ~ R R ' ] ] ] ] ] ] ' / b < 1 v b b b b D N b b b v 0 = .                                                                                                                                                                                                                                                                                                               ",
"                                                                                                                                                                                                                                                                                                                                                      X + q J >.:.M e r r r e M M N D F 6.4.4.7.7.7.7.7.~ R R R R R R ~ ' ] ] { ] ] ] / b < 1 v m m b b A A b b b v 0 +                                                                                                                                                                                                                                                                                                                 ",
"                                                                                                                                                                                                                                                                                                                                                      X q v H 5.5.5.,.<.:.N N N N <.D F 6.4.4.7.7.7.7.' / } ..T T W W Q [ ] ] ] ] ] ] / b < 0 v v m b b b b N b v 0 9 X                                                                                                                                                                                                                                                                                                                 ",
"                                                                                                                                                                                                                                                                                                                                                      O w b ! ~ 4.6.6.0.0.6.6.6.<.<.F F ! 4.4.~ ' 7.7.~ O.cXmXbXbX-.} Q [ { ] ] ] ] ' / b < 0 0 0 0 v b N N b v 0 < + O                                                                                                                                                                                                                                                                                                                 ",
"                                                                                                                                                                                                                                                                                                                                                      + w b ! ~ ~ 4.7.7.7.7.7.4.4.<.F F F ! 4.~ ~ 7.' Q Y.NXZXjXVXcX..~ [ { ] ] ] ] ' / m < < < < < < M v N b v < % .                                                                                                                                                                                                                                                                                                                   ",
"                                                                                                                                                                                                                                                                                                                                                    = + w b F ~ ~ 4.7.7.8.8.8.7.4.6.D D F ! ~ ~ ~ ' ~ Q *.nXZXjXjXaXO.~ ' { { ] ] ] ' ^ v < < < = = = 9 M v v 0 < O X                                                                                                                                                                                                                                                                                                                   ",
"                                                                                                                                                                                                                                                                                                                                                    = O q m Z R ~ 4.7.7.8.8.8.8.7.6.D b D F ! ~ ~ ~ ~ Q | T.nXjXVXcXO.~ ' ] ] ] ] ] ' ^ v < = = = * = < 9 0 0 9 = X                                                                                                                                                                                                                                                                                                                     ",
"                                                                                                                                                                                                                                                                                                                                                      O q n A ! ~ 4.7.7.7.8.8.8.8.4.D v b F ! ~ ~ ~ ~ ~ Q | 0XnXnX0X .~ ' ' ] ] ] ] ' ^ v < = = = = = < 1 0 0 < = .                                                                                                                                                                                                                                                                                                                     ",
"                                                                                                                                                                                                                                                                                                                                                      X t w b F ! 4.7.7.7.8.E.~.~.9.F 0 M D ! ! ~ ~ ~ ~ / Q | *.*. .~ ' ' ' ] ] ] ] ' ^ v < 0 0 0 0 0 v v v v 0 = .                                                                                                                                                                                                                                                                                                                     ",
"                                                                                                                                                                                                                                                                                                                                                      . ; w v A ! ~ 7.7.8.8.~. X XOX,.0 0 D F ! ~ ~ ~ ~ ~ ~ ~ ~ ~ ~ ' ' ' ' ' ' ] ] ' ^ v M G >.>.>.,.,.>.G D M 9 .                                                                                                                                                                                                                                                                                                                     ",
"                                                                                                                                                                                                                                                                                                                                                      . @ ; w b F ! ~ 7.8.8.~. X XOX,.9 0 D F ! ! ~ ~ ~ ' ' ~ ~ ~ ~ ' ' ' ' ' ' ' ' ' ^ v M >.q.q.q.q.q.q.5.<.D 0 X                                                                                                                                                                                                                                                                                                                     ",
"                                                                                                                                                                                                                                                                                                                                                      . . + ; w b F ~ ' 7.8.9.~.OXOX>.7 9 N F ! R ~ ~ ~ ' ' ' ~ ~ ~ ~ ~ ' ' ' ' ' ' [ ^ v v >.5.5.5.5.5.5.,.<.D e O                                                                                                                                                                                                                                                                                                                     ",
"                                                                                                                                                                                                                                                                                                                                                          X - 2 v A ! ~ ~ 7.0.0.0.q.B = 9 N F F ! ! ~ ~ ~ ~ ~ ~ ~ Q Q ~ ~ ' ' ' ' ' / ^ v v N D D D D D D D D b 0 + %                                                                                                                                                                                                                                                                                                                   ",
"                                                                                                                                                                                                                                                                                                                                                            O + 2 v A F F F H H D w = * 9 N G F F ! ! ! / q.^ Z S S W ! ~ ~ ' ' ' ' ~ H b v v N N N N N b b b v 0 * .                                                                                                                                                                                                                                                                                                                   ",
"                                                                                                                                                                                                                                                                                                                                                              . @ = 9 9 0 w w w 8 @ # * 9 b D F H F H A q.e.&.c $.&.&.} ! ~ ' ' ' ' ~ ^ b v M N N N N N N N N v 9 = X .                                                                                                                                                                                                                                                                                                                 ",
"                                                                                                                                                                                                                                                                                                                                                              . . X O + @ @ @ @ O X X @ 9 b D D F F G A 2.d.d.y.s.BXs.&.S ~ 7.7.' ~ 4.F v v M V N N D D N N N v 9 * .                                                                                                                                                                                                                                                                                                                   ",
"                                                                                                                                                                                                                                                                                                                                                                                    . O q v A D D D D V J r.s.f.f.f.BX=.K F 4.4.~ ~ 6.F b v M V N N D N N N N v 9 + .                                                                                                                                                                                                                                                                                                                   ",
"                                                                                                                                                                                                                                                                                                                                                                                    O O q v b D D D D D B x d.BXf.f.BXa.K D 5.6.6./ 5.H b b N N N N D N N N M 0 7 X                                                                                                                                                                                                                                                                                                                     ",
"                                                                                                                                                                                                                                                                                                                                                                                      X q M b b D D D D V n =.CXBXsXBXe.G <.,.5.5.^ 5.F D D N N N N D D N N M e * .                                                                                                                                                                                                                                                                                                                     ",
"                                                                                                                                                                                                                                                                                                                                                                                      X q 0 v b D D D D G N $.mXVXbXa.K D <.<.,.^ H H H D D D D N D N N N M 0 7 O                                                                                                                                                                                                                                                                                                                       ",
"                                                                                                                                                                                                                                                                                                                                                                                      X = 0 v b D D D D D G G &.e.e...A D <.<.,.H H H F D D D D N N N N M e 9 O X                                                                                                                                                                                                                                                                                                                       ",
"                                                                                                                                                                                                                                                                                                                                                                                      X = 0 v b N D D D G G G G H G D D D F <.<.,.,.F D D D N N M v 0 9 & % O O                                                                                                                                                                                                                                                                                                                         ",
"                                                                                                                                                                                                                                                                                                                                                                                      X * 9 v b N D D G G G G D D D D D F F <.<.<.<.F D D N N M e = & + %                                                                                                                                                                                                                                                                                                                               ",
"                                                                                                                                                                                                                                                                                                                                                                                      X + 1 v b N D D G D D D G G G <.D F F <.<.<.F D D N M 9 % + +                                                                                                                                                                                                                                                                                                                                     ",
"                                                                                                                                                                                                                                                                                                                                                                                        O 2 v b N N N G G G H H 2.>.G D D D F <.F F D D b < %                                                                                                                                                                                                                                                                                                                                           ",
"                                                                                                                                                                                                                                                                                                                                                                                        O 9 0 b b V N G H e.qXe.e.2.V D D <.<.<.F F D N v O                                                                                                                                                                                                                                                                                                                                             ",
"                                                                                                                                                                                                                                                                                                                                                                                        O = 0 v b N V G H e.DXDXe.J V N D D <.<.F D D N 0 .                                                                                                                                                                                                                                                                                                                                             ",
"                                                                                                                                                                                                                                                                                                                                                                                        + * 9 v b N V G G K e.e.K v V N D D D <.D D D v < X                                                                                                                                                                                                                                                                                                                                             ",
"                                                                                                                                                                                                                                                                                                                                                                                        O + 9 M b V G G G G G G G N N N D D <.<.D D b v % O                                                                                                                                                                                                                                                                                                                                             ",
"                                                                                                                                                                                                                                                                                                                                                                                        + + 9 v b V G G >.>.>.>.G N N D D D D D D D b 0 +                                                                                                                                                                                                                                                                                                                                               ",
"                                                                                                                                                                                                                                                                                                                                                                                          O 1 v v N G G G >.>.>.G V N D G D D D D N v < +                                                                                                                                                                                                                                                                                                                                               ",
"                                                                                                                                                                                                                                                                                                                                                                                          + 9 v v N V G G G G G G V N D D D D D D N v & %                                                                                                                                                                                                                                                                                                                                               ",
"                                                                                                                                                                                                                                                                                                                                                                                          + 9 0 v N V V G q.q.K V V V N D D D D N b 0 + &                                                                                                                                                                                                                                                                                                                                               ",
"                                                                                                                                                                                                                                                                                                                                                                                          + = 0 v b V V K DXDXe.K N V N N D D D N v 0 O                                                                                                                                                                                                                                                                                                                                                 ",
"                                                                                                                                                                                                                                                                                                                                                                                          % = 9 v v N V K DXUXDXK M V N D D D D N v 0 X                                                                                                                                                                                                                                                                                                                                                 ",
"                                                                                                                                                                                                                                                                                                                                                                                          % % 9 v v N V K a.DXd.J V V D >.<.D D N v < X                                                                                                                                                                                                                                                                                                                                                 ",
"                                                                                                                                                                                                                                                                                                                                                                                            + 9 v v N V G K 2.2.V V G G >.>.D D N v = O                                                                                                                                                                                                                                                                                                                                                 ",
"                                                                                                                                                                                                                                                                                                                                                                                            + 2 0 v b V G G G G G G G >.>.>.D D b v % +                                                                                                                                                                                                                                                                                                                                                 ",
"                                                                                                                                                                                                                                                                                                                                                                                            + = 0 v N D G G G G G G G G >.<.D N b 0 +                                                                                                                                                                                                                                                                                                                                                   ",
"                                                                                                                                                                                                                                                                                                                                                                                            + = 9 v N D G G G G G G G G >.D D N v 9 .                                                                                                                                                                                                                                                                                                                                                   ",
"                                                                                                                                                                                                                                                                                                                                                                                            + % 9 v b N D G G G G G G G >.D D N v 7 .                                                                                                                                                                                                                                                                                                                                                   ",
"                                                                                                                                                                                                                                                                                                                                                                                            O + 9 v b N D G G G G G G G D D N N 0 = X                                                                                                                                                                                                                                                                                                                                                   ",
"                                                                                                                                                                                                                                                                                                                                                                                              + 9 v v N D D G G G G >.G D D N M 0 % O                                                                                                                                                                                                                                                                                                                                                   ",
"                                                                                                                                                                                                                                                                                                                                                                                              O < 0 v b N D D D G G G >.D D N v e +                                                                                                                                                                                                                                                                                                                                                     ",
"                                                                                                                                                                                                                                                                                                                                                                                              O = 0 v N N N N N N N V G D D N v 9 O                                                                                                                                                                                                                                                                                                                                                     ",
"                                                                                                                                                                                                                                                                                                                                                                                              O = 0 v v N M M M M V N N N N N v < X                                                                                                                                                                                                                                                                                                                                                     ",
"                                                                                                                                                                                                                                                                                                                                                                                              % = 0 v v v v v v v M N N N N b v < +                                                                                                                                                                                                                                                                                                                                                     ",
"                                                                                                                                                                                                                                                                                                                                                                                                q 0 v N G V V N M v N N N N b v = &                                                                                                                                                                                                                                                                                                                                                     ",
"                                                                                                                                                                                                                                                                                                                                                                                                w w v G >.1.1.1.>.V V N N N v 0 = >                                                                                                                                                                                                                                                                                                                                                     ",
"                                                                                                                                                                                                                                                                                                                                                                                                y w b G G >.1.q.1.,.>.>.D N v e +                                                                                                                                                                                                                                                                                                                                                       ",
"                                                                                                                                                                                                                                                                                                                                                                                                w w v N G >.,.1.,.,.>.>.D N M 9 +                                                                                                                                                                                                                                                                                                                                                       ",
"                                                                                                                                                                                                                                                                                                                                                                                                q q v b D H ,.>.>.,.,.G D N M 9 %                                                                                                                                                                                                                                                                                                                                                       ",
"                                                                                                                                                                                                                                                                                                                                                                                                q q v b D H >.>.,.,.G D D N 0 7 %                                                                                                                                                                                                                                                                                                                                                       ",
"                                                                                                                                                                                                                                                                                                                                                                                                q q v b D >.,.,.,.,.D D D v 0 8                                                                                                                                                                                                                                                                                                                                                         ",
"                                                                                                                                                                                                                                                                                                                                                                                                9 q n b D G ,.,.,.,.D D b v 9 *                                                                                                                                                                                                                                                                                                                                                         ",
"                                                                                                                                                                                                                                                                                                                                                                                                1 q n b D G >.,.,.,.D D b v 9 O                                                                                                                                                                                                                                                                                                                                                         ",
"                                                                                                                                                                                                                                                                                                                                                                                                < q n b D G >.>.,.>.D D b v 9 X                                                                                                                                                                                                                                                                                                                                                         ",
"                                                                                                                                                                                                                                                                                                                                                                                                < y n b A G G >.>.>.G N b 0 9 +                                                                                                                                                                                                                                                                                                                                                         ",
"                                                                                                                                                                                                                                                                                                                                                                                                2 y n N V G q.e.q.>.>.N v 0 =                                                                                                                                                                                                                                                                                                                                                           ",
"                                                                                                                                                                                                                                                                                                                                                                                                2 y n V K 2.g.mXe.2.>.N M 0 +                                                                                                                                                                                                                                                                                                                                                           ",
"                                                                                                                                                                                                                                                                                                                                                                                                9 y J K 2.e.g.g.q.>.>.N M 9 O                                                                                                                                                                                                                                                                                                                                                           ",
"                                                                                                                                                                                                                                                                                                                                                                                                w y J 2.q.e.e.q.,.>.>.N M 9 %                                                                                                                                                                                                                                                                                                                                                           ",
"                                                                                                                                                                                                                                                                                                                                                                                                w J 3.1.q.q.1.,.>.>.:.N M *                                                                                                                                                                                                                                                                                                                                                             ",
"                                                                                                                                                                                                                                                                                                                                                                                                J J >.1.1.1.>.>.:.:.N M e +                                                                                                                                                                                                                                                                                                                                                             ",
"                                                                                                                                                                                                                                                                                                                                                                                              + w B 3.>.2.>.:.:.:.:.V M 9 %                                                                                                                                                                                                                                                                                                                                                             ",
"                                                                                                                                                                                                                                                                                                                                                                                              O q w B V V V V V V N M 0 %                                                                                                                                                                                                                                                                                                                                                               ",
"                                                                                                                                                                                                                                                                                                                                                                                              % q 0 M B B B V V V M M 9 O                                                                                                                                                                                                                                                                                                                                                               ",
"                                                                                                                                                                                                                                                                                                                                                                                              * q 0 M M M M V V V M e 9 +                                                                                                                                                                                                                                                                                                                                                               ",
"                                                                                                                                                                                                                                                                                                                                                                                              * w B V V V V :.V V M e +                                                                                                                                                                                                                                                                                                                                                                 ",
"                                                                                                                                                                                                                                                                                                                                                                                              = B >.2.2.2.2.>.:.V M 0 +                                                                                                                                                                                                                                                                                                                                                                 ",
"                                                                                                                                                                                                                                                                                                                                                                                            + = B >.1.1.1.1.>.:.V M 7 %                                                                                                                                                                                                                                                                                                                                                                 ",
"                                                                                                                                                                                                                                                                                                                                                                                            + = B >.1.1.1.,.<.:.V e +                                                                                                                                                                                                                                                                                                                                                                   ",
"                                                                                                                                                                                                                                                                                                                                                                                            + = B :.2.2.,.>.>.:.V 9 %                                                                                                                                                                                                                                                                                                                                                                   ",
"                                                                                                                                                                                                                                                                                                                                                                                            + = B :.>.>.>.>.>.V B %                                                                                                                                                                                                                                                                                                                                                                     ",
"                                                                                                                                                                                                                                                                                                                                                                                            + * B V >.>.>.>.:.B r +                                                                                                                                                                                                                                                                                                                                                                     ",
"                                                                                                                                                                                                                                                                                                                                                                                            + * w V :.>.>.>.B w % %                                                                                                                                                                                                                                                                                                                                                                     ",
"                                                                                                                                                                                                                                                                                                                                                                                            + * w N :.>.>.:.B r X                                                                                                                                                                                                                                                                                                                                                                       ",
"                                                                                                                                                                                                                                                                                                                                                                                            + * w B V V V V w * O                                                                                                                                                                                                                                                                                                                                                                       ",
"                                                                                                                                                                                                                                                                                                                                                                                            O * w n B V V B 9 O                                                                                                                                                                                                                                                                                                                                                                         ",
"                                                                                                                                                                                                                                                                                                                                                                                            + - q 0 B B B w = O                                                                                                                                                                                                                                                                                                                                                                         ",
"                                                                                                                                                                                                                                                                                                                                                                                            O @ q 0 0 w w q + O                                                                                                                                                                                                                                                                                                                                                                         ",
"                                                                                                                                                                                                                                                                                                                                                                                            O @ 9 9 0 0 9 7 X                                                                                                                                                                                                                                                                                                                                                                           ",
"                                                                                                                                                                                                                                                                                                                                                                                            X + 7 9 9 9 7 + .                                                                                                                                                                                                                                                                                                                                                                           ",
"                                                                                                                                                                                                                                                                                                                                                                                            X O * = 7 7 8 .                                                                                                                                                                                                                                                                                                                                                                             ",
"                                                                                                                                                                                                                                                                                                                                                                                            . X @ * * * O .                                                                                                                                                                                                                                                                                                                                                                             ",
"                                                                                                                                                                                                                                                                                                                                                                                            . X # @ @ @ .                                                                                                                                                                                                                                                                                                                                                                               ",
"                                                                                                                                                                                                                                                                                                                                                                                            . . O O O X .                                                                                                                                                                                                                                                                                                                                                                               ",
"                                                                                                                                                                                                                                                                                                                                                                                            . . X X X .                                                                                                                                                                                                                                                                                                                                                                                 ",
"                                                                                                                                                                                                                                                                                                                                                                                            . . X X . .                                                                                                                                                                                                                                                                                                                                                                                 ",
"                                                                                                                                                                                                                                                                                                                                                                                            . . . . .                                                                                                                                                                                                                                                                                                                                                                                   ",
"                                                                                                                                                                                                                                                                                                                                                                                            . . . . .                                                                                                                                                                                                                                                                                                                                                                                   ",
"                                                                                                                                                                                                                                                                                                                                                                                            X . . . .                                                                                                                                                                                                                                                                                                                                                                                   ",
"                                                                                                                                                                                                                                                                                                                                                                                            o . . .                                                                                                                                                                                                                                                                                                                                                                                     ",
"                                                                                                                                                                                                                                                                                                                                                                                            X . o .                                                                                                                                                                                                                                                                                                                                                                                     ",
"                                                                                                                                                                                                                                                                                                                                                                                            X . $                                                                                                                                                                                                                                                                                                                                                                                       ",
"                                                                                                                                                                                                                                                                                                                                                                                            X . X                                                                                                                                                                                                                                                                                                                                                                                       ",
"                                                                                                                                                                                                                                                                                                                                                                                            . .                                                                                                                                                                                                                                                                                                                                                                                         ",
"                                                                                                                                                                                                                                                                                                                                                                                                                                                                                                                                                                                                                                                                                                                                                                                        ",
"                                                                                                                                                                                                                                                                                                                                                                                                                                                                                                                                                                                                                                                                                                                                                                                        ",
"                                                                                                                                                                                                                                                                                                                                                                                                                                                                                                                                                                                                                                                                                                                                                                                        ",
"                                                                                                                                                                                                                                                                                                                                                                                                                                                                                                                                                                                                                                                                                                                                                                                        ",
"                                                                                                                                                                                                                                                                                                                                                                                                                                                                                                                                                                                                                                                                                                                                                                                        ",
"                                                                                                                                                                                                                                                                                                                                                                                                                                                                                                                                                                                                                                                                                                                                                                                        ",
"                                                                                                                                                                                                                                                                                                                                                                                                                                                                                                                                                                                                                                                                                                                                                                                        ",
"                                                                                                                                                                                                                                                                                                                                                                                                                                                                                                                                                                                                                                                                                                                                                                                        ",
"                                                                                                                                                                                                                                                                                                                                                                                                                                                                                                                                                                                                                                                                                                                                                                                        ",
"                                                                                                                                                                                                                                                                                                                                                                                                                                                                                                                                                                                                                                                                                                                                                                                        ",
"                                                                                                                                                                                                                                                                                                                                                                                                                                                                                                                                                                                                                                                                                                                                                                                        ",
"                                                                                                                                                                                                                                                                                                                                                                                                                                                                                                                                                                                                                                                                                                                                                                                        ",
"                                                                                                                                                                                                                                                                                                                                                                                                                                                                                                                                                                                                                                                                                                                                                                                        ",
"                                                                                                                                                                                                                                                                                                                                                                                                                                                                                                                                                                                                                                                                                                                                                                                        ",
"                                                                                                                                                                                                                                                                                                                                                                                                                                                                                                                                                                                                                                                                                                                                                                                        ",
"                                                                                                                                                                                                                                                                                                                                                                                                                                                                                                                                                                                                                                                                                                                                                                                        ",
"                                                                                                                                                                                                                                                                                                                                                                                                                                                                                                                                                                                                                                                                                                                                                                                        ",
"                                                                                                                                                                                                                                                                                                                                                                                                                                                                                                                                                                                                                                                                                                                                                                                        ",
"                                                                                                                                                                                                                                                                                                                                                                                                                                                                                                                                                                                                                                                                                                                                                                                        ",
"                                                                                                                                                                                                                                                                                                                                                                                                                                                                                                                                                                                                                                                                                                                                                                                        ",
"                                                                                                                                                                                                                                                                                                                                                                                                                                                                                                                                                                                                                                                                                                                                                                                        ",
"                                                                                                                                                                                                                                                                                                                                                                                                                                                                                                                                                                                                                                                                                                                                                                                        ",
"                                                                                                                                                                                                                                                                                                                                                                                                                                                                                                                                                                                                                                                                                                                                                                                        ",
"                                                                                                                                                                                                                                                                                                                                                                                                                                                                                                                                                                                                                                                                                                                                                                                        ",
"                                                                                                                                                                                                                                                                                                                                                                                                                                                                                                                                                                                                                                                                                                                                                                                        ",
"                                                                                                                                                                                                                                                                                                                                                                                                                                                                                                                                                                                                                                                                                                                                                                                        ",
"                                                                                                                                                                                                                                                                                                                                                                                                                                                                                                                                                                                                                                                                                                                                                                                        ",
"                                                                                                                                                                                                                                                                                                                                                                                                                                                                                                                                                                                                                                                                                                                                                                                        ",
"                                                                                                                                                                                                                                                                                                                                                                                                                                                                                                                                                                                                                                                                                                                                                                                        "
};
