/* XPM */
static char *_5e2a5bf67e347ba982b610195f895eeghqeDq50jAyZSsMw[] = {
/* columns rows colors chars-per-pixel */
"380 313 256 2 ",
"   c None",
".  c #010000",
"X  c #0C0102",
"o  c #0C020A",
"O  c #0A0908",
"+  c #130103",
"@  c #1B0104",
"#  c #14030A",
"$  c #1C040B",
"%  c #1C0A0D",
"&  c #170A07",
"*  c #1C1109",
"=  c #1C0C11",
"-  c #1A0713",
";  c #1C1214",
":  c #230104",
">  c #2B0103",
",  c #24030B",
"<  c #2B030C",
"1  c #230A0C",
"2  c #2C0A0C",
"3  c #270C03",
"4  c #330203",
"5  c #3D0103",
"6  c #33020D",
"7  c #3B020D",
"8  c #330A0B",
"9  c #3C0A0C",
"0  c #370A06",
"q  c #281707",
"w  c #361608",
"e  c #240512",
"r  c #2C0412",
"t  c #230C12",
"y  c #2C0B13",
"u  c #2B0818",
"i  c #340412",
"p  c #3C0312",
"a  c #340B14",
"s  c #3C0B14",
"d  c #3A0919",
"f  c #261316",
"g  c #3A1417",
"h  c #38250B",
"j  c #332614",
"k  c #391522",
"l  c #3B2A2E",
"z  c #420104",
"x  c #44010C",
"c  c #4B020D",
"v  c #430A0B",
"b  c #4C0B0C",
"n  c #490606",
"m  c #53020D",
"M  c #5B020D",
"N  c #57090A",
"B  c #49150B",
"V  c #57160A",
"C  c #440213",
"Z  c #4B0214",
"A  c #440B14",
"S  c #4C0C14",
"D  c #450319",
"F  c #4C031A",
"G  c #4C0B1B",
"H  c #440B1B",
"J  c #530314",
"K  c #5B0314",
"L  c #530A14",
"P  c #5C0B13",
"I  c #54041A",
"U  c #5C041B",
"Y  c #540A1C",
"T  c #5C0A1C",
"R  c #4C1214",
"E  c #461417",
"W  c #591418",
"Q  c #63020E",
"!  c #66090D",
"~  c #66170C",
"^  c #630214",
"/  c #6B0315",
"(  c #630B14",
")  c #6B0B14",
"_  c #63031B",
"`  c #6B041B",
"'  c #630A1B",
"]  c #6B091B",
"[  c #730315",
"{  c #7A0416",
"}  c #740A15",
"|  c #7B0B15",
" . c #73041B",
".. c #7B051C",
"X. c #740A1B",
"o. c #7C0A1C",
"O. c #631314",
"+. c #64141B",
"@. c #6C121A",
"#. c #691817",
"$. c #73131B",
"%. c #7C131B",
"&. c #791617",
"*. c #73110E",
"=. c #492916",
"-. c #592714",
";. c #512F0F",
":. c #6B2617",
">. c #76281A",
",. c #693919",
"<. c #78381A",
"1. c #702D0D",
"2. c #5B0B21",
"3. c #560B21",
"4. c #4B1322",
"5. c #541424",
"6. c #5B1224",
"7. c #5A1627",
"8. c #4C0C22",
"9. c #650420",
"0. c #6C0421",
"q. c #630B21",
"w. c #6A0922",
"e. c #730422",
"r. c #7B0422",
"t. c #730A22",
"y. c #7B0A22",
"u. c #661625",
"i. c #781624",
"p. c #741F33",
"a. c #732B29",
"s. c #4D302A",
"d. c #59421A",
"f. c #684519",
"g. c #774819",
"h. c #77551C",
"j. c #73470B",
"k. c #775724",
"l. c #744829",
"z. c #5F4720",
"x. c #57494C",
"c. c #7F3240",
"v. c #83051D",
"b. c #8B051E",
"n. c #830B1D",
"m. c #8B0B1D",
"M. c #840A16",
"N. c #930C1E",
"B. c #9A0E1C",
"V. c #92081B",
"C. c #83131C",
"Z. c #8C121C",
"A. c #89181A",
"S. c #94131D",
"D. c #9B121D",
"F. c #981A1D",
"G. c #A3141E",
"H. c #A41A1E",
"J. c #AB1A1E",
"K. c #AB151D",
"L. c #AB121D",
"P. c #89281B",
"I. c #853819",
"U. c #840522",
"Y. c #8C0623",
"T. c #840B22",
"R. c #8C0B22",
"E. c #8C0B28",
"W. c #920623",
"Q. c #930B22",
"!. c #9C0C23",
"~. c #9A0A26",
"^. c #841323",
"/. c #8C1323",
"(. c #881A26",
"). c #941222",
"_. c #9D1223",
"`. c #941A23",
"'. c #9C1A25",
"]. c #95152A",
"[. c #9A1529",
"{. c #9C1B29",
"}. c #951A2A",
"|. c #A30D24",
" X c #A90E24",
".X c #A50E28",
"XX c #A31323",
"oX c #AC1325",
"OX c #A41A24",
"+X c #AC1C24",
"@X c #A41228",
"#X c #AC1528",
"$X c #AC1B29",
"%X c #A41C29",
"&X c #B21525",
"*X c #B31C26",
"=X c #BA1A26",
"-X c #B21528",
";X c #B31C29",
":X c #BB1C2A",
">X c #B91323",
",X c #BA1F30",
"<X c #862524",
"1X c #843723",
"2X c #93282D",
"3X c #AE2026",
"4X c #A3232C",
"5X c #A92126",
"6X c #B12126",
"7X c #B42128",
"8X c #BD212A",
"9X c #AB2C33",
"0X c #A1201F",
"qX c #C31E2B",
"wX c #C91B2A",
"eX c #C61F30",
"rX c #C4222B",
"tX c #C9242D",
"yX c #C72330",
"uX c #884919",
"iX c #885718",
"pX c #97581A",
"aX c #8E5013",
"sX c #98671A",
"dX c #8E6414",
"fX c #A5671B",
"gX c #AB7519",
"hX c #B57B1A",
"jX c #874825",
"kX c #954925",
"lX c #895924",
"zX c #975825",
"xX c #8A5333",
"cX c #A35A24",
"vX c #A44B2E",
"bX c #956723",
"nX c #8E692C",
"mX c #A66525",
"MX c #B47A28",
"NX c #AB742E",
"BX c #A15F17",
"VX c #8A3E48",
"CX c #965651",
"ZX c #B8851B",
"AX c #AE801B",
"SX c #BA8528",
"DX c #BA8939",
"FX c #AF842E",
"GX c #CC9419",
"HX c #C48C29",
"JX c #CA942A",
"KX c #D59A29",
"LX c #CA9433",
"PX c #D09735",
"IX c #D7A133",
"UX c #B88240",
/* pixels */
"                                                                                                                                                                                                                                                                                                                                                                                                                                                                                                                                                                                                                                                                                                                                                                                        ",
"                                                                                                                                                                                                                                                                                                                                                                                                                                                                                                                                                                                                                                                                                                                                                                                        ",
"                                                                                                                                                                                                                                                                                                                                                                                                                                                                                                                                                                                                                                                                                                                                                                                        ",
"                                                                                                                                                                                                                                                                                                                                                                                                                                                                                                                                                                                                                                                                                                                                                                                        ",
"                                                                                                                                                                                                                                                                                                                                                                                                                                                                                                                                                                                                                                                                                                                                                                                        ",
"                                                                                                                                                                                                                                                                                                                                                                                                                                                                                                                                                                                                                                                                                                                                                                                        ",
"                                                                                                                                                                                                                                                                                                                                                                                                                                                                                                                                                                                                                                                                                                                                                                                        ",
"                                                                                                                                                                                                                                                                                                                                                                                                                                                                                                                                                                                                                                                                                                                                                                                        ",
"                                                                                                                                                                                                                                                                                                                                                                                                                                                                                                                                                                                                                                                                                                                                                                                        ",
"                                                                                                                                                                                                                                                                                                                                                                                                                                                                                                                                                                                                                                                                                                                                                                                        ",
"                                                                                                                                                                                                                                                                                                                                                                                                                                                                                                                                                                                                                                                                                                                                                                                        ",
"                                                                                                                                                                                                                                                                                                                                                                                                                                                                                                                                                                                                                                                                                                                                                                                        ",
"                                                                                                                                                                                                                                                                                                                                                                                                                                                                                                                                                                                                                                                                                                                                                                                        ",
"                                                                                                                                                                                                                                                                                                                                                                                                                                                                                                                                                                                                                                                                                                                                                                                        ",
"                                                                                                                                                                                                                                                                                                                                                                                                                                                                                                                                                                                                                                                                                                                                                                                        ",
"                                                                                                                                                                                                                                                                                                                                                                                                                                                                                                                                                                                                                                                                                                                                                                                        ",
"                                                                                                                                                                                                                                                                                                                                                                                                                                                                                                                                                                                                                                                                                                                                                                                        ",
"                                                                                                                                                                                                                                                                                                                                                                                                                                                                                                                                                                                                                                                                                                                                                                                        ",
"                                                                                                                                                                                                                                                                                                                                                                                                                                                                                                                                                                                                                                                                                                                                                                                        ",
"                                                                                                                                                                                                                                                                                                                                                                                                                                                                                                                                                                                                                                                                                                                                                                                        ",
"                                                                                                                                                                                                                                                                                                                                                                                                                                                                                                                                                                                                                                                                                                                                                                                        ",
"                                                                                                                                                                                                                                                                                                                                                                                                                                                                                                                                                                                                                                                                                                                                                                                        ",
"                                                                                                                                                                                                                                                                                                                                                                                                                                                                                                                                                                                                                                                                                                                                                                                        ",
"                                                                                                                                                                                                                                                                                                                                                                                                                                                                                                                                                                                                                                                                                                                                                                                        ",
"                                                                                                                                                                                                                                                                                                                                                                                                                                                                                                                                                                                                                                                                                                                                                                                        ",
"                                                                                                                                                                                                                                                                                                                                                                                                                                                                                                                                                                                                                                                                                                                                                                                        ",
"                                                                                                                                                                                                                                                                                                                                                                                                                                                                                                                                                                                                                                                                                                                                                                                        ",
"                                                                                                                                                                                                                                                                                                                                                                                                                                                                                                                                                                                                                                                                                                                                                                                        ",
"                                                                                                                                                                                                                                                                                                                                                                                                                                                                                                                                                                                                                                                                                                                                                                                        ",
"                                                                                                                                                                                                                                                                                                                                                                                                                                                                                                                                                                                                                                                                                                                                                                                        ",
"                                                                                                                                                                                                                                                                                                                                                                                                                                                                                                                                                                                                                                                                                                                                                                                        ",
"                                                                                                                                                                                                                                                                                                                                                                                                                                                                                                                                                                                                                                                                                                                                                                                        ",
"                                                                                                                                                                                                                                                                                                                                                                                                                                                                                                                                                                                                                                                                                                                                                                                        ",
"                                                                                                                                                                                                                                                                                                                                                                                                                                                                                                                                                                                                                                                                                                                                                                                        ",
"                                                                                                                                                                                                                                                                                                                                                                                                                                                                                                                                                                                                                                                                                                                                                                                        ",
"                                                                                                                                                                                                                                                                                                                                                                                                                                                                                                                                                                                                                                                                                                                                                                                        ",
"                                                                                                                                                                                                                                                                                                                                                                                                                                                                                                                                                                                                                                                                                                                                                                                        ",
"                                                                                                                                                                                                                                                                                                                                                                                                                                                                                                                                                                                                                                                                                                                                                                                        ",
"                                                                                                                                                                                                                                                                                                                                                                                                                                                                                                                                                                                                                                                                                                                                                                                        ",
"                                                                                                                                                                                                                                                                                                                                                                                                                                                                                                                                                                                                                                                                                                                                                                                        ",
"                                                                                                                                                                                                                                                                                                                                                                                                                                                                                                                                                                                                                                                                                                                                                                                        ",
"                                                                                                                                                                                                                                                                                                                                                                                                                                                                                                                                                                                                                                                                                                                                                                                        ",
"                                                                                                                                                                                                                                                                                                                                                                                                                                                                                                                                                                                                                                                                                                                                                                                        ",
"                                                                                                                                                                                                                                                                                                                                                                                                                                                                                                                                                                                                                                                                                                                                                                                        ",
"                                                                                                                                                                                                                                                                                                                                                                                                                                                                                                                                                                                                                                                                                                                                                                                        ",
"                                                                                                                                                                                                                                                                                                                                                                                                                                                                                                                                                                                                                                                                                                                                                                                        ",
"                                                                                                                                                                                                                                                                                                                                                                                                                                                                                                                                                                                                                                                                                                                                                                                        ",
"                                                                                                                                                                                                                                                                                                                                                                              > + +                   > X X >                                                                                                                                                                                                                                                                                                                                                                           ",
"                                                                                                                                                                                                                                                                                                                                                                            @ > 6 2 > 5           5 > + @ + + >                                                                                                                                                                                                                                                                                                                                                                         ",
"                                                                                                                                                                                                                                                                                                                                                                            > b P P P n 5 5 4 5 4 5 7 b b 9 : @                                                                                                                                                                                                                                                                                                                                                                         ",
"                                                                                                                                                                                                                                                                                                                                                                          4 9 ( | C.A.C.%.i.(.(.(.(.(.<X(.$.7 <                                                                                                                                                                                                                                                                                                                                                                         ",
"                                                                                                                                                                                                                                                                                                                                                                          > E @.n.m.Z.S.S.).'.4X4X4X4X4X'.Z.P a                                                                                                                                                                                                                                                                                                                                                                         ",
"                                                                                                                                                                                                                                                                                                                                                                          > R %.Z.S.S.S.S.'.{.4X4X4X4X%XOX).( s                                                                                                                                                                                                                                                                                                                                                                         ",
"                                                                                                                                                                                                                                                                                                                                                                          > R %.Z.S.S.S.S.`.'.4X4X4X4X%XOX'.) 9                                                                                                                                                                                                                                                                                                                                                                         ",
"                                                                                                                                                                                                                                                                                                                                                                          > W A.S.S.S.S.).).`.{.4X4X4X4XOX'.$.9                                                                                                                                                                                                                                                                                                                                                                         ",
"                                                                                                                                            1 t f f ; = % % = ; f ; % l s.f X t t 1 1 $ $ $ $ $ $ $ $ $ $ $ % % % % % t t f f t = = t = = % 1 e                                                                                                                           > #.A.S.S.S.S.S.).`.'.4X4X4X4X%X'.&.E 4                                                                                                                       2 < r r e 1 1 , , , y y y 1 % % % % % % % % % % % = t t t t f % % +   k + X % f ; ; ; = = ; ; ; % +                                                                                                                                             ",
"                                                                                                                                < , e f ; & # # # + + + @ $ $ $ % t t l x.l = 1 < < < 6 6 6 6 6 < < < < < , , $ $ , 6 i i 6 < , , $ @ + X X X O = = = f t e                                                                                                               4 @.S.D.D.S.S.S.S.).`.{.4X4X4X{.'.%.R 4                                                                                                           1 < y y f f 1 , , < < < 6 7 s p A D A p 6 < < < 2 2 6 6 < < < < < < < < , e t = x.x.f # $ @ @ $ $ $ + + # # o X % % # @ @                                                                                                                                   ",
"                                                                                                                  a 2 1 t t t = $ $ $ $ $ 1 , < < 6 6 6 6 6 i i s s s s g d a s C C Z F F I F I I F F Z D C s s s D I U ' U I F Z C p 6 < , , $ $ $ # # # # - # # = = =                                                                                                 z v $.S.D.D.F.S.S.S.S.).'.4X4X4X{.'.A.W 0                                                                                               y e t % $ % 1 , < < 6 6 7 x C C Z Z J I U U ' _ ' T F C A A Z F F F F F Z Z G F F D A s s s s s a i i 7 6 i i 6 6 < r r $ $ % % # # # # = # # # o % t                                                                                                                   ",
"                                                                                                  6 6 , < 1 t f f t , < 6 s s A C D D Z Z Z J I U T T T T T T T ' ' T T T T 2.q.9.9.9.9.w.w.w.9.9.9.9.' T T T T U 9.e.r.r.t.t.t.w.9.9.U I F F F D D p i i < , $ X X o o o o - - 1                                                                                       > W %.F.D.F.F.S.S.).'.'.'.{.4X4X4X'.(.+.v                                                                                     , , $ $ + % $ 1 < 2 a s C D F J I U U U U ' _ ` ` e.t.e.e.e.0._ U T T ' _ _ _ 9.9.9.q.q.q.q.q.' T U U U U U ' U U U U U U U U I I F F D D p s s d r < , $ # # - # o # - # # $ $ @                                                                                                 ",
"                                                                            2 2 2 y y y 1 1 1 $ $ 1 1 1 , , < 6 s C Z J K ' _ ` ` ` ` ` ` ` X.X. . . . . . . . . . . . .e.e.e.e.e.e.e.e.e.e.e.e.e.0.0.0.0.0.0.9.0.e.r.r.r.r.r.r.r.e.e.e.0.0.9.9.9.9.9.U I I Z p < $ $ $ $ # # # + X + $ 1                                                                             > 8 +.A.F.D.D.F.S.S.).'.'.).'.{.4X{.{.(.#.E                                                                             , $ + + $ $ 1 < < 6 s p D Z I I U U _ _ _ _ 9.9.9.0.e.e.e.e.r.r.r.e.e.0.9.9.9.0.e.e.e.e.e.e.e.e.e.e.0.e.e. . . .e.e.e. . . . .e.e.e.e.e.e.e.e.e.e.0.w.w.w.' U Y S 7 i i r , , , $ # # # # X X + + + + + + + :                                                                             ",
"                                                            g a a y y f t + + % 1 1 < 2 6 i s s A A C C C Z J K ' ` `  . .....v.v.v.v.....v.v.v.v.v.v.U...........v.v.v...r.r.r.r.r.e.e.e.e.e.e.e.e.e.e.e.e.e.e.e.e.r.r.r.r.r.r.r.r.r.e.e.e.e.e.e.e.e.0.0.0.9.2.I D p p p i i < , @ + + X X $ 1                                                                     > > W i.F.D.D.D.'.S.S.).'.'.).).'.{.{.{.`.$.E n                                                                     , @ X + 1 < i s p C C Z F I I U U ' _ _ ` ` 9.0.0.0.0.e.e.e.e.e.e.e.e.e.e.e.e.0.0.0.e.e.e.e.e.e.e.e.r.r.e.e.r.r.r.r.r.r.r.U.r.r.r.r.r.r.r.r.r.U.U.Y.Y.Y.Y.Y.Y.Y.U.U.v... .] ' ' I J Z C C p p s 6 6 < < < , $ $ # + # $ $ $ 1 , , $ 1                                                           ",
"                                                : 1 1 % @ + @ @ 1 1 , < < < 6 s C Z J J J K K ^ ^ ^ ^ ^ ^ / / { ..v.v.v.v.v.v.b.b.b.b.b.b.b.Y.Y.Y.Y.Y.U.U.U.v.U.U.U.U.U.v.U.r.r.r.r.r.r.e.e.e.r.r.e.e.e.e.e.e.e.e.e.e.e.e.e.e.e.e.e.0.0.0.0.e.0.` 0.0.0.e.e.0.0._ U U U U I F C C p 6 < , $ $ + X $ e                                                               @ R %.`.D.D.D._.'.S.S.S.S.'.).).'.'.{.{.`.%.S 4                                                               : + X @ e y i p C F J J J I U U U U _ _ _ ` ` ` ` 0.0.0.0.0.0.0.e.e.e.0.0.e.e.e.0.0.0.0.0.e.e.e.e.e.e.e.e.r.r.r.r.r.r.r.r.U.U.U.U.U.U.U.U.U.U.U.U.Y.Y.Y.Y.W.W.W.W.W.W.W.W.W.Y.b.b.v.v.{ [ ` ` ` _ _ _ ' U U J J J Z p i < < < , , $ % # X o o o X X %                                                 ",
"              E E E E g 9 9 9 s s s 9 8 8 8 a : @ : , < 8 9 9 v v c Z Z J J K K ^ / / [ [ { { { ......{ { { ..v.v.b.b.b.b.b.Y.Y.b.b.b.b.Y.Y.Y.Y.Y.Y.Y.R.Y.Y.Y.Y.Y.Y.Y.U.U.U.U.U.U.r.r.r.r.r.r.r.r.e.e.e.e.e.e.e.e.e.e.e.0.0.0.0.0.9.9.0.0.0.` ` ` ` _ _ ` ` 0.0.` _ _ _ _ _ U U U I F Z C p 7 < , $ @ X , ,                                                       X w #.Z.S.D.D.D.'.'.S.S.S.S.'.).).)._.'.'.`.C.W 8                                                         : @ + @ , 2 i p D Z J I U U U U U _ _ _ _ _ _ 0.` 0.` ` 0.0.0.0.0.9.9.9.9.9.9.9.9.0.0.0.0.0.0.0.e.e.e.e.e.e.e.r.r.r.r.r.r.r.r.r.U.U.U.U.U.U.Y.Y.U.U.Y.Y.Y.Y.W.W.W.W.W.W.W.W.W.W.W.W.W.W.b.b.v.v.v............... . . . .` _ U U I J F Z A p i 6 < $ # X o o o # # $ e e u y a y a a a d s a                 ",
"        > : < 4 0 8 8 8 8 9 9 R R R R R R S S v 5 z x c J K K ^ ^ / / / / [ [ { { { { { v.v.b.b.b.b.b.v.v.v.b.b.b.b.W.W.W.W.W.W.W.W.W.W.W.W.W.W.W.W.W.R.R.R.R.R.R.Y.Y.Y.Y.Y.U.U.U.U.U.U.U.U.r.r.r.r.r.r.r.r.e.e.e.e.e.e.e.0.0.0.0.0.0.0.` ` _ _ _ _ _ _ _ _ _ _ _ _ _ _ _ _ _ 9.9.U U U U U J Z C 7 6 < : + X : <                                                 + B A.S.S.S.F.F.F.F.F.S.S.S.).).).).).).'.`.A.#.s 4                                                 : + + @ y a p C C Z J I I U U U U U U U _ _ _ _ _ 9._ _ _ 9.9.9.9.9._ 9.9.9.9.9.9.9.9.9.0.0.e.e.e.e.e.e.e.r.r.r.r.r.U.U.U.U.U.U.U.U.U.U.Y.Y.Y.Y.Y.Y.Y.Y.Y.W.W.W.W.W.Q.Q.Q.!.!.Q.Q.Q.Q.Q.Q.Q.Q.W.W.W.b.b.v.v.v.v.v.v.v.v.v.v.v...{  . . . . .` ` _ U U J C 6 , , r a d d d d a a a a 6 < < < < , : : @ @ :         ",
"      @ : a E S R W W W W W O.@.$.$.@.@.$.@.) ( M Q ^ / [ { { { { { { ....v.v.b.b.b.b.b.b.b.b.b.b.b.b.V.V.V.V.N.W.Q.Q.Q.Q.Q.V.V.Q.Q.Q.Q.Q.Q.Q.Q.Q.Q.Q.Q.Q.Q.Q.W.W.W.W.W.W.Y.Y.Y.Y.Y.Y.Y.Y.Y.Y.U.U.U.U.U.U.U.U.r.r.r.r.r.r.r.e.e.e.e.e.e.` ` ` ] ` ` ` ` _ _ _ _ _ _ _ _ _ _ _ _ 9.9.9._ _ _ _ U I I Z C p 6 < : + + ,                                           X 3 W S.D.F.S.F.F.F.'.'.S.S.S.S.S.).).).S.).S.Z.%.R 1                                           < : @ + , i A Z Z J J I U U U U U U U U _ _ _ _ _ _ _ _ _ _ _ _ _ _ _ _ _ _ 9.9.9.9.0.0.0.0.e.e.e.e.r.r.r.r.U.U.U.U.U.U.Y.Y.Y.Y.Y.Y.Y.Y.Y.Y.Y.Y.W.W.Q.Q.Q.Q.Q.Q.Q.Q.Q.!.!.!.!.!.!.!.!.!.!.!.~.!.!.!.!.Q.Q.W.W.R.b.b.b.b.b.b.b.b.Y.b.v.v.v.v.v.v.v.v.v..... . ._ U Y G Y T q.' ' ' ' ' T T L S A A A p 7 i i , @ @       ",
"    2 @ 8 9 b b P ( ( ) ) ) } | | | | | | | | } } { { { { v.v.v.v.v.M.n.n.m.b.b.b.b.b.b.b.b.N.N.N.N.V.W.Q.Q.Q.~.Q.~.~.~.!.~.~.~.~.!.!.!.!.!.!.!.~.!.~.~.!.!.~.~.Q.Q.W.W.W.W.W.W.W.W.W.W.W.W.W.Y.Y.Y.Y.Y.Y.Y.Y.Y.Y.U.U.U.U.U.U.r.r.r.r.r.r.e.e.e.e.e.e.e.e.` ` ` ` _ _ _ _ U U U U U 2.U U U U U U U U U I F C p 6 < @ + , <                                   + X 8 ( S.D.D.F.S.F.F.F.F.S.S.S.S.S.).).S.S.S.S.S.C.W f @                                     6 , @ , 8 p C Z J K K K U U U U U U U U U _ _ _ _ _ 9._ ` ` ` ` ` ` ` ` ` ]  .e.e.e.e.e.e.r.r.r.r.r.T.T.U.U.Y.Y.Y.Y.Y.Y.Y.Y.W.W.W.W.W.W.Q.Q.W.Q.W.Q.Q.Q.!.!.!.!.!.!.!.!.!.!.!.!.!.!.!.!.!.!.!.!.!.!.!.!.!.!.Q.Q.W.W.W.m.m.R.R.R.R.R.R.R.R.m.R.R.m.b.m.m.m.R.T.U.U... .t.t.t.o.T.T.T.^.C.C.o.X.' P J L F Z C C p i , +       ",
"    + % 4 9 b N P ( ( ) ) } | | n.n.n.C.n.n.M.n.n.n.m.m.n.m.m.m.m.m.m.m.m.m.N.N.N.N.W.W.N.Q.Q.Q.Q.Q.Q.Q.~.!.!.!.!.!.!.!.!.!.!.!.!.!.!.!.!.!.!.!.!.!.!.!.!.!.!.!.!.~.~.!.!.!.!.!.!.Q.Q.W.Q.Q.Q.W.W.W.W.W.W.W.Y.Y.Y.Y.Y.Y.Y.Y.Y.Y.E.U.U.U.U.T.T.T.y.r.r.r.r.r.r.e.e.e.0.0._ _ U U U U U U U U U U U _ _ _ U U I J F C p 6 < : < <                               X & 0 ! M.S.S.S.S.F.F.F.F.S.S.S.S.S.).S.S.).S.N.m.n.#.g ;                               4 < y : < 6 p Z J K K U U U U U U U U U U _ _ _ _ _ _ 9.9.0.0.0.e.e.e.r.r...r.r.r.r.y.T.U.U.U.U.U.U.Y.Y.Y.Y.E.Y.W.W.~.Q.Q.W.W.W.W.Q.Q.Q.Q.Q.Q.!.!.Q.Q.!.!.!.!.!.!.!.!.!.!.!.!.!.!.!.!.!.!.!.!.!.!.!.!.!.!.!.!.!.!.~.~.Q.Q.Q.Q.Q.Q.Q.Q.Q.Q.Q.Q.W.Q.Q.Q.Q.W.W.W.W.R.R.R.R.R.T.E.E.T.R.Q.).).)./././.y.] ' T Y J F Z C p 6 , $       ",
"    . $ : 8 v R R L P ( ) ) X.o.o.n.n.^.C.n.M.n.m.m.V.V.V.N.N.N.N.N.N.B.B.B.!.!.!.!.~.~.!.!.!.!.!.!.!.!.!.!.!.!.!.!.!.!.!.!.|.!.|.|.|.|.!.!.!.!.|.|.|.|.!.!.!.!.!.!.~.!.!.!.!.!.!.!.!.W.Q.Q.W.Q.Q.W.W.W.W.W.W.W.W.W.W.W.W.W.Y.Y.Y.Y.Y.Y.Y.Y.Y.Y.Y.U.U.U.U.U.U.U.r.r.r.e. .` ` _ ^ ^ U U U U U U U U U _ _ U U U U U J C D C p < : :                           X q =.~ *.C.m.S.S.F.F.F.S.S.S.S.S.S.S.S.S.).Q.m.m.n.$.s.; 1                         : @ , 6 s A C Z J K U U U U U U U U U U _ _ _ 9.9.` ` ` 0.e.e.e.e.r.r.r.U.U.U.U.U.E.E.Y.Y.Y.Y.Y.Y.Y.E.Y.Y.W.W.W.W.W.Q.W.W.W.Q.W.W.W.W.W.W.W.W.W.W.!.!.!.!.!.!.!.!.!.!.!.!.!.!.|.|.|.|.|.|.|..X|.|.|.|.|.|.|.|.|.|.!.!.!.!.!.!.!.!.!.~.~.~.!.!.!.!.~.~.~.~.~.Q.Q.Q.Q.Q.Q.Q.Q.Q.Q.Q.R.R.Q.Q.Q.Q.R.m.C.T.y.w.T T Y G Z D A p 6 , %       ",
"    . # & % 1 2 a s A A S L W +.] $.%.^.^.%.n.n.m.N.B.B.B.B.B.B.B.B.D.D.D.D.!.!.!.!.!.!.!.|.|.|.|.|.|.|.|.|.|.|.|.|.|.|.|.|.|.|.|.|.|.|.|.|.|.|.|.|.|.|.|.|.|.|.|.!.!.!.!.!.!.!.!.!.!.W.Q.Q.Q.Q.W.W.W.W.W.W.W.W.W.W.Y.Y.Y.Y.Y.Y.R.R.R.Y.Y.Y.Y.Y.Y.Y.Y.Y.U.U.U.U.U.U.U.U.U.U.n.o... .` _ _ _ U U U U U U _ _ _ _ _ _ U K I I F Z A < @ @                     X & f.lXsXzX>.| S.S.S.S.S.S.S.S.S.S.S.S.S.S.).N.m.M.| P.k.j ;                       @ , a C F J J K K _ _ _ _ _ _ _ 9.9.9.9._ _ _ ` 0.e.e.r.r.r.T.U.U.U.U.U.U.U.E.Y.Y.Y.Y.Y.Y.Y.Y.Y.Y.Y.Y.Y.W.W.W.W.W.W.W.W.W.W.W.W.W.W.W.W.W.W.W.W.Q.Q.W.Q.~.~.!.!.!.~.!.!.!.|.|.|.|.|.|.|.|.|.|.|.|.|..X.X.X.X|.|.|.|.|.|.!.!.!.!.!.!.!.!.!.!._.XXXX_.XXXX!.!.!.!.!.!.!.!._.).).Q.Q.Q.Q.R.R.R.R.T.T.i.@.+.T Y G E H d s s a i < 1 +       ",
"    X + = ; ; ; ; = t 1 % 1 y a s S W +.@.@.$.| m.N.B.B.B.B.B.B.B.B.D.D.D.G.|.|.XXXXXXXXXX|.|.|.|.|.|.|.|.|.|.|.|.|.|.|.|.|.|.|.|. X X X X|. X|.|.|.|.|.|.|.|.|.!.|.!.!.!.!.!.!.!.!.!.!.Q.W.W.Q.W.W.W.W.W.Y.Y.Y.Y.Y.Y.Y.Y.Y.Y.Y.Y.Y.Y.Y.Y.Y.Y.Y.Y.Y.Y.Y.U.U.U.U.v.v.U.U.R.R.Q.Q.Q.R.T.y.y.e.` _ _ U U U U U U _ _ _ _ _ _ _ U U J p r $ .                   . w lXgXSXSXjX! n.S.S.).).).).S.S.S.S.S.S.S.S.m.n.| &.cXMXz.& w                   X , 9 Z J K K ^ _ _ _ _ _ _ _ _ _ 9.9.9.9.0.e.e.r.U.E.Y.Y.Y.Y.Y.Y.U.U.U.U.U.U.U.U.Y.Y.Y.Y.Y.Y.Y.Y.Y.Y.Y.Y.W.W.W.W.W.W.W.W.W.W.W.W.W.W.W.W.W.W.W.W.W.Q.W.W.~.~.!.!.!.~.!.!.|.|.|.|. X X X X|.|.|.|.|..X@X@X@X@X|.|.|.|.|.|.|.|.|.|.|.|..X.XXX@X@X@X@X@X@X@X@X@XXX@XXXXXXXXX_._._._.).).Q.R.T.y.t.' T G d a y e t t f f f f t = $ + X       ",
"                      1 . . O O # % 2 8 9 A S ( | m.B.B.B.B.B.B.D.D.G.G.G.G.G.G.XXXXoXoXXXXXXXXXXXXX X|.|.|.|.|. XoXoX|.XX|.|.|.XXXX X X X X X|.|.|.|.|.|.|.|.|.|.|.|.!.!.!.!.!.!.~.~.!.!.W.W.Q.W.W.W.W.W.Y.Y.Y.Y.Y.Y.Y.Y.Y.Y.Y.Y.Y.Y.Y.Y.Y.Y.Y.Y.Y.Y.Y.U.v.U.U.U.U.U.Y.Y.W.Q.~.!._._.).).R.E.r.e.0.` _ _ U U U U _ _ _ _ _ _ U U F p , X .                 & ;.pXsXgXgXuXM o.S.S.S.S.S.S.S.S.S.S.S.S.Z.m.n.o.) I.HXJXbXq w                 . + 6 c K ^ _ _ _ _ _ _ _ _ _ _ _ _ 9.0.e.y.T.T.R.Q.Q.~.~.~.~.~.W.Y.U.T.U.U.U.U.U.U.U.Y.Y.Y.Y.Y.Y.Y.Y.Y.Y.Y.Y.Y.Y.Y.Y.Y.Y.Y.Y.Y.W.W.W.W.W.V.W.W.W.W.Q.W.!.~.~.~.!.!.!.!.!.|.|.|. X X X X X X|.|.|.|.|..X@X@X@X|.|.|.|.|.|..X@X@X@X@X@X@X@X@X@X#X@X#X#X#X#X@X@X@XXX@X@X@X@X@X@X_._._.).R.T.t.w.Y G s 2 1 = # # X X X t                       ",
"                        . . O . . . X X # $ 1 E +.$.C.m.B.B.B.B.D.G.G.G.oXG.G.G.oXoXoXoXoXoXoXoXoXoXoXoXoXoXoXoXoXoXoXoXoXoXoXoXXXXX X X X X X|.|. X|. X|.|.|.|.|.|.|.|.|.|.|.|.|.!.!.!.~.~.Q.Q.Q.Q.W.W.W.Y.Y.Y.Y.Y.Y.Y.Y.Y.Y.Y.Y.Y.Y.Y.Y.Y.Y.Y.Y.Y.U.U.U.v.v.v.U.U.U.Y.Y.Q.!.|.|.|.|.|.!.~.~.Q.E.U.y.e.` _ _ U U _ U _ _ _ _ _ _ U F < + .               X * f.iXaXdXdX<.M | S.S.S.S.S.S.S.S.S.S.S.Z.Z.m.| ) :.gXGXGXFX=.q               X X + 8 m ^ ( _ _ _ _ _ _ _ _ ` ` ` e.y.T.U.Y.Q.~.~.!.|.|.|..X~.!.W.Y.U.U.U.r.r.r.r.r.U.U.U.Y.Y.Y.Y.Y.Y.Y.Y.Y.Y.Y.Y.Y.Y.Y.Y.Y.Y.Y.W.W.W.Q.Q.Q.Q.Q.~.~.~.~.!.!.!.!.|.|.|.|.|.|.|.|. X X X X X X|.|.XXXX|.XXXXXXXXXXoXoXoXoXoX@X#X#X#X#X#X#X#X#X#X#X#X#X#X#X#X#X#X#XoXoXoXoXoX@X@X_.)./.%.$.W G d r 1 % X X X X . . .                           ",
"                                    + X . X O % g R +.$.C.A.Z.S.S.D.G.G.XXoXoXoXoXoXoXoXoXoX#X#X#X#X#XoX&X&X&X&XoXoXoXoXoXoXoXoXoXoXXXoX X X X X X X X X|.|. X|.|. X|. X|.|.|.|.|.|.!.!.!.!.~.~.Q.Q.Q.W.W.Y.Y.Y.Y.Y.Y.Y.U.U.Y.Y.Y.Y.Y.Y.Y.Y.U.U.U.v.U.U.U.U.U.U.U.v.b.Y.Q.!..X|.|.|.|.|.|..X~.~.~.Q.E.T.y.X.` _ _ ' ' ' ' _ _ U _ U I i $ X .             . q g.aXj.j.iX,.^ n.S.S.S.S.S.S.S.S.Z.S.Z.Z.m.n.} ~ uXKXGXGXSXf.q               . O & 8 b ^ _ ` _ _ _ _ _ ` `  . .r.T.E.E.W.Q.~.!.!.!.|.|.|.|.|.!.!.W.Y.U.U.U.r.r.r.r.r.r.U.U.U.Y.Y.Y.Y.Y.Y.Y.Y.Y.Y.R.Y.Y.Y.Y.Y.Y.W.W.Q.Q.~.~.!.!.!.!.!.|.|.|.|.|.|.|.|.|.|.|.|.|. X X|.|. X X|.|.oXoX X XoXoXoXoXoXoXoXoXoXoX#X#X#X#X#X#X#X#X#X#X-X#X#X#X#X$X$X$X$X#XoXXX_.)./.^.i.u.Y A a 1 $ X X X + +                                     ",
"                                          . . . X 1 y g R W #.$.%.(.'.G.XXoXoXoX&X&X&X&X&X-X-X-X-X-X-X-X&X-X&X&X&XoXoXoXoXoXoXoXoXoX X X X X X X X X X X X X|. X X X|.|. X X X|.|.|.|.|.|.|.|.!.~.!.!.Q.W.W.Y.Y.Y.Y.Y.U.U.U.U.U.U.U.U.U.U.v.v.v.v.v.U.U.U.U.U.U.Y.b.b.Q.!..X.X|.|..X.X|.!.~.!.Q.W.Y.R.Y.E.y.y.t.] ` _ ' ' _ 9.U U U F i @ X .             X h aXiXdXsXbX:.) n.S.S.S.S.S.S.S.Z.Z.Z.Z.m.n.| ) ~ MXKXGXGXHXh.*               . O & 2 A K _ ` ` ` ` ` `  . .r.U.U.Y.Y.W.Q.!.!.!.~.!.|.|.|.|.|.|.!.~.W.Y.v.v.v.......r.r.r.r.U.U.U.U.U.Y.Y.Y.Y.Y.Y.Y.Y.R.R.R.Y.Y.W.Q.~.!.|.|.|.|.|.|.|. X|.|.|.|. X X|.|.|.|. X X X X X X X X X XoXoX X XoXoXoXoXoXoXoXoXoXoX#X#X#X#X#X#X$X$X$X$X&X&X-X&X-X-X$X$X$X$X%X_.(.i.+.W G s 2 1 & X . . X                                           ",
"                                                + X . X & f y a E u.(.'.XXoX#X-X&X&X&X&X&X&X&X&X&X&X&X&X&X&X&X&XoXoXoXoXoXoXoXoXoXoXoX X X XoXoXoX X X X X|. X X|. X|. X X X X X X|.|. X X X|.|.|.!.!.~.Q.W.Y.Y.U.U.U.U.U.U.v.v.v.v.U.U.v.v.v.v.v.v.U.U.U.U.T.Y.Y.Q.!.!.|..X.X X|.|.|.!.!.Q.W.Y.Y.U.U.T.U.U.y.y.t.t.w.` _ 9.2.I I F D < + .               & ;.sXhXMXSXDX>.} C.Z.N.S.S.S.S.Z.Z.Z.Z.Z.m.M.} ( 1.HXGXGXGXJXnXq &             . . O % 2 A J U _ ` `  . .r.U.Y.Y.Y.Y.Y.Y.W.W.Q.Q.~.~.!.|.|.|.|.|.|.|.!.!.W.b.b.v.v...............U.U.U.U.U.U.U.U.U.Y.Y.R.Y.Y.R.Y.Q.~.~..XXXXXXXXXXXXX|. X X X X X X X X X X X X X X X X X X X X XoXoX X XoXoXoXoXoXoXoXoX#X#X#X#X-X-X-X-X$X$X#X-X&X&X&X-X-X-X&X+XOX{./.$.W E 8 1 1 % X X + +                                                 ",
"                                                      X X . X X # a W (.'.OX$X-X-X&X-X&X&X&X&X&X&X&X-X-X&X&X&X&XoXoXoXoXoXoXoXoXoXoXoXoXoXoXoXoXoXoXoX X X X X X X X X X X X X X X XoXoXoX X X XXX|.!.~.Q.Y.Y.v.v.v.v.v.v.v.v.v.v.v.U.U.U.v.v.v.o.U.U.U.T.R.R.Q.~.|.XXXX|. X X|.|.!.!.Q.W.Y.Y.U.U.r.r.y.y.r.r.r.e.t.t.` ` _ U F F D i , X .             3 q lXSXSXSXSXDX#.o.n.m.Z.Z.S.S.S.Z.Z.Z.Z.Z.m.M.[ ( 1.HXKXKXKXIXNXj &             . . . O @ , 6 Z K `  . ...U.U.Y.Y.Y.Y.U.U.U.Y.Y.R.W.W.Q.!.!.|.|.|.|.|.|.|.!.!.Q.R.b.v.v.v.v.v.........r.r.r.r.r.r.U.U.U.U.U.U.Y.R.W.~.|.XXXXXXoXoXoXoXoXoXoXoXoXoXoX X X X X X X X X X X X X X X XoXoX X XoXoXoXoXoXoXoXoX#X#X#X#X-X-X-X-X-X-X-X-X&X&X&X&X-X-X#XXX'.(.@.v 8 : & X X X X                                                       ",
"                                                              X . X 1 W (.'.OX+X-X&X&X&X&X&X&X&X&X&X&X&X&X&X&X&X&X&XoXoXoXoXoXoXoXoXoXoXoXoXoXoXoXoXoX XoX X X X X X XoXoXoXoX&X&X#X#X-X&XoXoXoX X|.~.N.Y.v.v.............o.......v.v.v.v.v.v.T.T.R.R.R.)._.[.@X@XoX X|.|.|.|.|.!.W.W.Y.Y.U.U.......y.y.y.y.r.r.e.e.e.] _ U I D p i 1 X .               @ h bXSXZXZXMXlX( o.m.Z.Z.Z.Z.Z.Z.Z.Z.Z.Z.Z.n.| [ ( 1.fXhXhXhXMXnXj *               . . X O # @ 2 Z U `  ...v.U.U.U.U.U.U.U.v...v.v.U.R.R.W.!.!.|.|.|.|.oXXXXXXXXX!.~.Q.W.Y.Y.b.v.v.v.v...r.r.r.r.r.r.r.r.U.U.U.U.T.R.W.!.|.XXoXoXoXoXoXoXoXoX&XoXoXoXoXoXoXoXoXoXoXoX XoXoXoXoXoXoXoXoXoXoXoXoXoXoXoXoXoXoXoXoX#X#X-X-X-X-X-X-X-X-X-X-X#X#X#X#XXX'.(.+.v : % X + +                                                             ",
"                                                                . . X , W i.F.H.oXoX&X&X&X&X&X&X&X&X&X&X&X&X&X&X&X&X&X&X&X&X&XoXoXoXoXoXoXoXoXoXoXoXoXoXoXoXoXoXoXoX#X-X-X-X-X-X-X-X#X#XoXoXoX XB.B.N.b.v.v.............o.o.o.....v.n.n.m.m.R.Q.Q.~._._.@X@X#X@X#XoX X|.|.|.!.!.W.Y.U.U.U.r.r... ...y.y.y.y.r.e.e. .] ` U Y p i r $ X .                 + ,.sXhXZXAXNX:.) n.m.Z.Z.Z.Z.Z.Z.Z.Z.Z.Z.M.M.| [ ! ~ aXfXfXsXpXg.j &                   . . X X # r D ' ` ..v.v.U.U.U.U.U.U.....{ ......U.Y.R.Q.~.!.|.|.XXoXoXoXXXXX@X@X@X!.!.!.~.Q.W.b.v.v...r.r.r.r.r.r.r.r...r.y.U.R.R.Q.!.XXXXoXoXoXoX&X&X&X-X&X&X-X#X#X#X-X#XoXoXoXoXoXoXoXoXoXoXoXoXoXoXoXoXoXoXoXoXoXoXoX-X-X-X-X-X-X-X-X-X-X-X-X#X#X#XXX'.^.+.9 : % X X                                                                 ",
"                                                                  X . X : W A.'.G.oXoX&X&X&X&X&X&X&X&X&X&X&X&X&X&X&X&X&X&X-X-X&X&X&X&X&X&X&X&X&X&X&X&X&X-X-X-X-X-X-X-X-X-X-X-X-X&XoXoX|. X|.!.~.N.b.v.v.............o.o.o.n.n.n.R.Q.Q.Q._._.XXXXoXoXoXoXoXoXoX#XoX X|.|.!.!.W.Y.U.U.r....... . . . .y.y.y.r.r.e.e.` _ U F s r $ + X                   + q iXhXZXZXZXmXN ) n.M.M.Z.Z.Z.Z.Z.Z.Z.M.M.M.| | [ ! ~ pXSXSXSXMXbX=.X &                   X . O O # , D U ] ......U.U.U.U.U..... . . . .....U.Y.Y.W.!.!.|.XXoXoX@XoX#X#X#X#X#X#XoXoXXX!.!.Q.R.R.T.v.v.............y.y...v.T.R.Q.~.!.XXXXoXoXoX&X&X-X-X-X-X-X-X-X-X-X-X&X&X-X&X&X&X&XoXoXoXoXoXoXoXoXoXoXoXoX-X-X-X-X-X-X-X-X&X-X-X-X#X#X$X#XXX'.(.+.A 3 % X                                                                     ",
"                                                                    X . X : W (.'.XXoX&X&X&X&X&X&X&X&X&X&X&X&X&X&X&X&X&X=X=X&X&X-X-X-X&X&X&X&X&X&X&X&X-X=X-X-X-X-X-XoXoXoXoXoX X X|.!.~.V.V.V.b.v.v.....o.o.o.o.o.n.n.n.R.R.Q._._.XXXXXX#XoX#X-X-X-X-X#XoXoX#XoXoX X!.~.Q.Y.U.U.r.r... . . . . . . .y.y.r.r.e.e.0._ U F p , $ . +                     X d.DXHXGXGXZXlXM ) M.M.M.M.M.M.C.C.C.C.| | | | | { ( ~ pXLXKXPXPXLXk.* +                       . . . # , s I `  ...v.v.U.U.U... .` ` ` `  . .r.r.U.Y.Y.W.!.|.|.oXoXoXoX&X&X-X-X-X-X-X-X#X#XXXXX_._.Q.Q.m.v.v.U.U.o.o.........U.T.T.R.R.Q.!.!. XoXoXoX#X#X-X-X-X-X&X&X&X&X&X&X&X&X&X&X&X-X-X-X-X-X-X-X-X-X-X-X&X&X&X&X&X&X=X&X&X&X&X&X&X-X&X$X'.(.#.A 2 ; +                                                                       ",
"                                                                      X . X , W (.OX&X&X=X&X&X&X&X&X&X&X=X=X=X:X:X:X:X;X:X:X:X:X-X&X=X=X=X=X=X=X:X:X=X=X-X-X-X&XoXoX X|.|.|.|.!.~.W.m.m.v.v.v...o.o.o.o.| o.n././.).)._._.XXXXoX#X#X#X-X-X-X-X-X-X-X#X#XoX@X@XXX|.B.Q.V.b.v...r.r. . . . . . .e.e.y.y.y... . .` _ I Z i < + X                       X * k.FXgXgXgXMX:.( } M.M.C.| *.) ! N N ! ! ) } *.} [ ( V uXHXKXKXKXPXDX=.w                         . . O # 1 a Y _  .{ v.v.U.U... .` ` _ ` ` `  . .....v.Y.W.~.!.|.|.oXoXoX-X-X-X-X&X&X=X=X&X&X&X$X+XXXXX_._.Q.Q.R.T.n.n.v.........o.o.y.U.R.N.Q.!._.XXXXXXoX#X#X#X-X&X&X&X&X&X=X=X=X=X=X:X;X;X=X=X=X=X=X=X=X=X=X=X=X=X=X=X;X=X=X=X=X=X=X&X$X%X(.u.E 1 ; +                                                                         ",
"                                                                        + . X 2 +.}.$X&X:X=X=X=X:X:X=X=X=X=X:X:X:X:X:X:X:X:X:X:X:X:X:X:X:X=X=X=X=X:X-X-X-XoXoX|.|.!.~.N.N.N.N.m.m.M.| o.X.X.[ X.o.o.T.T.R./.)._._.XX@X#X#X#X-X-X-X-X-X-X-X-X-X-X#X#X#XoXXX|.!.!.Q.b.b.v.v..... . . . .` ] ]  .e.r.y.y.y. . .` _ J C i 1 +                         @ X q f.iXsXsXfXNXV / { M.| | ) P n z z 5 z z n P ! ) ) ! N 1.SXKXKXKXKXDXd.=.                            . . X $ y Z '  ...v.U.U.v...` ` _ ` ` ` `  . . .....v.b.W.~.!.|.|.oXoX#XoX-X-X&X=X=X*X*X&X&X$X$X$X$X#X#X@X_._.).Q.R.m.n.o...X. .X.t.o.n.n.R.R.R.Q.Q._.[.XXXXoX#X-X-X&X&X;X:X:X:X=X:X:X:X:X:X:X:X:X:X:X:X:X:X:X:X:X:X:X:X:X:X:X=X=X-X$X{.i.E 1 & X                                                                           ",
"                                                                          X . + 9 %.OX=XqXqXqXqXqXqX:X:X:X:X:X:X:XqXqXqXqXqX:XqX:X:X:X:X:X:X:X&X&X-XoXoX|.|.!.!.N.m.m.n.| | | o.[ [ } } X.X.| n.n./.).)._.XXXXXXXXoX#X-X-X-X-X-X-X-X-X-X-X#X#X#XoX@X@XXX!.~.Q.W.b.v.v......... . . .` ` ` `  .r.r.y.y.r. .` _ I C 6 @ @                         @ + =.k.bXNXMXSXFXjXN [ { | *.! N z 5 5 4 4 4 4 5 n N ! ( K N ~ mXKXKXKXKXHXf.=.                                . . + < C _  ...v.U.U... .` _ _ ` `  . . . . .....v.v.Y.Q.~.!.|.XXXXoX#X#X&X&X&X*X&X&X&X$X&X-X#X$X$X$X#X$XXXXX_._.).R.n.n.| o. .......o.o.U.T.T.R./.).!._.XXXXoX#X#X-X-X;X:X=X:X:X:X:X:X:X:X:X:X8X8XrXrXrXrXqXqX:X:X:X:X:X:X:X;X$X(.W 1 # .                                                                             ",
"                                                                            . X : ( _.=XqXqXqXqXqXqXqXqXqXqXqXqXqXrXrXrXrXqXqX:X:X:X:X:X:X;X#XoXXXXX!.~.N.N.m.n.n.M.| ..} } X.X.[ [ } | n.m.Z.)._._.XXXXXXoXoXoX#X#X-X-X-X-X-X-X-X-X-XoX#X#X#XoXXXXX|.~.Q.Y.Y.v.v...{ ............ .` ` ` ] e.r.y.y.y.r. .` K Z 6 +                             X h nXDXLXLXLXLXDX>.Q [ } ) N n z 5 5 5 5 5 5 5 5 5 z m N m b V aXJXKXKXKXLXk.=.                                  . . + 6 J ` ..v.U.v... .` _ _ `  .r..... . . . .{ ..v.b.m.W.!.!.XXXXoX#X#X$X$X$X$X$X$X-X-X-X$X$X$X$X$X$X+XoXXXXXXX_.).).m.n.n.n.o.....o.o.o.y.y.T.T.n.R.R.Q.)._._.XXXX#X-X-X;X:X:X:X:XqXqXrXrXrXrXrXrXrXrXrXrXrXrXrXrXrX:X:X;X$X(.E & X X                                                                             ",
"                                                                            . X > ) _.:XqXqXqXqXqXwXqXqXqXqXrXrXrXrXrXqXqXqX:X:X&X-X#XoXoXXX_.S.N.m.m.v.M...o.o.o...X.X.X.o.o.o.n.n.Z.Z.).'._.XXXXXXoX+X+X#X#X#X#X#X-X#X#X#X#X#X#X#XoXoXoXoXXXXX!.!.Q.W.Y.v.v.....{  .....v.Y.Y.T. .` ` ` e.e.y.y.y.y... .` J 7 @ @                             X ;.NXHXJXJXJXJXDX~ Q / ! M n z z 5 5 5 5 5 5 5 5 5 5 n n c c b <.HXKXKXKXLXnXh                                     . X , Z _  .v.v.U.U... .` _ _  .U.U.T.U..... . . .{ ..v.v.R.Q._._.XXoXoX$X+X+X+X$X#X$X$X#X#X$X$X$X$X+X+XoXoXoXXXXXXX_._.).).).R.R.n.o.o.o.o.o.y.y.o.o.y.T.T.R.R.).)._.XXXX#X#X$X-X;X:X:X:XrXqXrXrXtXrXrXtXtXtXrXrXrXrXrX8X8X;X`.Y 3 X X                                                                             ",
"                                                                            . + A Z.-XqXwXwXwXwXwXwXwXwXqXqXrXrXqXqX:X:X;X;X#XoXXX!.!.Q.Q.R.n.n.| o.o...o.o.X.X...| n.n.n.m././.).).'.'._.XXXXXXoXoX+XoX#X#X#X#X#X#X#X#XoXoX#XoX#X#XoXoXXXXX_.~.Q.m.b.v...{  . . . .{ v.R.W.~.Q.R. .` _ ` e.e.y.y.y.y. . ._ F 6 .                             + X z.FXHXJXKXJXLXNXN M Q M n z 5 5 5 5 5 5 5 5 5 z 5 5 z z x x b 1.MXKXKXIXPXnXh                                       . $ p K  ...v.v.v.r. .` _ _  .U.Y.Q.Y.R.U..... . . . .....n.m.Q._.XXXXoX+X+X+X+X+X+X+X#X#X$X+X+X+X+X+XoXoXoXoXXXXXXXXXXXXX_.[._.).).R.R.T.U.U.n.o.o.o.o.o.o.n.n.T.T.R.Q.Q.].[._.%X+X$X-X:X:XrXrXrXrXtXtXtXtXtXtXtXtXrXrXrX8X4X%.9 & X                                                                             ",
"                                                                          X X 8 %.#XwXwXwXwXwXwXtXyXyXqXqXqX:X:X;X-XoXXXXX_.!.Q.m.m.n.n.o.o.o.X.X.X...o.o.n.n.n.n.R.).).)._.'._._._.XXXXXXXXoXoX+XoXoXoXoXoXoXoXoXoXoXoXoXoXoXoX#X@X@X@XXX_.Q.R.m.v.{  .[  . . ...v.m.Q.!.!.!.~.R...` _ ` e.r.y.y.y.y. . ._ C , .                             + X z.DXJXJXKXJXLXmXN M m n z 5 5 5 5 5 5 z z z 5 z 5 5 5 z z z n -.sXgXgXgXmXh.h                                       . $ 7 K ` ..U.U.U.y.r.` _ _ ` U.W.Q.Q.Q.Q.R.U...X. .`  . ...o.n.R.)._.XXXXOXOXXXOX+X+X+X+XoX+X+X+XOXOXOXOXOXOXXXOXOXXXXXXXXX@XXX_._._.).).).)./.R.n.n.n.o.o...o.....y.y.U.T.^././.)._._.%X$X;X;X,XrXrXyXyXtXtXtXtXtXtXtXtXrX8X'.O.3 X X                                                                           ",
"                                                                        X X 8 $.oXwXwXwXwXwXwXwXeXrX:X:X;X-X#XXX_._.Q.m.m.m.n.o.o.o.o.o.X.o.o.o.o.o.n.n.Z.Z.).).)._._._.XXXXXXXXXXXXXXXXXXXXoXoXoXXXXXXXXXXXXXoXoXoXoXoXXXXXXXXX@X@X_.~.Q.R.n.v... . .` / / [ ..n.Q.~.!.!.!.!.!.R...` _ ` e.y.y.y.y.y. .` U C @ .                             + X ;.DXJXJXKXJXJXmXN m n z z 5 5 5 5 5 5 z z z z z 5 5 5 5 5 z v V uXsXsXsXpXf.q                                       . $ 6 J `  .r.U.U.y.y. .` _ ` ..R.Q.!.!.!.Q.Q.R.n... .` ` `  .....n.m.B._.XXXXXXXXOX+X+X+X+X+XOXOXOXOXOXOXOXOXXXOXOXXXXXXXXXXXXXXX@X@X_._._._._.).).)./.m.T.T.n......... . .X.y.y.o.n.T./.R.).[.@X$X-X;X;X,XrXyXtXtXtXtXtXtXrX6X(.R 1 X +                                                                         ",
"                                                                      + X 8 @.XXqXwXwXwXqX:X:X;X;X$X%X_._.).N.m.n.M.| ..| | ..X.X.o.o.o.o.n.T.T.R.R.).).).'._._.XXXXXXXXXXXXXXXXXXXXXXXXXXXXXXXXXXXXXXXXXXXXXXXXXXXXXXXXXXXXXXXX_._.Q.R.R.v.{  .` ` ` ` `  .v.m.Q.!.!.!.!.!.!.Q.R. .` _ ] t.y.y.y.y.y.e.` K p + X                               . h NXLXPXIXPXHXzXN m n z z 5 z z 5 5 B V -.V B B 5 5 5 5 5 z x V iXMXZXSXNXg.q ;.                                    . # < Z ^  .r.U.U.y.y.e.` ^ ` ..m.Q.!.!.!.!.!.~.Q.R... .` ` ` `  . ...n.m.)._.XXXXXXOXOXOX+X+XOXOXOXOXOXXXXXXXXXXXXXXXOX'._._._._.XXXXXX'.'.'._._._.'.'.'.).)./.R.T.U.y.o.o.X.X.X.X.X.X.X.o.o.y.^./.).'._.%X$X$X7X,X,X8XrXrXrX8X3XC.R + . @                                                                       ",
"                                                                    + X 8 @.D.>XwXwXqX:X-XoXXX_.).)./.n.M.| | [ [ [ [ [ X.o.o.o.| o.n.n.C./.).).)._._._._.XXXXXXXXXXXXXXXXXXXXXXXXXXXXXXXXXXXXXXXXXXXXXXXXXXXXXXXXXXXXXXXXXX_.!.).R.m.v... ./ ` _ _ `  ...n.W.!.|.|.XX|._.!.!.Q.R. .` _ 0.t.y.y.y.y.r. .` J 6 +                                 X q k.DXPXPXLXMXpXm m n n z z z z 5 v f.h.h.h.g.,.B 5 5 z z z z V iXSXJXJXSXk.w ;.                                    . + < Z ^  .r.r.y.y.y.r.` ^ ` ..R.Q.!.!.!.!.!.!.~.).R.n.X.` _ _ ` `  . ...n.R.)._._.XXXXOXXXoXOXOXOXOXOXOXXXXXXXXXXXXX'.'._._._._._._.XX'.'.'._.'._.'.OX_._._._.).).)./.R.^.n.o.o.X.X.X.X.] ] ] X.X.o.y.T.R./.)._.{.%X$X7X8XrX8X8X'.$.8 # .                                                                       ",
"                                                                    X : P S.L.>X>X-X#XXXQ.m.n.o.o.X.X.X.} [ [ [ [ [ [ } | M.n.n.m././.).).)._._.XXXXXXXXXXXXXXXXOXXXXXXXXXXXXXXXXXXXXXXXXXXXXXXXXXXXXXXXXXXXXXOXXXOXXXXX_._.Q.R.n.n... .` / _ _ _ `  .v.R.Q.!.|.|.|.XXXX_.!.!.Q.R. .` _ ` t.y.y.y.y. . ._ J 6 +                                 3 & =.iXsXgXgXMXzXc m m n z z z z 5 B h.iXdXlXlXiXf.B 5 z z z z B uXSXJXJXHXlXh ;.                                    . + < Z ^ ] e.r.r.y.y.y.` ^ ` ..R.Q.!.!.B.!.!.!._._._.Q.m...` ` _ _ _ `  .....n.R.).'._.XXXXXXOXOXOXOXOXOXOXXXOXOXOXOX'.'.'.'._._._._._._.XXXX'.'.'.OXOXOXOXOXOX'._._._.).).)./.n.n.o.o.X.X.` ) ) ( ' ] ] ] X.X.o.y.^./.].'.$X;X7X3X}.+.2 X X                                                                     ",
"                                                                  : X 9 C.G.L.oXXX_.m.n.X.` ` ' ( ( ) ) ) ) / [ [ { { M.m.m.B.B.S.D._._._.XXXXXXXXXXOXXXOXXXXXXXOXXXXXXXXXXXXXXXXXXXXXXXXXXXOXOXOXOXOXOXOXOXOXXXXXXXXX_.Q.R.n.n... .` ` ^ _ _ `  ...n.N.!.!.!.|.|.|.XXXX_._._.~.R.X.` _ ` t.y.y.y.r. .` _ J 6 +                                 w & ;.bXfXgXSXSXzXn m m n n x n z n V ,.d.d.f.f.g.g.-.5 z z z v B g.hXGXGXHXbXh ;.                                    . + < c U ] e.r.r.r.r.r.] ^ ` ..m.Q.!.!.!.!.!.!._._._._.).R.n. .` _ _ _ _ `  . .o.T./.)._._.XXXXOXOXOXOXOXOXOXOXOXOXOXOXOX'.'.'.'._._._._.XX_._.'.XXXXOXOXOXOXOXOXOXOXOX@XOX'.'.).)./.n.o.o.X.] ) ^ ' U T ' ' ' ' ' ' ] ] o.^.].{.%X{.i.R , X                                                                     ",
"                                                                  X @ S Z.B.B.m.n.[ / ^ K K K K K K K ^ ( ) [ { M.M.M.m.S.D.G.G.G.G.D.G.XXOXOXOXXXXXOXOXXXXXOXOXXXXXXXXXXXXXXXXXXXXXXXXXOXXXOXOXOXOXOXOXOXOXXXXX_._._.Q.m.v... ./ / _ _ ^ _ ` X.M.m.!._.!.!._.XXXX|.|.XX_._._._.R.o.` _ ` t.r.r.y.e. .` _ F 6 X +                                 & z.DXSXHXJXLXzXc m M m n x n z n -.;.B w w w B =.B 5 z z z b V j.hXGXJXJXnXh ;.                                    . + < c K `  .e.r.r.r. .` _ ` ..m.Q.!.B.B.!.!.!.!._._._._._.).R.o.` _ _ _ ` ` `  ...n.m.).)._._.OXOXOXOXOXOXOX%XOXOXOXOXOXOXOXXXXX_.XX'.'.XXXX'._.XXXXOXOXOXOXOXOXOX+X+X+XOXOXOXOXOX'.)./.T.o.X.X.( ' U K K K I J J J J K U _ X.o.m.m.o.' s @ @                                                                   ",
"                                                                X X + v } { { ) ( m c c Z Z Z Z Z J J K ^ / [ { n.m.V.B.G.G.K.K.K.G.G.G.G.OXOXOXOXOXXXOXXXOXOXOXXXXXXXXXXXXXXXXXXXXXXXXXOXOXOXOXOXOXOXOXOXOX_._.).Q.m.n... .` ` ^ ^ K ^ ^ ` ..n.Q.!.!.XX|.XXXXXXXX|.|.XX_._._._.Q...` _ _ w.e.r.e.e.] _ U F 6 + X                                 & z.DXHXGXJXLXuXc m Q m n x z z v B 0 > , : : : 3 4 5 z z x c V g.SXKXIXPXNXh ;.                                    . + < c K _ ]  .r.r. .` ` _  .n.R.Q.!.B.B.!.!.!.!._._._._._._._.R.n.X./ ^ _ _ _ _ `  ...n.m.).)._._.OXOXOXOXOX$XOXOXOXOXOXOXOXOXXXXXXXOXOXOXXX'.'.XXXXOXOXOXOXOXOX+X+X+X+X+X+X+X+X5XOXOX'./.n.| X.] ' U J J J Z Z Z Z Z Z Z J K ^ / [ [ ^ x , X                                                                   ",
"                                                                . O # > c m J c x 7 7 9 9 9 9 s p p x v Z J ( ) | C.Z.S.G.G.K.K.J.J.K.H.H.H.OX+XOXOXOXOXOXOXOXOXXXXXXXOXOXOXXXXXXXOXOXOXOXOX+XOXOXOXOXOXOX_._.).R.n.n... .` _ _ K K K ^  .v.R.!._.XX|.|.|.|.XXXXXXXXXXXX_._._._.Q.n. ._ _ 9.e.e.e.e.` ' U Z < + .                                 3 d.DXHXGXGXLXjXJ K / M c x x z 5 0 4 8 w 2 @ @ : > 5 z x x n V j.sXNXgXbXh.w h                                     . + , x K _ ` 0.e.e.` ` _ ` X.n.Q.!.!.D._._._.!.!.!.!._._.!.!._._.).R.o.[ / _ _ _ _ ` `  ...n./.).'._.OXOXOXOX%XOXOXOXOXOXOXOXOXOXOXXXXXXXOXOXOXOXXXOXOXOXOXOXOXOX$X$X+X+X+X+X+X+X+X+XOX`.(.%.X.] ' U F Z Z C C C x x x x x x Z J M K M m 7 , X                                                                   ",
"                                                                . . O @ : < < : , , , , , , , , , , : : < < 9 v b P @.%.A.'.+X*XJ.J.K.H.H.H.J.+XOXOXOXOXOXOXOXOXOXXXOXOXOXOX+X+X+X+X+X+X+X+X+X+XOXOXOXOX_.).Q.R.n... .` ^ ^ U K K ^ ` ..R.Q.!.!._.|.XX_._.|.XXXXXXXXXXXX_._._._.).R...` ' ' 9.0.0.9._ U I C < + .                                 3 ;.FXHXGXGXLX<.K ^ / M c c x z 5 B -.,.,.;.B w > > 5 5 x c x b 1.iXiXpXiX,.q h                                     . + , x J U _ 9.0.` _ _ _ ` ..R.Q.!.!._._._._.!.!.!._._._.!.!.!._._.D.N.n.X./ ^ ^ _ _ _ _ `  .T./.).'._.OXOXOXOXOX%XOX+X+X+XOX+X+XOXOXOXOXOXOXOXOXOXOXOXOXOXOXOXOX$X$X+X$X$X;X*X+X+X+X{.}.i.( T L C 7 6 6 6 6 4 4 4 4 4 4 4 7 7 x x c x 5 4 $ X                                                                   ",
"                                                                  . . X X X X X X X + X X X X X X X X X X + + @ @ : 8 A L $.(.OXJ.J.J.H.H.OXOXH.+X+XOXOXOXOXOXOXOXOXOXOXOX+X+X$X$X$X$X+X+X+X+X+XOXOXXX_.).R.T...X. .` _ ^ K K ^ ^ X.n.N.!.!._._._._._._._.XXXXXX|.XX|._._._._._._.R.n.` ' U ' 9.9._ _ U F C < # .                                 3 h NXHXZXZXDX>.K ^ ^ M m c c x n -.g.h.h.h.g.,.=.4 5 z x x x b <.NXSXSXSXlXh h                                     . + < x J U _ _ _ _ _ _ _  .v.N.Q.!._.!.!.!.!._._._.!._._.XX|.XXB.D.D.D.).m.o./ / _ _ _ _ _ `  ...T.Q._._.OXOXOXOX+X+X+X+X+X+X+XOX+X+X+X+XOXOXOXOXOXOXOXOXOXOX+X+X+X$X+X$X;X6X$X+X%X}.i.W S s 6 2 < , , @ @ @ : : : : : : : > > > < < > : + X                                                                     ",
"                                                                      . . . . . . . . . . . . . . . . . . . . X X X + @ : 8 L $.A.F.H.J.H.OX+XJ.+X+X+XOXOXOXOXOXOXOX+X+X+X+X+X+X$X+X+X+X$X+XOXOXOXXX_.).R.n... .` _ _ U K K ^ ` ..m.B.!.!.!.!.!.XXXXXXXXXX|.XXXXXXXX|._._._._._._.).R.X._ U U U U U U I F C < % .                                 @ q lXFXAXAXMX:.^ ^ K m m c c c n -.g.iXiXiXiXk.,.v 5 z x x c b :.mXHXJXLXbXh q                                   . . + < C J U U U U U _ _ ` ..m.N.B.D._.!.!.!.!._._._._._._.|.|.!.D.|.|.|.!.).m.n...` _ _ _ _ _ ` ` ..n.Q.)._.OXOXOX+X+X+X+X+X+X+X+X+X+X+X+X$X+X+XOXOXOXOX+X+X+X+X+X+X+X5X+X*X3XOX`.i.S < , @ @ + + + X X . . . . . . . . . . . . X X + +                                                                           ",
"                                                                                                          . . . . . X X X X @ 9 W &.F.F.H.H.H.+X+X+X+X+XOXOXOXOX+X+X+X+X+X+X+X+X+X+X+X+X+X+XOXOX_._.).R.n... .` _ _ U U U _ X.n.Q.Q.!.|.|.|.|.|.|.|.|.|.|.|.|.|.|.|.|._._._._._._.).R.o.` K I U U I I I F D i - .                                 3 + ;.bXFXSXNX~ ^ K M m m m c c L V ,.iXiXiXpXiXg.b z x c c Z L V 1.pXSXHXbXw & w                                 . X @ 6 C J U U U U U U _  .U.m.B.B.B.!.!.!.!.!.!._.!.!._.!.XX|.!.D.G.XX|.!.!._.Q.R... .^ ^ _ _ _ _ ` ..T.R.)._.'.OXOX+X+X+X+X+X+X+X+X+X+X+X5X3X$X$X+X+X+X+X+X+X+X+X+X+X+XOXOX`.%.W 8 @ X # X X X X . .                                                                                                             ",
"                                                                                                              . . . . . . . X + : v O.A.F.F.H.OX+X+X+X+X+X+X+X+X+X+X+X+X+X+X+X+X+X+X+X+X+X+XOX_._.).R.n... ._ _ U U U _ ` ..m.W.!.!.|.|.|.|.|.|.|.!.!.!.|.|.|.|.|.|.|._._._._._._.).Q.T. .U I I I I I F F D i e .                                   . q h.FXSXNX~ ^ K K M M m m m L V V <.lXbXzXlX,.b x c c Z Z L W :.aXhXHXbXw + @                                 . X , 6 C J I I U U U U ` ..R.Q.B.D.B._.!.!.!.!._._.!.!.!.!.!.XXXXG.XXXXXX_._._.!.!.Q.n. ./ ^ _ _ _ ` `  .n.R.)._.OXOX+X+X+X+X+X+X+X+X+X+X+X3X3X+X3X3X+X+X+X+X+X+X+X+XOX{.`.(.O.9 : + X . . . . . . .                                                                                                               ",
"                                                                                                                          . . . X + 3 R $.A.F.OXOX+XJ.J.J.+X+X+X+X+X+X+X+X+X+X+X+X$X$X$X+XOXXX_.).R.o. .` _ U U U U _  .o.m.Q.!.!.|.|.|.|.!.!.|.|.!.!.!._._.XX_._._._._._._._._._._.Q.R.y.` U I I F F F D D p r + .                                 + * f.FXSXmX~ K K K K M m m m N N b V <.xXlXjX-.v x c Z Z J P +.:.aXgXHXiXw 1 +                                 . # < p Z F J I I U U _  .U.R.Q.S.D.D.!.!._._.!.!.!._._.XXXX!.!.B.G.G.G._._._._.!.!.!.Q.m.| ` ^ _ _ _ ` ` X.o.R.).'.OXOX+X+X+X+X+X3X+X+X+X+X3X3X3X+X3X3X3X+X+X+X+X+XOX'.(.+.E : + X . . .                                                                                                                           ",
"                                                                                                                              . . . X @ 8 O.P.F.OXJ.J.J.J.J.+X+X+X+X+X*X*X+X$X+X+X+X+X$XOXXX_.).R.y. ._ _ U I K K (  .n.R.Q.!.!.!.!.!.!.!.!.!.!.|.|.!._._._.XXXX_._._._._._._._._._._.R.T.X.U I I I F F F D p r - .                                   & d.NXHXmX~ K K K K K K m m M M N N V :.<.:.b x Z Z Z J K ( @.>.uXfXSXuXB w +                               + X $ 6 C Z F J J I U ^ ` o.R.Q.Q.D.D._._.!.XXG.|.!.!._._.XXG.!.!.B.B.G.G._._._._.!.|.!._._.Q.n.X.` ^ _ _ ` ` X.o.R.).'.OXOX+X+X+X3X3X+X+X+X+X+X+X+X+X3X3X3X3X+X+X+XOX`.(.W > @ X . . X                                                                                                                               ",
"                                                                                                                                  . . . X 8 #.A.F.H.J.J.J.+X+X+X+X+X+X*X*X+X+X+X$X$X+XOXXX_.).T.o.] _ U U U K ^ ` o.R.Q.!.!.!.!.!.!.!.!.!.!.!.!.|.|.XX_._._._.XX_._._._.XXXX_._._.!.!.Q.R.U.] U I I F F F D D i , .                                   + ;.bXHXmX! K K K ^ K K M M M M K K J P P L c Z C Z Z J K ] i.1XI.fXMX<.N R : @                             . + , 7 C F F J I U K ` ..T.R.).S.D._.!.XXXXXXXXXX!.!._._.XXG.|.!.XXXXXXG.!.!._._.!.|.!._._._.Q.R.o.[ / _ _ _ `  .o.n.).'.OXOX+X+X3X3X3X3X3X7X*X*X3X3X3X3X3X3X+X+XOX`.<XW > + X . X                                                                                                                                   ",
"                                                                                                                                    . . . # 8 #.A.F.H.J.J.J.+X+X+X+X+X+X*X+X+X+X$X+XOXXX'./.n.o.] _ U I U U _  .n.N.!.!.!.!.!.!._.!.!.!.!.!.!.!.|.!.XX_._._._.XX_._._.XXXXXXXX_._._.!.!.W.R.y._ U I F F F D D p r X .                                 & ;.dXHXcXN K K ^ ^ K K K M m K K U I I I Z C C C Z J J ^ ] (.<XI.mXmX~ ) O.E >                             . $ 6 C Z F F J J K _  .U.R.N.S.D.D._.XXXXXXXXXXXX|.!.!._._.G.|.|.|.XXXXG.!.!._._.!.|._._._._._.).R.n. .` _ _ _ _ ` X.n.).'.OXOX5X3X3X3X3X6X6X6X6X3X3X3X3X6X+X+XOX`.<XW , # X .                                                                                                                                       ",
"                                                                                                                                        . . X 2 W (.H.J.+X+X+X+X+X+X+X*X*X+X+X+XOXOX_.)./.n.o.` ' U U U U ` o.n.N.!.!.!._._._._.!.!.!.|.|.|.!.!.XXXXXX!.!._._.XXXXXXXXXXXXXXXXXXXX_._._.!.Q.R. ._ I I F F F D C p , .                               @ g =.uXMXcX! K K ^ ^ K K K K m J J Z Z Z Z x 7 7 C Z J U _ X.(.<X1XmXkX&.%.%.W > 5                           X < p C Z Z F J J ^ ` o.R.Q.S._._._.XXXXXXXXXXXXXX|.|.|.!.|.|.!.!.!.G.G.G.!.!._.!.!.|._._._._._.!.).Q.n...` _ _ _ _ ` X.n.Z.).OX+X$X3X3X6X6X6X6X6X6X6X6X+X+X+XOX'.<XW 2 X . .                                                                                                                                         ",
"                                                                                                                                          . . X 8 $.F.J.J.+X+X+X+X+X+X+X*X+X+X+XOX'.).Z.n.o.` ' K K K _  ...R.N.B.!.!.!.!._._._._._.!.|.|.|._._._._._.!.!._._.XXXXXXXXXXXXXXXXXXXX_._._._.Q.Q.U. ._ I F F F F F D r X                             X + g V 1.cXvX! K K ^ ^ K K K K m Z v 9 v v 9 8 6 7 x Z J U _ y.(.<X2XvXP.C.C.^.@.v >                         X , i p C Z Z F J U ` o.T.Q.!._._._.XXXXXXXXXXXXXXXX|.|.|.|.|.|.!.|.!.|.G.G.!.D.D.!.!.!.D.D.D._._.!._.).).R.o.` _ _ U _ `  .| m.).OX$X5X3X7X6X6X6X6X6X6X6X+X+X+XOX<XW 2 & . .                                                                                                                                           ",
"                                                                                                                                          X . X @ W A.H.J.J.+X+X+X+X+X+X+X+X+XOX'.).Z.| X.` ^ K K K ( X.n.m.Q.!.B.!.!.!.!._._._._._._.!.|.|.|._.!.XX_._._._._.XXXXXXXXXXXXXXXXXXXXXXXXXXXX_.!.Q.T. ._ I I F F D C p , .                           X @ E V ~ kXvX! K ^ ^ ^ ^ ^ K M c v -.,.f.f.l.=.< 6 C Z J U ] ^.}.2X9X9XA.C./.^.i.W >                       + + r p C C Z F J U ` o.T.Q.Q._.XXXXXXXXXXXXXXXXXXXXXXXXXXXXXXXXXX|.|.XXXXXXXX_._.XXXX_._._._._._.D.D._._.).)./.n. .` _ ^ ^ ` [ o.n.].{.%X$X3X6X6X6X6X6X6X6X6X+X+XOX<XA + X .                                                                                                                                             ",
"                                                                                                                                            X . + b A.H.J.+X*X+X+X+X+X+X+XOXOX_.).Z.| X.` ^ K K ^ ) { n.m.S._.D.B._._.!.!._._._._._._.!.|.|.|._.!.XX_._._._._.XXXXXXXXXXXXXXXXXXXXXXXXXXXXXX_.~.Q.T. .U I I F D D p d @ .                         X @ E N ! P.vX! ^ ^ ^ ^ ^ ^ K m c v ,.k.h.k.k.d.< 7 C c J ' y.].}.}.2X2XC.n.^.^.(.u.9 >                     + , p p C C Z J K ` o.T.Q._._._.XXXXXXXXXXXXXXXXXXXXXXXXXXXX_._.XX|.|.XXXXXXXXXX_.XXXX_._._._._._.D.D._._._._.)./.n.X./ ^ ^ ^ ^ ` X.n.).'.%X$X7X6X6X6X6X6X6X6X*X+XOX>.8 X .                                                                                                                                               ",
"                                                                                                                                              + + B A.H.J.J.*X*X+X+X+X+XOX'.F.Z.C.| ) ' K K K ^ ` | m.N.S.D.D.D.D.D._.D.D.!._.!.D.D._._._._._._._._._.XXXXXXXXXXXXXXXXXXXXXXXXXXXXXXXXXXXXXX_.!._.Q.n. .U I F F C D p < @ .                       X 1 R P ! P.vX! ^ ^ ^ ^ ^ ^ ^ K c v f.k.h.h.k.s.< p C Z K _ T.].].}.}./.T.T.^.(.i.( z @                   + , i p C C Z J K ` o.T.Q._._._._.XXXXXXXXXXXXXXXXXXXXXXXXXXXXXXXXXXXXXXXXXXXXXXXX_.XX_._._._._._._._._._._._.D._.).Z.n.| ) ^ K ^ ^ / X.n.S.'.$X$X3X6X6X6X6X3X3X*X+XOX>.2 X                                                                                                                                                 ",
"                                                                                                                                              > & B C.H.J.J.*X*X+X+X+XOX'.F.Z.C.X.) ^ K K K ^ / | m.N.B.D.D.D.D.D.D.D.D.D._._.!.B.B._._._._._._._._.XXXXXXXXXXXXXXXXXXXXXXXXXXXXXXXXXXXX@X@X@X@X_._.).T.X.U I F Z C p i < + .                     X 1 S M ! A.9X/ ^ ^ ^ ^ ^ ^ / K b B f.h.h.h.k.=.< p C Z K ] ].].].}.}./.T.y.i.X.^ ^ P 9 @               X , i p C C F J K ` y.T.Q._._._._._.XXXXXXXXXXXXXXXXXXXXXXXXXXXXXXXXXXXXXXXXXXXXXXXX_.XX_._._._._._._._._._._._._._.).S.Z.^.o. .^ ^ ^ ^ / } n./.'.%X$X7X6X6X6X3X3X*X+XOX&.> X                                                                                                                                                 ",
"                                                                                                                                                & B &.G.J.*X*X*X+X+XH.F.S.A.| } ( K K K M / | M.m.N.B.B.B.B.B.B.D.B.D.D._._._._._._.XX_._._._._.XXXXXXXXXXXXXXXXXX!.!.!._.!._._._.XX@XXX_._._.[.[._._.).T.X.^ J F Z C p 6 $ + .                   X 1 x M ! A.2X/ ^ ^ ^ ^ / / / / P b f.k.h.h.k.=.< s C F U X.].}.[._.].^.y.t.] ( ) X.t.W 4             + 1 < 7 x Z Z J ^ / ..T.R.)._._._._._._._._._._._.!.!.!.~._.!.!.XXXXXXXXXXXXXXXXXXXXXXXXXXXXXXXXXXXX_._._._._._._._._._.S.S.Z.Z.n.[ / / ^ / ) } o.n.).OX5X3X6X6X3X3X*X*XOX&.> X                                                                                                                                                 ",
"                                                                                                                                                & B &.G.J.J.J.J.+XH.F.A.C.} ! ! M K K ^ [ M.m.N.N.B.B.B.B.B.B.B.B.B.D.D.D.D.D._._._.XXXXXXXXXXXXXXXXXXXXXXXXXXXXB.m.m.n.m.m.R.Q.Q.Q._.[.[.[.[.[.[.[._._.Q.T.X.U J J F C 7 < $ .                   X 2 x M Q | (./ ^ ^ ^ / / / [ / ( R ,.k.h.k.k.=.< s A Z K i.}.}.[.)./.T.t.] K ) y.E.^.i.W 4         X % 2 7 x c J J ^ ` ..m.Q.)._._._._._.).).).Q.Q.Q.R.R.m.m.R.R.Q.!.XXXXXXXXXXXXXXXXXXXXXXXXXX_.XXXXXXXXXX_._._._.D.D.D.D.D.D.D.S.S.m.n.| [ / ^ ^ ^ / } | Z.'.OX3X3X3X3X*X*XOX&.8 X                                                                                                                                                 ",
"                                                                                                                                                & B &.G.J.J.J.J.F.S.C.} ) ^ M m m M ^ { M.N.B.B.B.B.B.B.D.D.D.D.D.D.D.D.D.D.G.XXXXXXXXXXXXXXXXXXXXXXXXXXXXXXXX_.N.n.| } X.o.o.y.U.T.T.R.R.).[.[.[.[.[.[.[.).T.X._ K J Z D 6 , # .                 X 8 n M Q [ y./ ^ ^ ^ / / / [ / ( b =.l.l.l.;.w r s p Z ' ^.}.}.].].R.t.' ^ ` y.].]./.^.i.x 4       X 1 6 7 x J K ^ ` o.m.N.).'.'._._.Q.Q.R.R.n.n.n.o.....o.o.n.R.Q.!.XXoXoXoXXXXXXXXXXXXXXXXXXXXXXXXXXXXXXXXX_._._.D.D.D.D.D.D.D.B.B.N.m.M.{ [ Q M m m m M ! | S.'.5X5X3X*XJ.5X>.w X                                                                                                                                                 ",
"                                                                                                                                                & B &.G.K.J.H.F.A.} ! M m c c n n M [ M.M.V.V.V.V.N.S.D.D.D.D.D.D.D.D.D.D.D.D.G.G.XXXXXXXXXXXXXXXXoX+X+X+XoXXX_.S.n.} ) ) ` ` ` ` ` `  .X.y.T.Q.].[.[.[.[.[.].T.t._ K J C p < $ +                 @ z ! } { { ../ ^ ^ ^ / / [ [ [ ( b 2 g =.B w 8 6 9 7 b ) /.}.}.].].^.' K w.^.E.].].)./.^.6.>     + t 2 7 x J K ^ ] o.R.B.B.).'.).).R.T.U.o...X.X. . . .X.X.o.n.m.Q.!.XXoXoXoXoXoXXXXXXXXXXXXXXXXXXXXXXXXXXXXXXX_._.D._.D.S.S.S.S.B.B.N.m.m.M.} ^ c 5 4 5 5 n M ! C.`.'.+X+XJ.0X>.w X                                                                                                                                                 ",
"                                                                                                                                              5 & v *.D.G.F.Z.| ! m n z 5 5 7 4 5 m ^ } } } } } *.*.%.C.A.Z.S.S.D.D.D.D.D.D.D.G.G.G.G.XXG.XXXXoX$X$X$X$X$X$X+XXXF.Z.n.} / ` _ ' U U U ' ' _ ` X.y.^.].].].].)./.T.X._ K Z C 7 < 1 X             @ 5 ( n.m.R.n.X.^ ^ / / / / [ { ..) S > : w B -.-.R b b ( ^.}.[.}.].].i.K ] (.].].].].).Q.T.u.i + + @ 2 9 x J K ( ] | m.Q.Q.Q.).).n.n...X. .` ` ` ` ` `  .X.o.o.n.m.Q._.XXoX$X#X#XoXoX+XoXoXXXXXXXXXXXXXXXXXXXXXXXD.D.D.).)././.(.C.C.%.} } ) ) ( m 9 > @ @ > > 4 z n ( A.`.OXH.H.P.g X                                                                                                                                                 ",
"                                                                                                                                              : * v *.A.Z.| P n 5 4 > : : : @ @ : > 4 4 4 4 4 4 4 4 4 0 n P @.%.A.S.D.D.D.D.D.G.G.G.G.XXoXoXoXoX$X*X*X*X*X*X*X$X+XXXS.Z.n.| X.` ( ^ K K K K J K _ ` t.y././.).).R.T.t.` K J C 6 r + .         . @ L { m.N.Q.T. .^ ^ / / / [  .v.n.X.W 0 B f.g.iXjX<.~ @.^.}.}.[.}.].].i.K i.].].].].).).R.n.' H r r 6 s C J K ^ [ o.n.Z.S.).).R.n.X. . .` ` ` ` ` `  . .X.o.n.R.).)._.XXoX+X$X$X$X$X-X-X$X$X$X+XoXoXXXXXXXXXXXXXB.D.S.A.^.i.@.( L c x 7 5 4 4 > > > @ + X X + + @ @ > 4 b ) A.H.F.P.E X                                                                                                                                                 ",
"                                                                                                                                              X 3 v #.%.) b 7 > : @ + X X X X X X X X X X X X X X X X + + : > 9 L $.C.Z.S.D.D.G.G.G.J.+X+X+X*X*X*X*X*X*X7X*X*X*X*X$XOXD.D.S.m.n.| X.] ( ( _ K J J J U _ X.y.^./.E.T.y.X.` K Z C i , + . X . . X 8 ^ v.N.N.Q.T. .^ ^ / / /  .{ v.b.n.@.V ,.lXsXsXpX<.*.^.}.}.}.}.}.].(.] _ (.].].].].).R.n.X.T Z p p C C J K ^ / X.M.n.n.C.n.| X./ ) ` ` ` ` ` `  . .o.o.T./.).).'.OXOX+X$X$X$X&X-X;X;X;X;X*X$X$X$X$X$XoXoXoXXXD.S.C.@.L A 6 < , @ @ @ + + + X X X X . . . . . X X X X + : 4 O.A.F.A.W @ X                                                                                                                                               ",
"                                                                                                                                            . X @ 9 +.+.b 4 : + + X . . . . . . . . . . . . . . . . X . . X X + @ 8 R #.&.Z.F.G.K.K.+X+X+X*X*X*X*X*X*X7X7X7X*X*X*X*X+X+XG.XXF.S.Z.n.n.o.o.X.] ^ K J J J K ^ ] t.y.^.y.t.] ' K Z p i , # X . o y W [ m.N.N.Q.n./ ^ ^ / / [  ...b.b.n.$.~ uXbXsXpXpXI.*./.}.}.'.}.[.[.(.' ] ].].].].)./.T.o.( J Z C C Z Z J ^ / [ o.n.n.o.o.X./ ) ( ( ` `  . .X.o.o.n.m.R.).)._.OXOX$X$X;X;X;X;X;X;X;X;X;X;X;X*X*X*X$X+X+XK.G.'.A.#.b 4 : $ X X X X X . . . . . . . . . . . . . . . . . X X @ 5 ! C.C.W : X                                                                                                                                               ",
"                                                                                                                                            . X @ 0 R S 6 : + X . .                               . . . . X   . . + @ 3 R >.<XF.G.K.oX+X+X*X*X*X*X*X*X*X*X*X7X*X*X*X*XJ.J.XXG.D.D.S.m.m.m.n.o.X._ U U F F Z F I T u.u.w.w.' T I Z p < , $ # t s ( M.m.m.N.R.o./ ^ ^ / / [ { v.b.b.n.&.1.kXmXsXpXzXI.&./.}.}.'.{.}.}.(.' t.].].).).).R.o.) K Z Z Z Z F J K ^ / / ] ] ] ' ^ ^ ^ ( _ ) /  .o.n.n.m.m.N.B._._.OXOX+X$X;X;X;X*X;X*X*X;X;X;X;X7X;X*X*X*X*X+XG.D.`.i.S : @ X X @   . . . .                                 . . X X @ 5 P ( v @ X                                                                                                                                               ",
"                                                                                                                                            . X @ 8 9 8 : @ + . .                                                 . . X # 2 W >.F.G.oX*X*X*X*X*X*X7X7X*X*X*X7X*X*X*X*X+XJ.G.G.G.D.D.S.S.m.n.M.o.X.^ U F A p d i 6 p D Y T T T U I D 6 r , 1 2 Y X.M.m.m.m.R...^ ^ ^ / [  ...v.b.b.n.&.1.zXmXsXzXzX<.*./.}.}.}.'.'.[.^.^ t.].].).).).R.X.K I F F F F F J J K ^ U L Z Z C Z Z I K _ `  .o.n.n.m.m.N.B.B.D.G.H.+X+X*X*X;X*X7X*X;X7X;X*X7X7X7X*X*X*X*X$XOX{.<XW 8 @ X . X                                                 . . X X @ > 4 4 @ X .                                                                                                                                             ",
"                                                                                                                                            . X @ : < < $ X .                                                         . . X % E >.`.OX+X*X*X*X*X*X7X7X7X*X*X*X*X*X*X&X+XJ.G.G.G.D.D.B.N.m.n.o.X.] ^ I C p i , $ $ , , < 9 A L I I Z p i 2 < 6 Y X.M.m.m.N.m.[ ^ ^ ^ / [ { v.Y.W.V.n.&.1.pXmXcXcXkX>.$./.}.{.'.'.'.[.^.( t.].).).)./.T.` K J F Z Z Z F F F F A p 6 < , , < 6 p Z J K _  .| n.m.V.N.B.B.D.G.G.+X+X*X*X*X*X*X*X;X:X8X7X7X7X*X*X7X;X$XOX{.i.A 1 X .                                                         . . . X + @ @ @ X .                                                                                                                                             ",
"                                                                                                                                          . . X + @ 1 @ X .                                                               . . # 8 +.<XOX*X*X*X*X7X7X*X*X7X*X*X6X*X*X$X+XoXG.G.XXD.S.Z.m.n.o.] ' T Z C 7 6 < , + + + + + @ > 4 7 C D C 6 6 2 i J [ M.m.m.N.m.[ ^ ^ ^ / [ { v.R.V.V.n.&.1.kXcXcXzXjX#.$.(.}.'.'.'.'._.^.( i.].).).).R.o.^ J J Z Z Z Z C C p i < , @ + + + $ , < < 6 7 Z J ^ [ o.n.m.N.B.D.D.G.OX+X$X+X*X*X*X*X:X:X8X7X7X7X*X*X*X;X4X}.@.9 + X                                                                 . . X X + # O .                                                                                                                                             ",
"                                                                                                                                          . . O X # + X                                                                       . X > +.(.OX*X*X6X7X7X*X*X*X*X*X*X+X+X+XXXXXD.D.S.m.n.%.$.) P b C 7 4 < < , , @ + X X X X X + @ : < 6 7 6 6 6 i c / M.m.m.m.n./ ^ ^ / / [ ..v.N.V.V.| ! :.<.zXjX<.:.W @.(.]._._.'.'.'.^.( $./.).).).n. .^ J Z Z Z C C 7 6 < , @ + X X X X + # $ $ , , < 6 x Z K ( X.n.m.N.S.F._.OXOX+X+X*X7X7X;X7X7X7X7X7X*X*X+XOX(.O.8 + @                                                                     . . X X O O . .                                                                                                                                           ",
"                                                                                                                                          . . . O X X                                                                           X X < O.F.+X*X6X*X7X7X*X*X*X+X+X+X+XOX_.F.S.Z.C.o.X.( L v 7 6 < < , $ $ + + X X X X X X X X X + @ : 6 6 6 i i Z / ..n.m.m.n./ ^ ^ / /  ...b.N.V.b.X.P R V -.B v 9 v +.(.)._.'.'.'.{./.( X./.).)./.n.` K J c Z C C 6 < , $ # X X X o o o o o # # # + + @ , < 4 x L ( X.%.Z.S.S.F._.OX+X+X6X7X6X7X7X7X7X*X*X+XOXA.P 4 +                                                                             . X . O . .                                                                                                                                           ",
"                                                                                                                                          . . . . X                                                                                 X 8 %.OX+X*X*X*X*X*X*X*X+XOXOX_.'.S.A.%.$.] ' J x 6 > : @ @ $ # X X X . . . . . . . . . X X + @ : < 6 6 s x ^ { n.m.m.../ Q ^ / [ { v.m.N.V.m.} n > > 4 0 -.=.9 O.(.).'.'.'.OX{./.) X./.).).m.n.` K J Z C C 6 , @ + X X . . . . . . . . . X X X X X X + + , < i S P X.C.Z.S.S.D.G.OX+X3X3X7X7X7X7X;X*XOXF.*.5 +                                                                                 . . . .                                                                                                                                             ",
"                                                                                                                                              .                                                                                     + @ P S.+X*X*X*X*X*X+X+XOXOXF.S.Z.C.$.@.P S p 6 < @ + + + X X . . . . . . . . . . . . . . . X + @ < < 6 6 x ^ { v.m.m.{ Q Q ^ / [ { v.m.N.V.m.} N R =.;.,.lXlX-.#./._._.'.'.OX%X(.X.X./.).Z.m.| ` K J Z x 7 > @ + X . . . . . . . . . . . . . . . . . X X X + $ < 9 L ( X.| m.N.F.D.OX+X+X3X3X7X6X*X+XOXA.b 4                                                                                       .                                                                                                                                               ",
"                                                                                                                                                                                                                                      + v C.J.+X*X+X+X+XOXH.F.S.Z.A.%.@.P S 7 2 , @ + + X . . .                               . . X + , , < 6 x Q { v.m.n.[ Q Q / / [ ..v.m.N.N.N.C.>.l.jXiXbXbXbXjX&.)._._.'.'.OXOX}.$.X././.Z.n.o.) K J x 7 6 : + X . .                               . . . X X X + 1 < 9 S ( } M.Z.S.F.OXOX+X+X3X+X+X+X'.$.5                                                                                                                                                                                                                                         ",
"                                                                                                                                                                                                                                      > 8 &.F.J.J.+XH.H.'.F.S.A.C.%.O.L 9 6 : @ + + X . .                                       . . X @ , < 4 x Q { v.m.n.[ Q Q / [ [ ..m.m.N.N.N.Z.P.uXiXbXsXsXsXuXP.)._.[.'.OXOXOX`.^.%.C.Z.Z.n.X.( K m x 7 < @ X . .                                     . . . X O X + 1 2 v N ) | C.Z.S.D.H.OXOX+X+XOX`.( >                                                                                                                                                                                                                                         ",
"                                                                                                                                                                                                                                      4 2 O.S.G.G.H.OX'.S.A.C.%.@.L v < , @ + X . . .                                             . . + @ < 6 x Q { M.m.| / Q ^ / [ [ v.m.N.N.N.N.Z.P.I.aXsXsXsXbXuXA.)._._.'.OX%X'.'./.Z.Z.m.m.n.} ^ K Z x 6 : + X .                                           . . . . X O + 1 8 S P @.&.A.S.F.F.H.OX+XH.Z.L >                                                                                                                                                                                                                                         ",
"                                                                                                                                                                                                                                      4 1 W A.D.G.G.'.`.A.%.) P S 7 : @ + + . . .                                                   . + @ , 6 z M [ v.n.X.Q ^ ^ / [ { v.m.N.N.N.N.Z.P.I.aXsXsXsXbXuXA.)._._.'.OX%X'._.).).m.m.n.o./ K J Z 7 < @ X X                                                   . . . X X @ 2 v b O.$.%.A.S.F.OXH.F.A.S >                                                                                                                                                                                                                                         ",
"                                                                                                                                                                                                                                      5 % B &.S.D.F.`.C.$.( L x 6 , + # . .                                                           . + : < 7 m Q [ o.[ ^ ^ ^ / [ { v.m.N.B.B.Q.Z.P.uXpXsXsXsXzXI.Z._._._._._.OX'._.).).m./.n.X.( K J Z 7 > @ X .                                                         . . X + 1 9 b W O.&.C.Z.F.F.F.%.R >                                                                                                                                                                                                                                         ",
"                                                                                                                                                                                                                                      > ; B $.Z.S.Z.C.) L v 8 < $ + . .                                                               . # @ : < x m ^ / ^ ^ ^ ^ / [ ..n.m.N.B.B.Q.Z.P.pXsXsXsXbXkX<X(._._._._._.OX'._.)./.n.o.X.) K J J Z 7 : + X                                                             . . O # & 2 9 B W #.%.C.Z.A.&.v >                                                                                                                                                                                                                                         ",
"                                                                                                                                                                                                                                      4 ; 9 O.%.%.X.( Z s 2 y % X . .                                                                 . . + + $ 6 x J ^ ^ ^ ^ ^ / [ ..m.m.N.B.N.S.A.P.pXpXbXbXuXI.(./.).'._._._._.XX_.).n.o.X.] K K J J Z 7 , + X                                                                 . . + & 2 8 E R +.$.&.| *.v >                                                                                                                                                                                                                                         ",
"                                                                                                                                                                                                                                      : = 2 b ( P S A < y f X .                                                                         . . . + r 7 Z K K K ^ ^ / [ ..m.N.N.N.N.S.A.P.kXpXpXuX>.&.^.Z.).'._._._._.XX_.).M.} ) ^ K m J J c 7 , + X                                                                     . . + 1 2 s R P *.} ( 9 >                                                                                                                                                                                                                                         ",
"                                                                                                                                                                                                                                      + = , 9 S A a y $ . .                                                                                   . r p c K K K ^ ^ / [ v.m.m.N.Q.N.Q.A.P.>.>.>.>.&.%.%.n.S._._._._._._._.m.| / ^ K K K J J Z 7 , $ X                                                                           . + 2 9 b N ( N 0 :                                                                                                                                                                                                                                         ",
"                                                                                                                                                                                                                                      @ % @ < i a 1 X .                                                                                       . y x J K K K ^ ^ / { v.m.m.N.N.Q.R.C.&.#.#.#.) ( P ( | m._._._._._._._.m.| / ^ K K K J J Z 7 , %                                                                                 . + 4 v c z > @                                                                                                                                                                                                                                         ",
"                                                                                                                                                                                                                                        X # @ + X                                                                                             X i x J K K K ^ / [ { v.m.N.Q.Q.W.T.t.( K m N m x z m ) m.)._._._.'._.'.m.| / ( K K m m m c 7 , X                                                                                     X X > > @ +                                                                                                                                                                                                                                         ",
"                                                                                                                                                                                                                                        . .                                                                                                 X : 4 c J K K K ^ / [ { n.m.N.Q.Q.R.y.' J m n V V n n x ^ | N.'.'._._._.'.m.| / ^ K K J J c x 7 , X                                                                                                                                                                                                                                                                                                                                         ",
"                                                                                                                                                                                                                                                                                                                                            X < 5 m K K K K ^ / [ ..v.m.m.N.R.^.t.J n V <.uXiXlX,.v K | /.)._._._._._.R.| / ^ K J J c x 7 < $ X                                                                                                                                                                                                                                                                                                                                         ",
"                                                                                                                                                                                                                                                                                                                                            + < z m K K K K ^ / [ v.v.m.m.Q.R.o.' c V g.iXsXsXsXl.0 b [ m.).S._._._._.Q.M./ ^ K J Z x 6 , $ X X                                                                                                                                                                                                                                                                                                                                         ",
"                                                                                                                                                                                                                                                                                                                                          X + < x m K K K ^ ^ /  .v.m.m.m.N.R.o.' N 1.iXdXdXdXiXg.7 Z / n.).)._.'.'._.m.M./ ^ K J x 6 , $ + X X                                                                                                                                                                                                                                                                                                                                         ",
"                                                                                                                                                                                                                                                                                                                                          X + < x m K K K ^ ^ / [ v.m.m.N.Q.R.X.( V g.iXdXdXdXiXf.7 Z / n.Q.)._.'.'._.R.| / ^ K Z p i , # # X .                                                                                                                                                                                                                                                                                                                                         ",
"                                                                                                                                                                                                                                                                                                                                          X $ < n m K K ^ ^ ^  ...v.m.N.N.Q.R.X.( ~ g.aXiXsXbXiX,.b J / n.Q.Q._.'.'._.m.../ ^ K Z 7 r , $ # o X                                                                                                                                                                                                                                                                                                                                         ",
"                                                                                                                                                                                                                                                                                                                                          X $ > n m K K ^ ^ /  ...v.m.m.Q.R.m.X.( ~ 1.1.j.iXiX<.V K K / n.Q.Q._.'.'.).m.../ ^ J C p r , $ # X X                                                                                                                                                                                                                                                                                                                                         ",
"                                                                                                                                                                                                                                                                                                                                          X @ > x m K ^ ^ ^ / [ { v.m.m.Q.m.n.X.( a.a.:.~ ~ ! ^ ^ ^ ^ [ n.m.B._._._._.m.../ K J C p < , $ + X .                                                                                                                                                                                                                                                                                                                                         ",
"                                                                                                                                                                                                                                                                                                                                          X + > z m K ^ ^ ^ / [ ..m.m.m.Q.m.n.` ( ' +.#.@.) ( / ^ ^ / [ n.N.B._.'._._.R.../ K Z p i < , $ + X .                                                                                                                                                                                                                                                                                                                                         ",
"                                                                                                                                                                                                                                                                                                                                            X : 7 m K ^ ^ / / X...m.Q.N.Q.m.n.` _ ' ' _ ^ ^ / _ ^ ` / [ v.N.B._._._.~.R.../ K Z p i < , $ # X .                                                                                                                                                                                                                                                                                                                                         ",
"                                                                                                                                                                                                                                                                                                                                            . : 7 m K ^ ^ / / X...m.Q.N.).m.n./ ( _ _ _ ^ ^ ^ ^ _ _ / [ n.N.B._._._.~.R.../ J C p i < , $ # X .                                                                                                                                                                                                                                                                                                                                         ",
"                                                                                                                                                                                                                                                                                                                                            + @ 7 Z K ^ ^ / / [ ..m.Q.Q.Q.m.n./ ) ^ ` _ ^ ^ ^ ^ K K ^ [ n.N.B._._._.Q.m.../ J C p i < , $ # X .                                                                                                                                                                                                                                                                                                                                         ",
"                                                                                                                                                                                                                                                                                                                                              X 4 c M ^ ^ / / X.| R.Q.Q.Q.m.n.[ / ` _ _ _ K K K J J K [ n.N.B._._._.Q.m.../ J C i i < < $ # . .                                                                                                                                                                                                                                                                                                                                         ",
"                                                                                                                                                                                                                                                                                                                                              . 6 c M ^ / / [ X.| R.Q.Q.N.Q.m.[ / ` ` _ K K m N N c K [ m.N.B._._._.Q.m.{ ^ J C 6 6 < < $ + X                                                                                                                                                                                                                                                                                                                                           ",
"                                                                                                                                                                                                                                                                                                                                              . < x M ^ / / [ X.o.R.Q.Q.N.Q.m...[  ._ K M N 1.xX1Xc m [ b.N.B._._._.Q.m.{ ^ J C 6 < < < $ X                                                                                                                                                                                                                                                                                                                                             ",
"                                                                                                                                                                                                                                                                                                                                              . , 5 M ^ / [ [ ..n.R.Q.Q.Q.Q.R.n...[ ^ m N 1.pXzX<.b M [ n.N.B._._.).Q.m.{ ^ Z 7 6 6 < < , X                                                                                                                                                                                                                                                                                                                                             ",
"                                                                                                                                                                                                                                                                                                                                              . 1 5 M ^ / [ [ ..n.R.Q.Q.Q.W.R.m.../ Q N I.cXmXcXjXP / [ n.N.B._._.).Q.m.{ ^ Z 7 6 6 6 < , + +                                                                                                                                                                                                                                                                                                                                           ",
"                                                                                                                                                                                                                                                                                                                                              . @ 5 K ^ / [ [ ..n.R.Q.Q.Q.W.R.m.| ) ! <.zXfXBXcXkX} / [ n.N.Q._.).Q.N.v.[ K Z p 6 6 7 7 6 , @                                                                                                                                                                                                                                                                                                                                           ",
"                                                                                                                                                                                                                                                                                                                                              . + 7 K / / [ [ ..n.R.Q.Q.Q.W.Q.m.o.) O.zXcXBXBXcXvX| [ { v.R.B._.).Q.N.M.[ K C 7 6 6 C Z C 6 @                                                                                                                                                                                                                                                                                                                                           ",
"                                                                                                                                                                                                                                                                                                                                              . + 7 M / [ [ [ ..n.R.Q.Q.Q.N.m.m.X.K N zXfXpXfXmXvXC.[ { v.m.Q.).).Q.N.v.[ K x 7 6 7 J T J 7 : X                                                                                                                                                                                                                                                                                                                                         ",
"                                                                                                                                                                                                                                                                                                                                              . + 7 K ` [ [ [ ..n.R.R.Q.).N.m.n.X.K n :.zXcXfXmXvXC.[ { v.m.Q.).).N.m.v.[ K x 6 6 A Y ' P v r +                                                                                                                                                                                                                                                                                                                                         ",
"                                                                                                                                                                                                                                                                                                                                              . + 4 K  .[ [ [ X.n.R.Q.Q.N.N.m.n.X.P c n :.cXNXmXvX| [ { v.R.Q.).Q.N.m.v.[ J x 6 6 A T ' P Z i +                                                                                                                                                                                                                                                                                                                                         ",
"                                                                                                                                                                                                                                                                                                                                              . X 6 K  ...[ [ X.n.R.Q.Q.Q.N.m.n.X.J S S N I.vXkXP.[ [ { v.R.Q.).Q.N.m.v./ J 7 6 6 A T ' ' J p , @                                                                                                                                                                                                                                                                                                                                       ",
"                                                                                                                                                                                                                                                                                                                                              . X 6 M [ { { { ..n.Q.Q.Q.Q.R.R.n.] I Y Y T ( ) } / / /  .v.R.Q.).Q.N.m.v./ J 7 6 6 A T ' ' I C i @                                                                                                                                                                                                                                                                                                                                       ",
"                                                                                                                                                                                                                                                                                                                                              . X > M [ { { { { n.Q.Q.Q.Q.R.R.o.] K I I U ' _ / / / / [ n.R.Q.).Q.N.m.v./ Z 7 6 6 A T +.T I Z s :                                                                                                                                                                                                                                                                                                                                       ",
"                                                                                                                                                                                                                                                                                                                                              . X : c ) [ { [ { n.R.Q.Q.Q.R.n.o.] U J J J K K ^ ^ / [  .n.R.Q.).Q.N.m...^ Z 6 6 6 C Y T Y J C 7 < @                                                                                                                                                                                                                                                                                                                                     ",
"                                                                                                                                                                                                                                                                                                                                              . O @ x K / [ [ { n.R.Q.Q.R.R.T.o.` T L O.O.O.P U _ ` [ X.n.R.Q.).Q.N.m...^ C 6 6 6 x J Y J Z x 7 6 + X                                                                                                                                                                                                                                                                                                                                   ",
"                                                                                                                                                                                                                                                                                                                                              . . X : z ^ ..{ { M.R.Q.Q.R.R.T.X.` U W 1XuXkX>.J U ` /  .n.R.Q.Q.B.N.m...K C 6 6 6 7 D Z Z C C 7 6 $ . .                                                                                                                                                                                                                                                                                                                                 ",
"                                                                                                                                                                                                                                                                                                                                              . O + @ 5 M ....{ M.R.Q.R.m.R.T.X.` T #.jXpXNXkXP K _ / X.n.R.Q.Q.Q.m.n. .K x 6 6 4 7 C D D C C 7 6 $ X                                                                                                                                                                                                                                                                                                                                   ",
"                                                                                                                                                                                                                                                                                                                                              . X + : 5 K ......n.R.Q.Q.m.R.n.X.] P #.I.aXmXkXO.K _ / X.n.R.Q.Q.Q.m.n.` J p 6 6 6 7 p C C D C C 6 , t                                                                                                                                                                                                                                                                                                                                   ",
"                                                                                                                                                                                                                                                                                                                                            . X X + : x ( ..v...n.R.Q.R.m.R.n.X.] P :.I.aXfXkXO.K _ ` X.n.R.Q.Q.Q.m.o.] J 7 6 6 6 p p D D C C C 7 < $                                                                                                                                                                                                                                                                                                                                   ",
"                                                                                                                                                                                                                                                                                                                                            . X + : 7 M [ ....v.v.R.R.R.m.R.n.X.( P 1.aXpXmXkX) ^ / ` X.n.R.R.Q.R.n.o.^ Z 7 6 6 6 7 7 p C C C C 7 2 $ X                                                                                                                                                                                                                                                                                                                                 ",
"                                                                                                                                                                                                                                                                                                                                          . . X @ < c ^ X.....v.v.b.R.R.m.R.n.X.( ~ <.mXmXcXI./ / `  .{ v.m.m.m.m.n.X.K C p 6 6 p p p p C C C C 7 6 1 X                                                                                                                                                                                                                                                                                                                                 ",
"                                                                                                                                                                                                                                                                                                                                          . O + > x K / ........v.v.R.m.m.m.n.X.' O.<.mXmXI.! / `  . .{ n.m.m.m.n.n.] K C i 6 7 C C C C C Z Z C x 6 < #                                                                                                                                                                                                                                                                                                                                 ",
"                                                                                                                                                                                                                                                                                                                                        . X X @ 7 m (  ...........n.T.m.m.m.M.X._ P >.1X>.! / /  .[  .{ n.n.m.m.n.o.] I C i 6 p Z I I F Z Z Z C x 7 < $                                                                                                                                                                                                                                                                                                                                 ",
"                                                                                                                                                                                                                                                                                                                                        . X + : z K /  .X.....[ / o.U.R.m.R.n. .' T P P ^  . . . .[ [ ..n.n.m.m.n.o.] I C i 6 p I I I I F Z Z C x 7 < @ +                                                                                                                                                                                                                                                                                                                               ",
"                                                                                                                                                                                                                                                                                                                                        . X @ 6 c ^ `  .X.o. .^ ^ X.n.T.n.T.n. ._ T P K K _ ` `  .[ [ ..n.n.m.m.n.o.] K C i i D I I I I F Z Z C x 7 < @ @                                                                                                                                                                                                                                                                                                                               ",
"                                                                                                                                                                                                                                                                                                                                      . X + : 5 J ^ ` ] X.o. .K K ] o.n.T.T.o.X.' I N V P P ! ^ ) / [ ..v.n.n.n.n.o.` K C i i D I I I I F Z Z C x 7 < $ $                                                                                                                                                                                                                                                                                                                               ",
"                                                                                                                                                                                                                                                                                                                                      . O + < x K ' ` ] X.X.` K J ( X.n.T.T.n.X.] P :.<.,.<.<.<.>.) [ ..n.n.n.n.n.o.` K C 6 i D I I I I F Z Z C C 7 6 1 +                                                                                                                                                                                                                                                                                                                               ",
"                                                                                                                                                                                                                                                                                                                                      . O @ 6 c K _ _ X.o.X.' J Z K X.n.T.T.n.X.] O.<.uXiXiXiXzXjX*.[ ..n.U.U.n.n.o.] K C i 6 C I U I F Z Z Z C C p 6 , X X                                                                                                                                                                                                                                                                                                                             ",
"                                                                                                                                                                                                                                                                                                                                      . X , 7 J U ' ] X.X./ K J Z J ` ..T.T.o.X.] O.<.iXiXiXdXsXuX*.[ ..n.U.U.n.| X.] K C 6 6 Z I I I F Z Z Z C C p 6 e # X                                                                                                                                                                                                                                                                                                                             ",
"                                                                                                                                                                                                                                                                                                                                    X . # , p J T ' ] ] X.` K Z Z J ^ ..o.T.o.X.) ~ <.iXiXdXsXsXkX*.[ ......o.o.| X.] K C 6 7 Z I I I F F Z Z C C p 6 r - X                                                                                                                                                                                                                                                                                                                             ",
"                                                                                                                                                                                                                                                                                                                                    . O # < C I ' ' ] ] X.' K Z x J ^  .o.y.o.X.) ~ <.iXdXdXsXsXjX)  .......o.o.o.X.] K Z 7 7 Z I I I F Z Z Z C C p i r - X                                                                                                                                                                                                                                                                                                                             ",
"                                                                                                                                                                                                                                                                                                                                    . O + 2 A Y ' q.' ] ] ' I c x Z K `  .o.o.o.} ~ uXdXdXsXsXzX1X)  .........o.o.X.` K Z p 7 F I J J F Z Z Z C C C p r - X                                                                                                                                                                                                                                                                                                                             ",
"                                                                                                                                                                                                                                                                                                                                    . O @ a S Y T q.q.] ' ' I c x Z K `  .....o.} ~ <.sXsXbXzXjX#.)  .........o.X.X.` ^ F p 7 F I J J F Z Z Z Z C C p r - #                                                                                                                                                                                                                                                                                                                             ",
"                                                                                                                                                                                                                                                                                                                                  . . X 1 s R W T q.q.' ' ' K c x Z K _  .....o.X.~ <.zXzXzXjX#.( `  . .......X.X.X.` ' F p 7 F I J F F Z Z Z Z C C p r - #                                                                                                                                                                                                                                                                                                                             ",
"                                                                                                                                                                                                                                                                                                                                  . . # y E 5.5.6.2.q.' ' ' T Z x c K ' `  ...o.X.) >.jXjX<.O.( ` `  .X. . . .X.X.X.` ' F p p F I J F F Z Z Z Z Z C p r - #                                                                                                                                                                                                                                                                                                                             ",
"                                                                                                                                                                                                                                                                                                                                  . O % y E 5.5.6.6.q.q.' T T Z x c J K _ X.X.o. .` ) ( ( ' ] ] ] `  . . . . . . .X.` ' F 7 7 Z J J J F F Z Z Z Z C p r - o                                                                                                                                                                                                                                                                                                                             ",
"                                                                                                                                                                                                                                                                                                                                  . . # y E 4.5.6.6.q.q.T T T Z x c J K _ t.X.X. .` ' ^ _ _ _ _ _ ^ `  . . . . . .X.` ' F p x Z J J J F Z Z Z Z C C p r - o                                                                                                                                                                                                                                                                                                                             ",
"                                                                                                                                                                                                                                                                                                                                  . . # y g 4.5.6.6.6.q.q.T T J c x J K ' ] t.e. .] ' ' K K K K K _ ) /  . . . . .X.` ' J C C F J J F Z Z Z C C C D p r - o                                                                                                                                                                                                                                                                                                                             ",
"                                                                                                                                                                                                                                                                                                                                    . X 1 d 4.5.5.6.6.6.q.T T I Z x Z I ' ] t. . .` ' +.:.:.W W P ^ ) / /  . . . .X.` ' J C p C F F Z Z C C D D D p i r - o                                                                                                                                                                                                                                                                                                                             ",
"                                                                                                                                                                                                                                                                                                                                    . X $ a E 5.5.5.7.7.q.2.U I Z x Z J U ]  .e. .` O.<.zXlXl.,.W ^ ) ` [  . . . .] ` _ J C p C Z Z Z C C D D p p p i r - o                                                                                                                                                                                                                                                                                                                             ",
"                                                                                                                                                                                                                                                                                                                                    . X % a H 4.5.5.7.7.6.2.T I Z x c J K ' ] e. .` O.1XbXbXiX<.#.^ ) `  . . . . .` ` _ J C p C C Z Z C C D p p p i r e - o X                                                                                                                                                                                                                                                                                                                           ",
"                                                                                                                                                                                                                                                                                                                                    . O % y d 4.4.5.7.7.7.6.2.I D x x Z K _ `  . .] ( >.lXiXg.,.#.^ ) `  . . . .` ` ` _ J C 7 C C Z Z Z C D p p p i r e - o X                                                                                                                                                                                                                                                                                                                           ",
"                                                                                                                                                                                                                                                                                                                                      X # 1 a H 4.5.7.7.7.6.2.Y D C x Z J ' `  . .] ( #.jXjXh.<.:.( ) `  . . . .` ` ` ' J C p C Z Z Z Z Z D D p p i i r - o X                                                                                                                                                                                                                                                                                                                           ",
"                                                                                                                                                                                                                                                                                                                                      . # $ y d 4.4.5.7.7.6.3.G Z C x Z J ' ` `  .] ] +.:.<.l.l.a.#.)  . . . . .] ] ] ' J C p C Z F F Z F Z D D p p i r e o X                                                                                                                                                                                                                                                                                                                           ",
"                                                                                                                                                                                                                                                                                                                                      . X $ , a H 4.5.5.7.6.3.Y Z C C C J U _ `  .X.] ] ( #.>.>.$.) / `  . . .X.] ) ] ' I C C C Z F F Z F F C C C p i i e # X                                                                                                                                                                                                                                                                                                                           ",
"                                                                                                                                                                                                                                                                                                                                        . # $ u d H 4.5.7.7.3.Y Z C C C F U ' ` ` X.] ` _ U _ _ _ ` ` ` ` ` ` ` ` ) _ ' I C C C Z F F F J J Z Z C C 7 6 < $ X .                                                                                                                                                                                                                                                                                                                         ",
"                                                                                                                                                                                                                                                                                                                                        . O # e a d 4.5.5.7.3.3.D D p x Z I U _ ] X.] ` ' U _ _ ` ` ` ` ` ` ` ` ` ` _ ' I C C C F F F J J J F F Z C 7 7 < $ # X                                                                                                                                                                                                                                                                                                                         ",
"                                                                                                                                                                                                                                                                                                                                        . . # $ u d H 8.5.5.3.3.F D p 7 Z I U _ ` 0.] ` ' U U _ _ ` ` ` ` ` ` ` ` ` _ ' I C C Z J J J J J J J J F Z C x 7 r = +                                                                                                                                                                                                                                                                                                                         ",
"                                                                                                                                                                                                                                                                                                                                          . O # t u d H 8.5.3.3.F D p 7 C I U _ ` ] ] ` _ K U K ^ ^ ` ` ` ` ` ` ` ` _ ' U Z C Z I U K K K K J J J J F Z x i e +                                                                                                                                                                                                                                                                                                                         ",
"                                                                                                                                                                                                                                                                                                                                            . X $ e u d H 8.3.3.F D p 7 C J U _ ` ] ] ` _ ^ ( O.) ) ) ` ` ` ` ` ` ` _ ' U Z C F U U U U U K K K J J J m c p e +                                                                                                                                                                                                                                                                                                                         ",
"                                                                                                                                                                                                                                                                                                                                            . . + % e a d H 8.8.D p p 7 x Z U ' 9.0.] ` ] #.>.I.1X1X$.` ` ` ` ` ] ) _ ' U Z C F U U U U U K K K K K J m c p e +                                                                                                                                                                                                                                                                                                                         ",
"                                                                                                                                                                                                                                                                                                                                              . X # $ e r d d H D p p p C Z I ' 9.9.0.] @.1XvXzXzXkX>.` ] ] ] ] ] ) _ ' U Z C F U U U U U U K K K K J J c p e +                                                                                                                                                                                                                                                                                                                         ",
"                                                                                                                                                                                                                                                                                                                                                . X # $ e u i d p p p p C Z I U 9.w.9.] @.I.zXmXpXkX>.` ` ] ] ] ] ( _ ' U Z C F U U U U U U U K K K J J c p e +                                                                                                                                                                                                                                                                                                                         ",
"                                                                                                                                                                                                                                                                                                                                                  . X # - e u d d p p p p C J U ' _ w.] @.>.zXmXzXkX>.` ` ] ] ] ] ( ( ' U C C F U U U U U U U K K K K J Z p e +                                                                                                                                                                                                                                                                                                                         ",
"                                                                                                                                                                                                                                                                                                                                                    . X % e u i d p p p p C F U ' ' ] ] ] #.I.zXzXkX&.` ` ] ] ] ] ( _ ' U C C F U U K U U U U U K K K J Z p e +                                                                                                                                                                                                                                                                                                                         ",
"                                                                                                                                                                                                                                                                                                                                                      . % e r i p p p p 7 C Z I T ' ] ` ] @.#.1XkX>.) ` ` ` ` ` ` _ ( ' I C C F U ' ' K K U U U U K K J Z p e +                                                                                                                                                                                                                                                                                                                         ",
"                                                                                                                                                                                                                                                                                                                                                    . X $ u r i p p p p 7 C Z I T ' ' ` ] ] ( @.&.} ` ` ` ` ` ` ` _ ' ' I C C F U U ^ K K U U U U K K J Z i e +                                                                                                                                                                                                                                                                                                                         ",
"                                                                                                                                                                                                                                                                                                                                                  . X , e r i d p D p p 7 C Z I U ' _ _ ] ] ' ` ` ` ` ] ` ` ` ` ` _ ^ ' I C x F U U U K K U U U U K J J C i $ +                                                                                                                                                                                                                                                                                                                         ",
"                                                                                                                                                                                                                                                                                                                                                . + y d d s d p D D p p 7 p Z I U ' _ ' ] ] ` ` ] ` ] ] ` ` ` ` ` _ ^ T I C x Z I U U K U U U U K K J F C r # +                                                                                                                                                                                                                                                                                                                         ",
"                                                                                                                                                                                                                                                                                                                                                X r p F F F G G F F C D p p C I U ' ' _ _ ] ] ` ` ` ` ` ` ` ] ] ] ] _ ' I C x Z I U U U U U U K K I I Z p < X +                                                                                                                                                                                                                                                                                                                         ",
"                                                                                                                                                                                                                                                                                                                                              . , i D I I 3.3.2.T U I Z p 7 C F U U ' _ _ ' ' ' ' ' _ ` ` ` ] ] ] ' ' T J C x Z J I K U U U K K K I J Z 6 1 X                                                                                                                                                                                                                                                                                                                           ",
"                                                                                                                                                                                                                                                                                                                                              . y s Z I U 2.2.q.q.q.U F p 7 C Z I T T ' _ ' +.u.u.#.+.) ( ` ` ] ] ' ' T J C 7 C J J J K K K K K I J Z A 6 @ X                                                                                                                                                                                                                                                                                                                           ",
"                                                                                                                                                                                                                                                                                                                                              . y p Z I U 2.' q.q.q.q.I C 7 p Z I T T ' ' ' +.a.l.l.a.a.#.] ` ] ] ' ' U J C 7 C F J J J I I I J J Z C 7 , X X                                                                                                                                                                                                                                                                                                                           ",
"                                                                                                                                                                                                                                                                                                                                              . y p Z I U T q.q.w.w.q.I C 7 7 C I T T T ' ' +.a.xXxXxXjX>.' ` ] ] ' ' T J C 7 C Z F J J J I J J F Z 7 < @ X                                                                                                                                                                                                                                                                                                                             ",
"                                                                                                                                                                                                                                                                                                                                              . u s D I U T ' q.w.w.w.U C 7 7 C I T T T T T W #.l.xXnXxX>.( ] ] ] ' ' T J C 7 C C C Z F I I J F D p 6 , + .                                                                                                                                                                                                                                                                                                                             ",
"                                                                                                                                                                                                                                                                                                                                              . y a C J I U ' 9.w.w.w.q.Z 7 7 C F T T T T T T W ,.xXnXxX:.' ' ] ] ' ' T J C 7 7 p p C D F F F D p i < $ X X                                                                                                                                                                                                                                                                                                                             ",
"                                                                                                                                                                                                                                                                                                                                              . t i A F I U ' 9.t.0.0.q.J 7 7 p Z I T T T T T W :.l.CXl.+.U _ ` ] ' ' T J C 7 7 s i s p C C C p s < , + X                                                                                                                                                                                                                                                                                                                               ",
"                                                                                                                                                                                                                                                                                                                                              . t 2 7 Z J U _ 9.t.0.] w.I 7 7 p Z I T T T T T T +.a.a.a.' ' _ 9._ _ ' T I C 6 6 6 < 2 i i i i d i < @ + X                                                                                                                                                                                                                                                                                                                               ",
"                                                                                                                                                                                                                                                                                                                                              . + , 4 C Z J U 9.0.` ` 0.T 7 7 p C J U T T ' ' ' ' ' u.' ' ' _ _ _ _ ' U I C 6 6 < < < 2 2 2 2 < < , @ X +                                                                                                                                                                                                                                                                                                                               ",
"                                                                                                                                                                                                                                                                                                                                                . + > s C J U _ 9.` ` 0.T 7 6 p C J K T U ' ' ' ' ' U U ' ' _ _ _ _ ' T I C 6 6 6 6 6 6 < < < < < , @ X X                                                                                                                                                                                                                                                                                                                               ",
"                                                                                                                                                                                                                                                                                                                                                  + + < s Z I _ _ _ ` _ Y 7 6 p C Z I T T T T ' T U ' U U ' ' _ _ _ ' T I C 7 p C D C p p p i 6 < < @ + X                                                                                                                                                                                                                                                                                                                               ",
"                                                                                                                                                                                                                                                                                                                                                      X < 7 Z J J J I I Z 7 6 6 x Z I U T T T T T T ' U U ' 9._ ' ' ' U I C p D Y 2.3.Y Y G G D p 6 , +                                                                                                                                                                                                                                                                                                                                 ",
"                                                                                                                                                                                                                                                                                                                                                      . + , 6 i s s s s 6 < < 6 x Z I K T T T T T T T U U U ' ' ' ' ' U I C p F 2.q.q.2.2.2.2.Y F p < +                                                                                                                                                                                                                                                                                                                                 ",
"                                                                                                                                                                                                                                                                                                                                                        . + + + + + + X X + 1 6 7 Z I K U T T T T W W Y J I U ' ' ' ' U I C p F 2.q.q.q.q.q.2.Y F p 2 +                                                                                                                                                                                                                                                                                                                                 ",
"                                                                                                                                                                                                                                                                                                                                                                          . + < 7 Z J I U T T T u.a.a.5.S F U ' ' ' ' T I C C F 2.2.2.2.2.2.2.I F i , +                                                                                                                                                                                                                                                                                                                                 ",
"                                                                                                                                                                                                                                                                                                                                                                            . , 4 x J I K U T T u.VXl.5.A Z U ' ' ' ' T I C C F 3.2.2.2.2.2.I I D i 1 X                                                                                                                                                                                                                                                                                                                                 ",
"                                                                                                                                                                                                                                                                                                                                                                            . @ 6 x Z I U U T T u.VXa.E p Z U ' ' ' ' T I C C F Y 2.2.2.3.Y I F C i $                                                                                                                                                                                                                                                                                                                                   ",
"                                                                                                                                                                                                                                                                                                                                                                            X X < 7 c J U U T T q.p.u.D C F U ' ' ' ' T Y C C F Y 2.2.2.Y I I F p r $                                                                                                                                                                                                                                                                                                                                   ",
"                                                                                                                                                                                                                                                                                                                                                                              . < 7 c J I U T T T 2.I Z D F U U ' ' U U I C D F I 2.2.3.Y I F C p , $                                                                                                                                                                                                                                                                                                                                   ",
"                                                                                                                                                                                                                                                                                                                                                                              . : 4 x Z I T T T T U I F F F U U U U U U I C D F I 3.3.I I F F D i $ @                                                                                                                                                                                                                                                                                                                                   ",
"                                                                                                                                                                                                                                                                                                                                                                              . + 6 7 Z I T T T ' 2.I F F F U U U U U U I C C I I 3.I F F D D i , X                                                                                                                                                                                                                                                                                                                                     ",
"                                                                                                                                                                                                                                                                                                                                                                                X < 7 Z I Y T T q.p.p.Y Z F U U U U U I I C C F I I F D D p i , X +                                                                                                                                                                                                                                                                                                                                     ",
"                                                                                                                                                                                                                                                                                                                                                                                . : 6 C F Y T T u.VXCX6.F F I T U U U I I C C F F F D p i < @ @                                                                                                                                                                                                                                                                                                                                         ",
"                                                                                                                                                                                                                                                                                                                                                                                X : 6 C F Y T T u.VXCXu.F I I T U U U U I D C F F D p < @ @                                                                                                                                                                                                                                                                                                                                             ",
"                                                                                                                                                                                                                                                                                                                                                                                @ + < C F Y T T q.2XCXp.I I I T U U U U F D D D D i : @                                                                                                                                                                                                                                                                                                                                                 ",
"                                                                                                                                                                                                                                                                                                                                                                                  X < 7 Z J I T T u.c.u.Y I I 2.U U U I F D p p i @                                                                                                                                                                                                                                                                                                                                                     ",
"                                                                                                                                                                                                                                                                                                                                                                                  . , 7 C J I T T T T Y Y I I T U U I I F p i < @                                                                                                                                                                                                                                                                                                                                                       ",
"                                                                                                                                                                                                                                                                                                                                                                                  X @ 6 x F I T T Y I Y Y I I U U U I I F p < @                                                                                                                                                                                                                                                                                                                                                         ",
"                                                                                                                                                                                                                                                                                                                                                                                    + < x Z J Y Y T Y Y I I I U U I I F D i @                                                                                                                                                                                                                                                                                                                                                           ",
"                                                                                                                                                                                                                                                                                                                                                                                    . > 7 v S Y Y Y Y Y Y I Y U U U I F p < @                                                                                                                                                                                                                                                                                                                                                           ",
"                                                                                                                                                                                                                                                                                                                                                                                    . : 9 x Z L L Y Y Y T T T T U U I F p , +                                                                                                                                                                                                                                                                                                                                                           ",
"                                                                                                                                                                                                                                                                                                                                                                                    . @ 6 x Z L L Y T 6.6.6.T T I I I F p ,                                                                                                                                                                                                                                                                                                                                                             ",
"                                                                                                                                                                                                                                                                                                                                                                                      X < 7 S L L T T q.q.6.T I U I I F p r                                                                                                                                                                                                                                                                                                                                                             ",
"                                                                                                                                                                                                                                                                                                                                                                                      . , 4 C L Y T T 6.6.T T U I I I F p r                                                                                                                                                                                                                                                                                                                                                             ",
"                                                                                                                                                                                                                                                                                                                                                                                      + @ 6 x Z L T T T T T T U U I I F p ,                                                                                                                                                                                                                                                                                                                                                             ",
"                                                                                                                                                                                                                                                                                                                                                                                        @ < 7 Z L T T Y Y T T T T I I F p ,                                                                                                                                                                                                                                                                                                                                                             ",
"                                                                                                                                                                                                                                                                                                                                                                                        X < 9 Z L Y Y Y Y Y T T T U I F p ,                                                                                                                                                                                                                                                                                                                                                             ",
"                                                                                                                                                                                                                                                                                                                                                                                        + , 8 x S L Y Y T T q.q.q.T I F p ,                                                                                                                                                                                                                                                                                                                                                             ",
"                                                                                                                                                                                                                                                                                                                                                                                          @ 6 7 Z S L Y W u.p.p.u.T J Z i :                                                                                                                                                                                                                                                                                                                                                             ",
"                                                                                                                                                                                                                                                                                                                                                                                          X 2 6 x Z S W u.p.p.p.u.T J C i :                                                                                                                                                                                                                                                                                                                                                             ",
"                                                                                                                                                                                                                                                                                                                                                                                          X @ 2 9 A S 7.p.p.p.u.q.Y F D r @                                                                                                                                                                                                                                                                                                                                                             ",
"                                                                                                                                                                                                                                                                                                                                                                                            . + 8 A Y 7.u.p.u.u.6.Y Z p < @                                                                                                                                                                                                                                                                                                                                                             ",
"                                                                                                                                                                                                                                                                                                                                                                                              > > A G 6.6.6.5.W Y G D p , +                                                                                                                                                                                                                                                                                                                                                             ",
"                                                                                                                                                                                                                                                                                                                                                                                                : g E Y Y Y G G Y G D i $ +                                                                                                                                                                                                                                                                                                                                                             ",
"                                                                                                                                                                                                                                                                                                                                                                                                  : s G Y Y Y Y Y G H r $ X                                                                                                                                                                                                                                                                                                                                                             ",
"                                                                                                                                                                                                                                                                                                                                                                                                  X a S Y Y 6.2.3.G d y # X                                                                                                                                                                                                                                                                                                                                                             ",
"                                                                                                                                                                                                                                                                                                                                                                                                  . 2 s S Y 6.6.2.Y H y t                                                                                                                                                                                                                                                                                                                                                               ",
"                                                                                                                                                                                                                                                                                                                                                                                                  + 1 8 A G 6.6.2.3.H g u                                                                                                                                                                                                                                                                                                                                                               ",
"                                                                                                                                                                                                                                                                                                                                                                                                    + 8 s G W 2.2.3.G g u                                                                                                                                                                                                                                                                                                                                                               ",
"                                                                                                                                                                                                                                                                                                                                                                                                    X 1 a A G 3.2.Y G g y                                                                                                                                                                                                                                                                                                                                                               ",
"                                                                                                                                                                                                                                                                                                                                                                                                    . @ 2 s G 3.2.Y G g r                                                                                                                                                                                                                                                                                                                                                               ",
"                                                                                                                                                                                                                                                                                                                                                                                                    . + , s G 3.3.I G E 6                                                                                                                                                                                                                                                                                                                                                               ",
"                                                                                                                                                                                                                                                                                                                                                                                                    X X 1 6 H Y Y F G k i                                                                                                                                                                                                                                                                                                                                                               ",
"                                                                                                                                                                                                                                                                                                                                                                                                      . 1 6 A G G F H k <                                                                                                                                                                                                                                                                                                                                                               ",
"                                                                                                                                                                                                                                                                                                                                                                                                      . 1 2 s H G G H k <                                                                                                                                                                                                                                                                                                                                                               ",
"                                                                                                                                                                                                                                                                                                                                                                                                      . @ < i C G G H k <                                                                                                                                                                                                                                                                                                                                                               ",
"                                                                                                                                                                                                                                                                                                                                                                                                        X , i p H H d k ,                                                                                                                                                                                                                                                                                                                                                               ",
"                                                                                                                                                                                                                                                                                                                                                                                                        . , 2 s H H d k ,                                                                                                                                                                                                                                                                                                                                                               ",
"                                                                                                                                                                                                                                                                                                                                                                                                        . 1 2 a d d d k ,                                                                                                                                                                                                                                                                                                                                                               ",
"                                                                                                                                                                                                                                                                                                                                                                                                        . + r a d d d k                                                                                                                                                                                                                                                                                                                                                                 ",
"                                                                                                                                                                                                                                                                                                                                                                                                          X , i s s a u                                                                                                                                                                                                                                                                                                                                                                 ",
"                                                                                                                                                                                                                                                                                                                                                                                                          . , i d i i u                                                                                                                                                                                                                                                                                                                                                                 ",
"                                                                                                                                                                                                                                                                                                                                                                                                          . , r i i u e                                                                                                                                                                                                                                                                                                                                                                 ",
"                                                                                                                                                                                                                                                                                                                                                                                                          X + e r u e #                                                                                                                                                                                                                                                                                                                                                                 ",
"                                                                                                                                                                                                                                                                                                                                                                                                            X $ e e - X                                                                                                                                                                                                                                                                                                                                                                 ",
"                                                                                                                                                                                                                                                                                                                                                                                                            . # # # # .                                                                                                                                                                                                                                                                                                                                                                 ",
"                                                                                                                                                                                                                                                                                                                                                                                                            . X X X O                                                                                                                                                                                                                                                                                                                                                                   ",
"                                                                                                                                                                                                                                                                                                                                                                                                            . . O O X                                                                                                                                                                                                                                                                                                                                                                   ",
"                                                                                                                                                                                                                                                                                                                                                                                                            . . . O .                                                                                                                                                                                                                                                                                                                                                                   ",
"                                                                                                                                                                                                                                                                                                                                                                                                              . . O .                                                                                                                                                                                                                                                                                                                                                                   ",
"                                                                                                                                                                                                                                                                                                                                                                                                              . . O                                                                                                                                                                                                                                                                                                                                                                     ",
"                                                                                                                                                                                                                                                                                                                                                                                                              . O .                                                                                                                                                                                                                                                                                                                                                                     ",
"                                                                                                                                                                                                                                                                                                                                                                                                              . .                                                                                                                                                                                                                                                                                                                                                                       ",
"                                                                                                                                                                                                                                                                                                                                                                                                              . .                                                                                                                                                                                                                                                                                                                                                                       ",
"                                                                                                                                                                                                                                                                                                                                                                                                              . .                                                                                                                                                                                                                                                                                                                                                                       ",
"                                                                                                                                                                                                                                                                                                                                                                                                              . .                                                                                                                                                                                                                                                                                                                                                                       ",
"                                                                                                                                                                                                                                                                                                                                                                                                              .                                                                                                                                                                                                                                                                                                                                                                         ",
"                                                                                                                                                                                                                                                                                                                                                                                                                                                                                                                                                                                                                                                                                                                                                                                        ",
"                                                                                                                                                                                                                                                                                                                                                                                                                                                                                                                                                                                                                                                                                                                                                                                        ",
"                                                                                                                                                                                                                                                                                                                                                                                                                                                                                                                                                                                                                                                                                                                                                                                        ",
"                                                                                                                                                                                                                                                                                                                                                                                                                                                                                                                                                                                                                                                                                                                                                                                        ",
"                                                                                                                                                                                                                                                                                                                                                                                                                                                                                                                                                                                                                                                                                                                                                                                        ",
"                                                                                                                                                                                                                                                                                                                                                                                                                                                                                                                                                                                                                                                                                                                                                                                        ",
"                                                                                                                                                                                                                                                                                                                                                                                                                                                                                                                                                                                                                                                                                                                                                                                        ",
"                                                                                                                                                                                                                                                                                                                                                                                                                                                                                                                                                                                                                                                                                                                                                                                        ",
"                                                                                                                                                                                                                                                                                                                                                                                                                                                                                                                                                                                                                                                                                                                                                                                        ",
"                                                                                                                                                                                                                                                                                                                                                                                                                                                                                                                                                                                                                                                                                                                                                                                        ",
"                                                                                                                                                                                                                                                                                                                                                                                                                                                                                                                                                                                                                                                                                                                                                                                        ",
"                                                                                                                                                                                                                                                                                                                                                                                                                                                                                                                                                                                                                                                                                                                                                                                        ",
"                                                                                                                                                                                                                                                                                                                                                                                                                                                                                                                                                                                                                                                                                                                                                                                        ",
"                                                                                                                                                                                                                                                                                                                                                                                                                                                                                                                                                                                                                                                                                                                                                                                        ",
"                                                                                                                                                                                                                                                                                                                                                                                                                                                                                                                                                                                                                                                                                                                                                                                        ",
"                                                                                                                                                                                                                                                                                                                                                                                                                                                                                                                                                                                                                                                                                                                                                                                        ",
"                                                                                                                                                                                                                                                                                                                                                                                                                                                                                                                                                                                                                                                                                                                                                                                        ",
"                                                                                                                                                                                                                                                                                                                                                                                                                                                                                                                                                                                                                                                                                                                                                                                        ",
"                                                                                                                                                                                                                                                                                                                                                                                                                                                                                                                                                                                                                                                                                                                                                                                        ",
"                                                                                                                                                                                                                                                                                                                                                                                                                                                                                                                                                                                                                                                                                                                                                                                        ",
"                                                                                                                                                                                                                                                                                                                                                                                                                                                                                                                                                                                                                                                                                                                                                                                        ",
"                                                                                                                                                                                                                                                                                                                                                                                                                                                                                                                                                                                                                                                                                                                                                                                        ",
"                                                                                                                                                                                                                                                                                                                                                                                                                                                                                                                                                                                                                                                                                                                                                                                        ",
"                                                                                                                                                                                                                                                                                                                                                                                                                                                                                                                                                                                                                                                                                                                                                                                        ",
"                                                                                                                                                                                                                                                                                                                                                                                                                                                                                                                                                                                                                                                                                                                                                                                        ",
"                                                                                                                                                                                                                                                                                                                                                                                                                                                                                                                                                                                                                                                                                                                                                                                        ",
"                                                                                                                                                                                                                                                                                                                                                                                                                                                                                                                                                                                                                                                                                                                                                                                        "
};
