/* XPM */
static char *_e283af14f1047f6ee56e0e5e0396c7bX0PzCIF3ohZq4ymt[] = {
/* columns rows colors chars-per-pixel */
"380 313 256 2 ",
"   c None",
".  c #020000",
"X  c #0B0102",
"o  c #0C030A",
"O  c #0D0706",
"+  c #130102",
"@  c #1B0103",
"#  c #14040A",
"$  c #1C030A",
"%  c #180B09",
"&  c #1B1307",
"*  c #190914",
"=  c #1B1314",
"-  c #230103",
";  c #2B0204",
":  c #24030B",
">  c #2C020C",
",  c #240A0D",
"<  c #2C0A0D",
"1  c #260905",
"2  c #330204",
"3  c #3D0103",
"4  c #33020C",
"5  c #3B030D",
"6  c #340A0C",
"7  c #3B0A0C",
"8  c #370A05",
"9  c #251808",
"0  c #38140A",
"q  c #240413",
"w  c #2C0412",
"e  c #2D0B13",
"r  c #2B031C",
"t  c #260817",
"y  c #330313",
"u  c #3B0313",
"i  c #340A13",
"p  c #3C0A14",
"a  c #3C041A",
"s  c #3C0B1A",
"d  c #34051A",
"f  c #271515",
"g  c #3A1217",
"h  c #37260A",
"j  c #30240F",
"k  c #2A0321",
"l  c #3A0621",
"z  c #430104",
"x  c #4B0205",
"c  c #43030C",
"v  c #4C020C",
"b  c #440B0C",
"n  c #4B0A0C",
"m  c #480B05",
"M  c #53020D",
"N  c #5B020D",
"B  c #5B0A0C",
"V  c #540708",
"C  c #46150C",
"Z  c #56150C",
"A  c #430313",
"S  c #4C0314",
"D  c #440B14",
"F  c #4C0A14",
"G  c #44051A",
"H  c #4C051A",
"J  c #440A1B",
"K  c #4B0A1A",
"L  c #540313",
"P  c #5C0313",
"I  c #530B14",
"U  c #5B0B14",
"Y  c #54031B",
"T  c #5C031B",
"R  c #540B1C",
"E  c #5B0B1C",
"W  c #481319",
"Q  c #571517",
"!  c #63030D",
"~  c #6B030D",
"^  c #66090B",
"/  c #72030E",
"(  c #77080D",
")  c #66150B",
"_  c #630313",
"`  c #6B0314",
"'  c #640A14",
"]  c #6C0A14",
"[  c #63031C",
"{  c #6C031B",
"}  c #640A1A",
"|  c #6D0A1A",
" . c #730314",
".. c #7B0415",
"X. c #740A15",
"o. c #7B0B15",
"O. c #73041A",
"+. c #7B041A",
"@. c #740A1A",
"#. c #7C0B1A",
"$. c #6B1314",
"%. c #6C131B",
"&. c #661616",
"*. c #7B1216",
"=. c #7D121B",
"-. c #751719",
";. c #761A0C",
":. c #582618",
">. c #4D2F0F",
",. c #682718",
"<. c #782817",
"1. c #793618",
"2. c #6C310E",
"3. c #4A0A22",
"4. c #5C0522",
"5. c #540B22",
"6. c #5B0B23",
"7. c #550824",
"8. c #4C1322",
"9. c #461123",
"0. c #541424",
"q. c #5C1323",
"w. c #581728",
"e. c #5D1D30",
"r. c #6C0422",
"t. c #650625",
"y. c #730523",
"u. c #7B0521",
"i. c #770824",
"p. c #661627",
"a. c #781622",
"s. c #6D1D34",
"d. c #7A2424",
"f. c #703528",
"g. c #572725",
"h. c #594316",
"j. c #654619",
"k. c #774E14",
"l. c #7A4925",
"z. c #714C29",
"x. c #7E6221",
"c. c #753644",
"v. c #77434A",
"b. c #820516",
"n. c #820C16",
"m. c #82051A",
"M. c #8B041B",
"N. c #840C1A",
"B. c #8C0D1B",
"V. c #8A0916",
"C. c #93041B",
"Z. c #9B041D",
"A. c #930D1D",
"S. c #9A0C1E",
"D. c #960814",
"F. c #85121B",
"G. c #8B121C",
"H. c #881619",
"J. c #93131D",
"K. c #9B141E",
"L. c #941A1D",
"P. c #9B1B1E",
"I. c #921B16",
"U. c #A4091E",
"Y. c #A2141E",
"T. c #A31B1E",
"R. c #AA1A1E",
"E. c #86271C",
"W. c #982119",
"Q. c #873615",
"!. c #A5211F",
"~. c #820422",
"^. c #840B21",
"/. c #8C0C22",
"(. c #890723",
"). c #940D21",
"_. c #9B0D22",
"`. c #970723",
"'. c #851222",
"]. c #8C1222",
"[. c #881A24",
"{. c #951422",
"}. c #9B1423",
"|. c #951A23",
" X c #9C1B22",
".X c #9B1429",
"XX c #9B1C2A",
"oX c #951528",
"OX c #951935",
"+X c #A40D23",
"@X c #AB0D23",
"#X c #A60823",
"$X c #B20E25",
"%X c #A31324",
"&X c #AC1224",
"*X c #A31B22",
"=X c #AB1C23",
"-X c #A4142A",
";X c #AC1628",
":X c #A91C29",
">X c #B21225",
",X c #B31B25",
"<X c #B41428",
"1X c #B31A29",
"2X c #BB1B2A",
"3X c #BA1727",
"4X c #A51B30",
"5X c #882424",
"6X c #9B2226",
"7X c #8D3429",
"8X c #A42122",
"9X c #A82128",
"0X c #B62227",
"qX c #A32431",
"wX c #C21E2A",
"eX c #C5232B",
"rX c #CB242C",
"tX c #C02127",
"yX c #884815",
"uX c #895717",
"iX c #965A19",
"pX c #934F16",
"aX c #986519",
"sX c #8F6B14",
"dX c #A4691A",
"fX c #A97818",
"gX c #AC7915",
"hX c #874826",
"jX c #974926",
"kX c #885828",
"lX c #985826",
"zX c #885734",
"xX c #975834",
"cX c #8D4933",
"vX c #A35A2D",
"bX c #886426",
"nX c #996626",
"mX c #936E2F",
"MX c #A46726",
"NX c #A96735",
"BX c #AE762A",
"VX c #A3581D",
"CX c #A1645B",
"ZX c #B7871B",
"AX c #B58C16",
"SX c #B98625",
"DX c #B1882C",
"FX c #9F8729",
"GX c #C89719",
"HX c #CE991B",
"JX c #CEA519",
"KX c #C99424",
"LX c #CE952C",
"PX c #D7A32D",
"IX c #B4864D",
"UX c #E4A19E",
/* pixels */
"                                                                                                                                                                                                                                                                                                                                                                                                                                                                                                                                                                                                                                                                                                                                                                                        ",
"                                                                                                                                                                                                                                                                                                                                                                                                                                                                                                                                                                                                                                                                                                                                                                                        ",
"                                                                                                                                                                                                                                                                                                                                                                                                                                                                                                                                                                                                                                                                                                                                                                                        ",
"                                                                                                                                                                                                                                                                                                                                                                                                                                                                                                                                                                                                                                                                                                                                                                                        ",
"                                                                                                                                                                                                                                                                                                                                                                                                                                                                                                                                                                                                                                                                                                                                                                                        ",
"                                                                                                                                                                                                                                                                                                                                                                                                                                                                                                                                                                                                                                                                                                                                                                                        ",
"                                                                                                                                                                                                                                                                                                                                                                                                                                                                                                                                                                                                                                                                                                                                                                                        ",
"                                                                                                                                                                                                                                                                                                                                                                                                                                                                                                                                                                                                                                                                                                                                                                                        ",
"                                                                                                                                                                                                                                                                                                                                                                                                                                                                                                                                                                                                                                                                                                                                                                                        ",
"                                                                                                                                                                                                                                                                                                                                                                                                                                                                                                                                                                                                                                                                                                                                                                                        ",
"                                                                                                                                                                                                                                                                                                                                                                                                                                                                                                                                                                                                                                                                                                                                                                                        ",
"                                                                                                                                                                                                                                                                                                                                                                                                                                                                                                                                                                                                                                                                                                                                                                                        ",
"                                                                                                                                                                                                                                                                                                                                                                                                                                                                                                                                                                                                                                                                                                                                                                                        ",
"                                                                                                                                                                                                                                                                                                                                                                                                                                                                                                                                                                                                                                                                                                                                                                                        ",
"                                                                                                                                                                                                                                                                                                                                                                                                                                                                                                                                                                                                                                                                                                                                                                                        ",
"                                                                                                                                                                                                                                                                                                                                                                                                                                                                                                                                                                                                                                                                                                                                                                                        ",
"                                                                                                                                                                                                                                                                                                                                                                                                                                                                                                                                                                                                                                                                                                                                                                                        ",
"                                                                                                                                                                                                                                                                                                                                                                                                                                                                                                                                                                                                                                                                                                                                                                                        ",
"                                                                                                                                                                                                                                                                                                                                                                                                                                                                                                                                                                                                                                                                                                                                                                                        ",
"                                                                                                                                                                                                                                                                                                                                                                                                                                                                                                                                                                                                                                                                                                                                                                                        ",
"                                                                                                                                                                                                                                                                                                                                                                                                                                                                                                                                                                                                                                                                                                                                                                                        ",
"                                                                                                                                                                                                                                                                                                                                                                                                                                                                                                                                                                                                                                                                                                                                                                                        ",
"                                                                                                                                                                                                                                                                                                                                                                                                                                                                                                                                                                                                                                                                                                                                                                                        ",
"                                                                                                                                                                                                                                                                                                                                                                                                                                                                                                                                                                                                                                                                                                                                                                                        ",
"                                                                                                                                                                                                                                                                                                                                                                                                                                                                                                                                                                                                                                                                                                                                                                                        ",
"                                                                                                                                                                                                                                                                                                                                                                                                                                                                                                                                                                                                                                                                                                                                                                                        ",
"                                                                                                                                                                                                                                                                                                                                                                                                                                                                                                                                                                                                                                                                                                                                                                                        ",
"                                                                                                                                                                                                                                                                                                                                                                                            2 - @ v                   ; + X                                                                                                                                                                                                                                                                                                                                                             ",
"                                                                                                                                                                                                                                                                                                                                                                                          2 ; p D 7 I I         U I 2 3 2 @ X                                                                                                                                                                                                                                                                                                                                                           ",
"                                                                                                                                                                                                                                                                                                                                                                                          - b &.%.%.%.&.&.&.&.&.| $.X.$.V - .                                                                                                                                                                                                                                                                                                                                                           ",
"                                                                                                                                                                                                                                                                                                                                                                                          ; I -.F.F.F.H.[.[.|.|.|. XL.J.*.8 X                                                                                                                                                                                                                                                                                                                                                           ",
"                                                                                                                                                                                                                                                                                                                                                                                          4 &.F.G.G.J.J.{. XXX9X9X8XXXP.G.U 1                                                                                                                                                                                                                                                                                                                                                           ",
"                                                                                                                                                                                                                                                                                                                                                                                        3 6 %.'.].{.{.{.|. X6XqXqXqX*XXXJ.-.b @                                                                                                                                                                                                                                                                                                                                                         ",
"                                                                                                                                                                                                                                                                                                                                                                                        ; g a.].{.{.{.{.|. X6XqXqXqX*XXX{.F.I X                                                                                                                                                                                                                                                                                                                                                         ",
"                                                                                                                                                                                                                                                                                                                                                                                        ; W -.H.{.{.{.{.|. XXX9XqXqXqXXXoXG.&.-                                                                                                                                                                                                                                                                                                                                                         ",
"                                                                                                                                                                                                                                                                                                                                                                                        2 Q =.G.{.{.{.|.|.|. XXXqXqXqXXX|.G.%.6                                                                                                                                                                                                                                                                                                                                                         ",
"                                                                                                                                                                                                                                                                                                                                                                                        c %.H.G.J.{.{.|.|.|.|. X6XqXqX6XXXG.@.c ;                                                                                                                                                                                                                                                                                                                                                       ",
"                                                                                                                                                                                                                                                                                                                                                                                      3 I =.H.J.{.{.{.{.|.|.|.XXXX6XqXqXXX{.X.M -                                                                                                                                                                                                                                                                                                                                                       ",
"                                                                                                                                                                                                                                                                                                                                                                                      2 &.[.J.J.{.{.{.{.|.|.|.XXXX6XqXqX4X|.o.U > 2                                                                                                                                                                                                                                                                                                                                                     ",
"                                                                                                                                                                                                                                                                                                                                                                                      5 a.].{.{.{.{.{.{.{.|.|.XXXXXXqXqX4XXXF.' 5 X                                                                                                                                                                                                                                                                                                                                                     ",
"                                                                                                                                                                                                                                                                                                                                                                                    - W a.{.}.}.{.{.{.{.{.{.|.|.|.XXXXqXqXXX{.] v @ ;                                                                                                                                                                                                                                                                                                                                                   ",
"                                                                                                                                                                                                                                                                                                                                                                                    2 Q F.{.}.}.{.{.}.{.{.{.{.|.|.|.XX6XqXXX|.o.N ; .                                                                                                                                                                                                                                                                                                                                                   ",
"                                                                                                                                                                                                                                                                                                                                                                                  2 W %.H.J.}.}.{.{.{.{.{.{.{.{.|.|.|.XXqXXXXXN.~ 7 +                                                                                                                                                                                                                                                                                                                                                   ",
"                                                                                                                                                                                                                                                                                                                                                                                  ; Q =.G.J.{.{.{.{.{.{.{.{.{.{.{.{.|.XX6XXXXXG. .I - @                                                                                                                                                                                                                                                                                                                                                 ",
"                                                                                                                                                                                                                                                                                                                                                                                - < &.G.J.J.{.{.}.}.{.{.{.{.{.{.{.{.oX|.XXXX|.].b.' 6 +                                                                                                                                                                                                                                                                                                                                                 ",
"                                                                                                                                                                                                                                                                                                                                                                                @ 0 -.G.J.{.{.{.}.}.{.{.{.{.{.{.}.{.}.{.oXXX{.{.B.] W +                                                                                                                                                                                                                                                                                                                                                 ",
"                                                                                                                                                                                                                                                                                                                                                                              @ 1 Z =.G.J.{.{.{.{.{.{.{.{.{.{.{.{.{.{.{.oXoX{.{.G.@.W % X                                                                                                                                                                                                                                                                                                                                               ",
"                                                                                                                                                                                                                                                                                                                                                                              X < ' N.J.J.{.{.{.{.{.{.{.{.{.{.{.{.{.{.}.oXoX{.{.B.#.I , X                                                                                                                                                                                                                                                                                                                                               ",
"                                                                                                                                                                                                                                                                                                                                                                            @ O 7 ] V.J.J.{.{.{.oXoX{.{.}.}.}.{.}.}.oXoX{.{.{.{.B.#.U 6 X X                                                                                                                                                                                                                                                                                                                                             ",
"                                                                                                                                                                                                                                                                                                                                                                            X & C $.H.J.{.{.{.{.oXoX}.oXoXoX}.}.}.}.{.{.{.{.{.{.G.*.) C 9 .                                                                                                                                                                                                                                                                                                                                             ",
"                                                                                                                                                                                                                                                                                                                                                                          ; O j 2.1.E.I.J.J.{.{.oX}.oX|.XX}.}.}.}.{.{.{.{.{.).].F.;.yX2.h + @                                                                                                                                                                                                                                                                                                                                           ",
"                                                                                                                                                                                                                                                                                                                                                                          + & >.k.iXpXE.G.A.{.{.}.oXoXoX}.}.}.}.{.{.{.{.).S./.F.;.pXdXk.>.9 X                                                                                                                                                                                                                                                                                                                                           ",
"                                                                                                                                                                                                                                                                                                                                                                          % 9 2.uXaXMXQ.H.B.J.{.{.}.{.{.{.{.}.}.{.{.).A.).B.N.*.Q.BXKXiX2.h X                                                                                                                                                                                                                                                                                                                                           ",
"                                                                                                                                                                                                                                                                                                                                                                        + % >.k.iXdXdXpXn.B.B.J.{.{.{.{.J.J.J.J.{.{.J.A.A.V.o.;.VXKXKXfXk.>.% -                                                                                                                                                                                                                                                                                                                                         ",
"                                                                                                                                                                                                                                                                                                                                                                        & 9 j.uXiXaXaXpXn.B.B.A.{.{.{.{.J.J.J.J.{.{.A.B.B.b.( Q.BXGXGXZXk.>.% X                                                                                                                                                                                                                                                                                                                                         ",
"                                                                                                                                                                                                                                                                                                                                                                      h & h j.uXsXaXaXpXF.B.B.B.J.J.{.J.J.J.J.J.J.A.B.B.N.b.( pXKXGXHXKXuXj.f X                                                                                                                                                                                                                                                                                                                                         ",
"                                                                                                                                                                                                                                                                                                                                                                      9 & >.uXsXfXfXfXpXF.N.B.B.B.J.J.{.J.J.J.J.J.J.B.B.n.( ;.dXGXHXHXPXdX2.>.O X                                                                                                                                                                                                                                                                                                                                       ",
"                                                                                                                                                                                                                                                                                                                                                                      = h k.fXgXgXgXBXyXF.N.B.B.B.B.G.J.J.J.J.J.B.B.B.B.#.~ Q.fXGXHXJXPXSX2.:.% .                                                                                                                                                                                                                                                                                                                                       ",
"                                                                                                                                                                                                                                                                                                                                                                    9 & >.sXfXgXgXgXMXQ.n.N.B.B.B.B.B.G.J.J.G.G.G.B.B.N.o.~ Q.fXGXHXJXPXLXk.>.9 .                                                                                                                                                                                                                                                                                                                                       ",
"                                                                                                                                                                                                                                                                                                                                                                    & 9 k.sXfXgXZXfXuX;.n.N.N.B.B.B.B.B.B.G.G.G.G.B.n.b...^ 1.dXZXKXHXHXPXMX>.0 X                                                                                                                                                                                                                                                                                                                                       ",
"                                                                                                                                                                                                                                                                                                                                                                  & O h x.sXfXgXgXaX1.$.#.N.N.B.B.B.B.B.B.B.B.B.B.N.n...o.^ 1.iXgXKXHXHXPXSXj.0 O +                                                                                                                                                                                                                                                                                                                                     ",
"                                                                                                                                                                                                                                                                                                                                                                  X & >.sXgXAXZXfXuX,.X.#.n.N.N.B.B.B.B.B.B.N.N.N.o.o.o.X.^ <.uXdXKXLXPXPXLXuXh & X                                                                                                                                                                                                                                                                                                                                     ",
"                                                                                                                                                                                                                                                                                                                                                                  X h bXZXAXAXAXfXk.$.] #.#.o.N.N.N.N.n.o.o.o.o.o.X.X.X.X.^ <.yXaXSXLXPXPXLXiX>.& +                                                                                                                                                                                                                                                                                                                                     ",
"                                                                                                                                                                                                                                                                                                                                                                  + h.DXGXGXGXGXfX1.$.] X.#.o.#.#.#.X.] ^ ^ ^ ^ ^ ~ ~ / ] ^ ;.yXiXfXKXPXPXLXnX>.& +                                                                                                                                                                                                                                                                                                                                     ",
"                                                                                                                                                                                                                                                                                                                                                                  @ j.ZXGXGXGXGXfX1.' ] X.X.#.o.X.] ^ V x x x x x N ^ ~ ~ ^ ) 1.pXaXSXLXPXKXnX>.9 +                                                                                                                                                                                                                                                                                                                                     ",
"                                                                                                                                                                                                                                                                                                                                                                  & j.ZXGXGXGXKXMX1.^ ] ] X.@.] ^ V x z z 3 3 3 z x V ! ^ ! ^ ;.yXiXgXKXKXSXuX>.9 +                                                                                                                                                                                                                                                                                                                                     ",
"                                                                                                                                                                                                                                                                                                                                                                  & >.FXGXHXGXKXaX2.^ ^ ] ] ] P V x z 3 3 3 3 3 z z x V N N B ) 1.yXdXZXZXdXk.>.9 +                                                                                                                                                                                                                                                                                                                                     ",
"                                                                                                                                                                                                                                                                                                                                                                  1 >.sXAXGXGXZXaX2.^ ^ _ _ P M z z 3 3 3 3 3 3 z z x x M M M N &.1.iXfXfXaXk.>.9 +                                                                                                                                                                                                                                                                                                                                     ",
"                                                                                                                                                                                                                                                                                                                                                                  9 h uXAXGXKXZXaX1.) ^ N N M z z 3 3 3 3 z z z z z z x v v v M U ,.pXdXdXdXuX>.9 +                                                                                                                                                                                                                                                                                                                                     ",
"                                                                                                                                                                                                                                                                                                                                                                  >.h k.ZXSXZXfXaX1.;.^ M v z z 3 3 3 3 z z z z z z z v v v v v L Z yXaXBXBXBXj.9 %                                                                                                                                                                                                                                                                                                                                     ",
"                                                                                                                                                                                                                                                                                                                                                                    j h.sXsXsXsXiXQ.;.$.V z 3 3 3 3 z z z z z z z z z z z z v v v V 1.dXSXKXLXbXj %                                                                                                                                                                                                                                                                                                                                     ",
"                                                                                                                                                                                                                                                                                                                                                                    j h.sXsXfXfXaXQ.;.$.V z 3 3 3 3 m Z Q ,.,.Q Z m z z z z z z v V 1.dXKXKXLXmXh &                                                                                                                                                                                                                                                                                                                                     ",
"                                                                                                                                                                                                                                                                                                                                                                    9 z.DXAXAXAXaX1.-.$.N v 3 3 3 3 Z ,.1.f.f.f.1.,.Z n v z z z v V 1.dXKXKXLXDXh &                                                                                                                                                                                                                                                                                                                                     ",
"                                                                                                                                                                                                                                                                                                                                                                    >.h.DXJXJXJXaX1.-.] U v z 3 3 z Z :.,.2.f.f.f.f.,.Q v z z v M V 2.aXSXKXLXBX>.9                                                                                                                                                                                                                                                                                                                                     ",
"                                                                                                                                                                                                                                                                                                                                                                    h.h FXJXJXAXiX<.$.' ' I z 3 3 z b C C 0 0 C C Q Q I v v v v M V 2.iXfXgXfXnX>.& j.                                                                                                                                                                                                                                                                                                                                  ",
"                                                                                                                                                                                                                                                                                                                                                                      j x.PXJXAXiX<.$.' ' U x z 5 5 6 ; ; - - - - 4 5 c c v v v v x 2.aXdXdXdXaX>.& >.                                                                                                                                                                                                                                                                                                                                  ",
"                                                                                                                                                                                                                                                                                                                                                                      9 >.fXAXgXiX<.] ' } P v v c 5 ; - 0 0 @ @ @ @ : ; 2 5 c v v x 2.MXBXSXZXBXj.& 9                                                                                                                                                                                                                                                                                                                                   ",
"                                                                                                                                                                                                                                                                                                                                                                      j j k.sXfXaX<.] ' } U M c 5 4 8 C f.f.>.g < @ + + - 2 3 v v v ) lXSXKXSXDXbX9 %                                                                                                                                                                                                                                                                                                                                   ",
"                                                                                                                                                                                                                                                                                                                                                                      h j j.fXDXMX<.] ' U T L c 5 2 :.f.l.l.z.z.f.g @ + @ - 3 v v v m 2.MXSXSXSXmXj +                                                                                                                                                                                                                                                                                                                                   ",
"                                                                                                                                                                                                                                                                                                                                                                        j j.FXDXMX<.] ' P P L v 5 2 :.l.l.k.l.l.zXz.< @ - ; 2 c v v m Z uXBXSXZXfX>.%                                                                                                                                                                                                                                                                                                                                   ",
"                                                                                                                                                                                                                                                                                                                                                                        f h.FXSXMX<.] ' P L L S v 3 C l.l.l.kXkXzXzXC ; 4 4 5 c c c v m 1.fXZXZXfXh.&                                                                                                                                                                                                                                                                                                                                   ",
"                                                                                                                                                                                                                                                                                                                                                                        9 h mXDXMX<.] ' P L L L v c b :.l.l.kXkXkXzXQ 4 4 5 5 c c v c n 2.aXZXfXaX>.& @                                                 + $ f e                                                                                                                                                                                                                                                                         ",
"                                                                                                                                                                                                                                                                                                          + + + +                                                       & 9 mXDXVX<.] ' P P P L L v n b :.f.kXzXzXzXW 5 5 5 c c v v v n 2.iXfXuX2.8 % +                                               X @ ; 1 e f f :                                                                                                                                                                                                                                                                   ",
"                                                                                                                                                                                                                                                                                                , f f f * # o O X .                                                     + 9 x.DXlX<.] ' P P T P L M I F b Z ,.l.zXf.b 5 5 c c v v v v n ) pXiX1.Z 6 % X                                             X @ ; ; 4 4 6 < : $ $                                                                                                                                                                                                                                                               ",
"                                                                                                                                                                                                                                                                                          $ , f = % + + + + X O X .                                                     + & j.NXjX<.] ' _ _ } P P L L I F b b Q :.Z 5 5 5 c c S S v v V ,.yXpX<.B m < +                                             . + ; 4 5 c c c 4 > $ @ -                                                                                                                                                                                                                                                           ",
"                                                                                                                                                                                                                                                                                    , % # # + : > > > > : $ + X X .                                                     X % >.lXjX<.] ' _ _ _ P P P L L S F 5 c c 5 5 5 5 c c S S M M N E.7XQ.;.^ x 7 , -                                             X ; 4 c v v S S c 4 > : > 4                                                                                                                                                                                                                                                       ",
"                                                                                                                                                                                                                                                                              ; % % # + @ ; > 5 A A u 4 > : # X X .                                                     X % 0 hXjX-.] ' ' _ _ P P P L L S c 5 5 A 5 5 5 5 c c S S M _ =.6X7XH.X.! V z : +                                             X + 4 5 c S S L S S A u y < > ;                                                                                                                                                                                                                                                   ",
"                                                                                                                                                                                                                                                                        > 1 @ $ 1 1 > > 5 c S L Y H A y w $ # X .                                                       O % 8 1.7X-.] ` ' _ _ P P L L L A 5 4 5 5 5 4 5 5 c c S L N #.{.6XH. . . .` U 7 @                                               + @ 4 5 D F I I I S F F A 4 @ + @ -                                                                                                                                                                                                                                             ",
"                                                                                                                                                                                                                                                                  - - $ % ; 4 c S S S S L P [ [ [ Y A w $ # O . .                                                       % % 0 <.7X-.] ` _ _ _ _ P L L S 4 4 4 4 4 4 4 4 5 A A S L _ N./.N. . .+.m.+.=.Q e @                                               + @ > u D F R R R I L L A 5 > : + $ ;                                                                                                                                                                                                                                         ",
"                                                                                                                                                                                                                                                              @ X + : 6 D L [ { O.{ { { [ [ { { T S y : # . .                                                           f 1 m <.7X=.] ` _ _ _ _ P M S 5 ; 8 8 8 7 6 4 4 5 c A S L O././.+.`  .(.).).^.%.7 @                                                 + + > u D K R R R L L L L S A y > $ : ;                                                                                                                                                                                                                                     ",
"                                                                                                                                                                                                                                                        - @ X + ; 5 L } { +.u.~.~.u.u.O.O.{ { [ Y y : # +                                                             @ f ; z $.5X-.` ` [ _ _ _ P L c ; C :.h.j.j.:.6 5 u c A S _ N.)./.#.' ` /..X.X{.'.Q @ @                                                 . + : 4 D F K R Y T } [ { { T L A 4 - @ -                                                                                                                                                                                                                                 ",
"                                                                                                                                                                                                                                                    ; @ X @ > c P { +.+.~.~.~.~.~.~.u.u.u.O.{ T A : + X                                                               + , 2 x ' a.@.` ` _ _ _ _ P L 5 : j.x.x.x.bXz.6 6 5 c c L @.{.{.).#._ ` ^..X.X}.{.a.< X                                                 + . + : 4 c S E } } { O.u.u.+.O._ P A y @ @ : >                                                                                                                                                                                                                           ",
"                                                                                                                                                                                                                                                ; @ @ @ 2 v _ +.m.M.M.~.~.~.~.~.~.~.u.u.u.y.[ Y y @ X .                                                               & 1 3 x ! @.` ` ' _ _ _ _ P L 5 : z.bXbXbXx.x.0 6 5 5 v ' ].oX}.{.^.` ` u.)..X{.{.'.W +                                                   . X @ 4 S E [ { { y.u.u.~.m.+.+.+.O.P S 4 ; $ q :                                                                                                                                                                                                                       ",
"                                                                                                                                                                                                                                            2 - @ ; c P ` b.M.M.M.M.M.~.~.~.~.~.~.u.u.u.u.y.t.Y y $ + .                                                             @ & 4 z V ! ` ` ` _ _ _ _ _ _ L A ; l.bXbXbXbXkX:.7 5 c _ N.{.}.}.oX].` _ @.]..X{.{.].g.f                                                   . X - c T [ { O.O.u.u.u.u.~.~.m.M.M.m. ._ L A > @ $ $ ;                                                                                                                                                                                                                 ",
"                                                                                                                                                                                                                                        ; 1 : ; c P O.M.C.Z.Z.Z.C.M.(.(.~.~.u.u.u.u.u.u.y.r.t.Y A > : X                                                             @ , 5 x ! ! ` ` _ _ _ _ _ _ _ [ E b 1.bXbXbXbXbXkX,.c U a.{.}.}.}..XoX@.N ` ^..X{.{.].p.g -                                                 X @ 5 L } { { O.y.u.u.u.u.u.(./.M.C.C.M.M.m. .P c ; @ % $ :                                                                                                                                                                                                             ",
"                                                                                                                                                                                                                                    4 , % ; c _ ..M.C.Z.Z.Z.`.`.`.`.`.(.(.~.u.u.u.u.y.y.r.r.t.T H u y : @                                                           @ , c N ! ` ` ` _ _ ` ` ` `  .O.@.&.,.kXnXnXnXaXnX7XM @.].oX}.}.}..XoXa._ _ @./.{.{.].a.g +                                                 X 2 S P [ { { { y.y.u.u.u.u.(././.).C.Z.Z.Z.D.V. .P c > + # % :                                                                                                                                                                                                         ",
"                                                                                                                                                                                                                                ; , , ; c N  .b.C.Z.U.U.#X#X#X_.`.`.`.`.`.(.~.u.u.u.y.y.r.t.t.T Y H u w q                                                           : ; v N ! _ ` ` _ _ ` _ ` `  .m.^.a.&.1.nXnXnXnXMXhXN #.oX.X-X-X%X%XoX'._ P O.#.].{.'.} s *                                               @ ; A P [ [ [ { { { r.y.y.u.u.(./.).)._.S.U.U.U.U.Z.M..._ c > + # * $                                                                                                                                                                                                     ",
"                                                                                                                                                                                                                            - % % : 5 P  .b.C.Z.Z.U.U.#X#X@X#X#X#X#X+X_.`.`.(.~.u.u.y.r.t.t.T T Y H G u w e i                                                       , 2 x N ! _ ` _ ` ` ` ` `  .+././.^.} ,.nXnXnXnXMXjXB '.oX.X-X-X%X%X.X].` P { O.^.^.@.P s = ;                                         - - ; c L P [ [ [ [ { { { { y.u.u.(./._._.+X+XU.U.U.U.U.U.Z.C.+.P 5 : # o # $                                                                                                                                                                                                 ",
"                                                                                                                                                                                                                        - + % @ 2 M ` m.C.Z.U.U.U.#X#X@X@X@X@X@X@X@X@X#X#X_.`.(.~.u.y.{ [ T T Y Y H G A u y e q -                                                 + 1 3 V ! ! ` _ _ _ ` ` ` `  .m.).B.N.] <.nXMXnXnXnXlXB '..X.X-X-X%X%X}.].` P [ { @.@._ S i # +                                     - @ : 4 c S L P P T [ [ [ [ { { O.u.(.)._._.+X+X@XU.U.U.@X@X#X#XU.`.M.+.L y # o o o +                                                                                                                                                                                             ",
"                                                                                                                                                                                                                    @ + X @ > S ` m.C.C.Z.Z.U.U.#X@X@X@X@X@X&X&X$X@X@X@X+X#X+X`.`.(.u.O.[ T T Y H H H A A u y : $ +                                               X 1 c N ! _ ` ` _ _ _ ` ` ` +.B.S.A.B.] <.lXMXMXMXnXlXU '.XX.X-X-X%X%X}.{.` P [ { { ' M c ; + X                                 @ @ @ : 4 c S L L P T T T [ [ { { +.(./.`._.+X+X@X@X@XU.U.@X@X@X@X#X#X#X#XC.m.[ A > # o o X                                                                                                                                                                                           ",
"                                                                                                                                                                                                                @ X X + - c _ +.M.Z.Z.Z.Z.Z.#X#X@X@X@X@X@X>X>X>X&X&X&X@X@X@X#X+X`.`.(.u.O.[ T Y Y H H S A u u y : + X                                           + + 6 M ! ! _ ` ` ` ` ` ` `  .b.A.S.S.B.] <.lXMXMXMXMXlXN '.oXoX.X%X%X%X}.{.O._ } [ _ P N v 5 ; $                           @ @ $ $ : > 4 5 A S S L L T T [ [ { O.u.(.)._.+X@X@X@X@X@X@XU.U.@X@X+X#X#X#X#X#X#X#X`.+.P u : # o o +                                                                                                                                                                                       ",
"                                                                                                                                                                                                              X X + - c P ..M.C.Z.Z.Z.Z.Z.Z.U.#X@X@X@X@X>X>X>X>X>X>X&X@X@X@X@X#X+X_.)./.u.O.[ T Y Y H S A A u u > : @ + @                                       + 1 I ` ` ` ` { ` ` ` _ ` ` ..B.)._.S.B.` ;.vXMXMXnXlXhXN '.oXoX.X-X%X%X}.{.@._ _ ' ` { @.i.a.K : +                     + + + : : > 4 4 5 A A S S S L T T [ { O.~./.`._.+X@X@X@X@X@X@X@X@X@X@X@X@X@X+X#X#X#X#X#X#XZ.M.O.L u : # o +                                                                                                                                                                                     ",
"                                                                                                                                                                                                          - X X @ 2 M  .M.Z.U.Z.Z.Z.Z.Z.Z.Z.#X#X@X@X&X>X>X>X>X>X>X>X>X>X$X@X@X@X+X#X_.`./.u.O.[ T Y H S A G A u u y w q $ + @                               - @ 4 I #.B.N. .` ` ` ` ` _ ` ` +.B.)._.S.B.` &.7XhXxXxXl.1.M a.oX.X%X%X%X%X.X{.@._ ` O.#./.].)./.p.i +             + + + @ : : > 4 4 4 u u A A A S S L L T [ O.#./.)._.-X+X&X&X@X&X&X&X&X@X@X@X@X@X@X@X+X#X#X_._.#X@X@X#X`.m.{ L y : # + +                                                                                                                                                                                 ",
"                                                                                                                                                                                                        + X X - c _ m.Z.U.@X#X#X_.S.C.C.C.Z._.+X@X@X&X>X>X>X>X>X>X>X>X>X$X$X$X@X@X+X#X_.)./.^.u.{ T Y S H G G A u u u y y : + +                           X @ 6 P #.).}.oX/.+.{ ` ` ` ` `  .N.B.S.S.S.B.' I Q :.f.:.C C c -.{..X-X%X%X%X}.{.+. ./.].{..X.X).).a.K @         X X + $ e y 4 5 5 5 5 u u u A A A S L P [ { +.N.)._.+X-X&X&X&X&X&X&X&X&X&X&X&X@X@X@X@X@X@X+X#XS.Z._.+X+X+X#XZ.M.+._ S y : X X                                                                                                                                                                               ",
"                                                                                                                                                                                                    + X X + ; M o.C.#X@X@X&X@X#X`.C.M.M.M.S._.+X&X@X@X&X&X&X>X>X>X>X>X>X>X>X$X>X@X@X#X#X_.`.).(.+.{ [ Y H H G G A A u u u y w $ +                     + X @ 5 P #./._.-X-X.X/.+.` ` _ ` ` O.N.A.S.S.S.B.} 4 ; 1 0 8 C :.7 &.|.oX.X}.}.%X}.{.m.)..X.X.X{.}._.).'.q.; - @ @ @ $ : w y y u 5 5 c 5 u u u A A S S L P [ O.#./.)._.%X&X&X&X&X&X&X&X&X>X$X$X$X&X&X&X@X@X@X@X@X+X_.S.A._.%X%X%X+XU.C.M.+.P A w # +                                                                                                                                                                             ",
"                                                                                                                                                                                                  X X + 1 c _ b.Z.@X$X>X>X&X@X#X`.M.m.m.M.S.+X&X&X&X&X&X&X&X>X$X<X<X<X3X3X<X<X>X$X$X@X#X+X+X_.)./.^.O.[ Y S S G A A A A A u u y > : ;               X X @ 5 P O./.{.}.-X-X-X`.m.` _ _ ` ` O.N.A.S.S.S.B.} 7 0 C :.f.zXzX,.Z [.|.oX}.}..XoX).(..X-X-X.X}.}.{.].i.R u ; ; > y 4 u A A A A A A A A u u A A S S P [ O.u.(.)._.}.%X&X&X&X&X&X&X&X&X&X>X$X$X$X&X&X&X&X@X@X@X@X+X_.C.V.B.}.-X&X&X+XU.Z.C.+.{ L u : @ -                                                                                                                                                                         ",
"                                                                                                                                                                                                + @ > c P  .C.U.$X>X>X<X>X&X+X_.(.m...+.B._.%X&X&X&X&X&X&X&X>X>X<X3X3X3X3X3X<X<X>X>X@X@X+X%X+X_.)./.N.#.{ P L S S A A A A A A A u a y e @ + + + + + @ 1 4 L +.m.).{..X-X-X-X.X(.` _ _ _ ` O.(.A.S.).).B.@.&.cXzXkXnXnXMXxX,.=.|.oX}.}.oX{./.).-X-X-X.X{.].^.{ P Y A u u u A A A S S A A A A A A A A S S L _ { #./.)._.}.%X%X&X&X&X&X&X&X&X&X>X>X>X>X$X$X&X&X&X&X@X@X@X@X+X_.M.m.m.).-X-X;X&X%XU.Z.C.M.+.[ S y : 2                                                                                                                                                                       ",
"                                                                                                                                                                                              @ > D P  .m.S.@X>X3X3X3X<X>X@X+X).m. . .+.B._.%X%X@X&X&X&X&X&X>X>X<X3X3X3X3X3X$X<X<X>X$X@X&X%X%X+X_._.)./.N.@.} P S S S S A A A A A A A u > ; ; : < 6 5 D P  .N./.).{.-X-X-X-X.X(.` _ _ _ ` O./.A.S._.).B.o.7XvXlXlXMXMXMXMXhX$.[.{.oX}.oX^.O.).-X-X}.{./.i.} Y L Y S A A A S S S S S S S A A S S S S L _ { #./.)._._.+X%X%X&X&X&X&X>X&X>X>X>X>X>X>X>X$X$X&X&X&X&X@X@X@XU.+X_.M.+.+.N.{.-X-X;X&X&X@XU.Z.C.m.{ L u w 5                                                                                                                                                                     ",
"                                                                                                                                                                                          2 4 5 M ` o.C.#X&X<X2X2X2X3X>X>X+X_.M.+.` ` +.B._.}.%X+X%X&X&X&X&X&X>X<X3X3X3X3X$X$X$X$X$X@X@X&X%X%X%X%X}.}.{.{.].#.@._ P L S S S S S S S S S A A c A S L P _ O.(.).{.{..X-X-X-X-X.X(.` _ _ _ ` O.B.)._._._.A.n.7X7XQ.nXMXBXBXMXhXB '.{.}.}.oXi._ /..X}._./.u.} Y S S S S S S S S S S S S S S S S S L P [ { #./.)._._.+X%X%X%X&X&X&X&X&X&X&X&X>X>X>X>X>X>X>X>X>X>X&X&X&X+X+X+X+X_.N.O.` O./.}.-X;X;X1X&X&X+XZ.C.M.+.[ S p u                                                                                                                                                                   ",
"                                                                                                                                                                                        5 W S _  .b.C.U.&X1X2X2X2X2X<X>X&X+XA.+.` _ ` #./.).}.%X%X%X+X&X&X&X&X>X<X>X>X$X$X$X$X@X@X@X@X+X%X%X-X-X%X%X}.}.{.{.].N.#.@.[ P L L S S L L L L L L L L P P _ ` +./..X.X.X-X4X-X-X-X.X^.` _ P _ ` +./.)._._.).J.N.7XQ.yXMXBXMXdXaXhXU a.{.}.{.oX' P '.{.{.)./.#.T L S S S L S S S S Y L S L L L Y P P [ @.u./.`._._.+X+X%X%X%X%X-X-X-X-X+X+X@X&X&X&X>X>X>X>X>X>X>X&X&X@X+X+X+X+X+X_.N.{ _ ` #.).-X;X;X1X1X&X&X&XU.Z.C.M.O.Y p p                                                                                                                                                                 ",
"                                                                                                                                                                                    3 D K L ` b.C.Z.+X&X1X2X2X2X2X<X>X&X%XS.N. ._ _ { #.B.)._._._.+X+X+X%X&X&X>X>X>X>X$X@X@X+X_._._._.).)._._._._.}.}.}.}.}.}.{.{.^.#.O._ P L L L L P P P P P P _ _ _ _  .#.].oX.X4X4X-X-X-X.X^.` P P _ ` +./.A._._.S.J.n.E.jXiXBXBXdXdXnX1.%.'.{.}.{.'.P P '.{.}.{./.@.P L S S S L S S S L L L L P P _ { O.#.^./.)._.+X+X-X-X.X.X{._.).).).`.`._._._.-X+X&X>X>X>X>X>X>X&X&X@X+X+X%X%X_._.).N.` _ _  .N.{.-X;X1X1X1X<X&X&X+X#XZ.M.O.P F p 2                                                                                                                                                             ",
"                                                                                                                                                                                  2 D R _ +.m.C.Z.%X&X1X2X2X2X1X<X<X&X&X_.B..._ P P { #.B.B.A.S._._.+X+X%X&X&X>X>X>X>X@X@XU.S.S.B.B.B.m.m.m.(.(.B./.).{.}.}.}.}.{.{./.^.#.O.` _ P P _ _ _ _ _ ! _ _ P P _ { O.^.oX.X4X-X-X-X{.^._ P P _ ` #./.).).).S.A.n.E.jXVXBXBXMXMXlX<.a.G.{.{.{.=.M _ '.{.)._./.O.P L L S S S S S S L P P _ { { @.#./.{._._._.}.{.{.)././.(.(.(.~.~.~.(.(./././.)._.%X&X>X<X<X>X&X&X@XU.+X+X%X}.}.S.S.N.` _ P _ O./.{.-X;X1X1X1X>X&X&X+XU.S.M.#.] v ; -                                                                                                                                                           ",
"                                                                                                                                                                              z 3 L P ` +.m.M.Z.U.&X,X1X1X1X1X<X<X&X%X}.S.N. .P L P | #.N.B.B.A.)._._.+X%X&X&X>X3X3X<X>X&X+XS.S.B.M.m.m.+.+.+.O.O.+.+.N.B.B.{.{.{.{././.].^.#.O.` ` ` ` _ _ _ ! P P N P P P _ ` ^..X-X-X-X-X_.^._ P P _ ` #./.).).).).A.o.E.jXVXMXiXpXlXE.*.].{.J.{.].| M ' ].J.S.)./. .L S S S S S S S S P } @.@.i.^.'.].].{.).{.]./.N.#.#.+.O.O.O.+.u.u.u.u.u.N.(./.).}.%X&X<X<X<X>X&X&XU.+X+X_._.}.S.S.A.N.{ _ P _ { #./.}.%X;X<X<X<X1X;X&X&XU.S.C.b.` v ; @ ;                                                                                                                                                       ",
"                                                                                                                                                                            3 D L _ ` ..m.M.Z.+X&X,X,X,X1X,X&X&X&X%X}.S.B.#._ P L P | @.#.N.N.B.A.)._._.%X%X&X<X3X2X2X3X<X>X&X%X_.).)./.m.+. .O.{ { { O.O.+.#.#.N.N.N.N.^.N.N.#.o. . . .` ` _ ! _ P N N M P P _ ` N.{.-X-X-X_.#._ P P _ { #./.).).).S.A.o.E.jXyXlXlXjX7XX.o.].{.{.B.#.' v | G.J.S.)./.` M S S c A A A A D L } @.#.#.#.#.#.N.#.#.#.#.@.O.O.O.{ { O.O.O.O.u.u.^.(./.).{.}.%X&X<X<X3X<X>X&XY.U.+X_.S.S.S.S.A.B.#.{ P P P ` O.N.).}.&X;X;X;X;X;X;X&X&XU.S.C.m.' v 4 - -                                                                                                                                                     ",
"                                                                                                                                                                        2 3 F } `  .....m.C.+X&X&X,X,X,X&X&X&X%X%X}.}.B.N. ._ L L P | @.#.#.N.N.B./.).)._.%X&X<X3XwXwXwXwX2X2X1X<X&X%X}.).B.N.N.#.+.{ ` ` ` O. .` { O. .X.#.#.#.o... . .` ` _ _ _ P N M M M N P _ ` ^.oX-X}.).#._ P P _ { N.B.).).).S.A.o.-.;.;.jXjX<.;.` ` =.N.n...@.P M -.G.J.S.).N.` M v c 5 5 4 4 > < u S P _ { ` ` { ` ` ` { { { { { { { O.@.#.u.^.(./.).{.}.%X&X&X>X1X2X2X2X<X>X&XY.Y.}._.S.S.A.B.B.N.#.{ P P P _ ` +.B.).%X%X&X&X&X&X;X;X&X&X+XS.M.+.| U D ; @ -                                                                                                                                                 ",
"                                                                                                                                                                      ; 5 Q %.@.......b.V.S.%X=X=X,X&X&X&X%XU.S.S.S.A.B.#.` P L L P } | @.@.#.#.N.B./.)._.%X&X<X3XwXwXrXeXwXwXwX2X2X1X&X%X}.K.J.B.N.#.#.O.` ` ` ` ` _ _ _ ' ` { | | ] } ' U L M M M M M M M N N N _  ./.oX}.{.#._ P P _ O.N.B.).).).).A.o.@.^ ) Q.E.) N M v v L ` ` ` P V =.].J.A.).N.' M c 5 4 4 > : @ $ : 4 5 c S L L P P _ _ ' ` ` O. .X.#.#.N.N./.).).}.%X&X=X,X,X2X2XwXwXwX3X<X>X&XY.K.S.S.A.A.B.B.N.N.#.{ P L P _ `  .N.A.}.}.%X&X&X&X&X;X;X&X&X+XC.b.#.@.%.I 6 @ +                                                                                                                                               ",
"                                                                                                                                                                    ; c U ] o.o.o.....b.V.S.%X=X=X&X&X&XY.K.S.K.S.A.B.n.X._ M M L P } | @.@.@.#.#.N.B.B.{.%X&X<X2XwXeXrXrXrXrXrXeXwX2X1X=X&X%XK.J.A.B.N.o. . . .` _ P P L L S S S S c 5 4 > ; ; ; ; 5 v M M N N P _ ` +.{.{.{.O._ P P _ O.N.B.).).).S.B.X.' &.&.$.) x z 2 ; : 5 P ` ` N N =.J.S.A./.#._ v A 5 4 > : @ + + + @ @ : 4 5 c S L P ' `  . ...o.n.N.B.A.S.K.K.%X%X=X1X2XtXeXrXrXrXeXtX2X,X&XR.Y.S.S.A.B.B.N.N.n.N.#.` P L L P _  .#.B.J.J.K.}.%X&X&X;X;X=X&X%XS.B.n.#.a.a.} S - +                                                                                                                                             ",
"                                                                                                                                                                  ; 3 } =.N.N.n.b.....b.M._.=X=X=X&X%XY.K.S.J.A.A.B.N.#.X.! M v L P _ ] | @.@.@.#.#.N.B.).}.&X<X3XwXeXrXrXrXrXrXrXeXeX2X1X&X%XK.K.S.B.B.b.o... .` ' P Y F A u 4 > : - @ @ + + X + + ; v M M N N P _ _ ` B.{.{.O._ P P _ O.N.A.).)._.S.B.] c b c V V m 8 8 ; - 5 P _ _ N N '.J.A.B./.#.P S A u 4 > : @ + + + + + + @ : > 4 c I U _ ` @.#.n.B.B.A.S.K.Y.Y.&X&X1X2XwXeXrXrXrXrXrXeX2X,X&XY.K.S.A.B.N.N.N.#.#.#.@.` P L M P _ ` #.N.G.J.J.K.}.%X%X&X&X=X&X%XS.B.m.N.^.^.'.a.R < +                                                                                                                                           ",
"                                                                                                                                                                ; c P #.B.B.B.n.o.....b.A.%X:X=X%X%XK.K.S.S.A.B.B.B.N.#.] P v v L L P ' ' ] X.@.@.#.#.N.B.}.%X>X3XwXeXrXrXrXrXrXrXrXeX0X1X&X%XK.J.A.B.B.b.o.X.| [ T S A u w : : $ + + X X X X O X X - c M M M N N P _ _ m.{.].` P P _ ` O.N.).).)._.).G.U 4 ; 8 1.l.hXkXl.g.; 5 P _ _ N _ ].S.A.B.B.O.P S A u 5 4 > $ % o o o X X X + @ - > 4 c S P ' ] X.F.B.A.S.S.Y.Y.R.&X1X3XwXrXrXrXrXrXrXeX2X,X&XY.S.A.B.N.n.#.#.#.#.#.@.` P L M N _ ` #.n.G.G.J.J.S.K.}.%X&X;X-X%X}.B.b.+.N./.].'.a.E 4 +                                                                                                                                         ",
"                                                                                                                                                              - 3 ' o.B.B.B.B.b.......V.).%X%X%X%XK.K.S.A.B.B.B.B.N.#.@.] N v v v L P _ ' ] ] @.@.#.#.n.B.{.%X>X2XeXeXrXrXrXrXrXrXrXeX1X=X%XK.K.J.G.N.N.o.X.] U L F u y : $ # # # o X X X . . . . X + 6 v M N N N P P _ +.{./.` P P _ { O.(.).).).).S.G.U ; 1 f.nXNXnXnXbXz.; b N _ _ N ` ].S.A.B.B.` P S c A 5 4 : $ X . . . X X X X X + + @ ; > 5 c v I U ] #.N.B.S.Y.Y.&X,X2XtXrXrXrXrXrXrXeX2X,X&XY.A.B.B.n.#.o.o.o.@.@.@.` P L M N _ ` @.#.F.G.G.G.J.J.K.%X%X-X-X%X}.A.b...+.N././.^.a.p.i @                                                                                                                                       ",
"                                                                                                                                                            - c N ..b.B.B.B.N.b.../ ..B.}.%X%X}.K.J.A.B.V.B.B.B.B.N.o.X.' M v v v L P P _ ] ] | @.@.#.#.N.J.%X=X2XeXeXrXrXrXrXrXrXeX2X,X&XY.K.J.G.N.o.X.' P S D u > : $ + + X X X X O . .       . . X : c M M M N N P P  .].#.` P P _ ` +.B.A.S.S.S.S.F.I - >.kXnXnXaXnXuXz.4 c N _ _ ! X.].A.A.).N.` P L c c 5 4 : + X       . . . X X X X X + @ @ - - ; 6 c I ' X.N.J.K.%X=X1XtXeXrXrXrXrXrXeX2X1X&XK.J.B.N.#.#.X.X.X.X. .` ' P M M N _ `  .#.N.N.G.G.B.A.J.K.%X%X-X&X%XK.N... .#.^.].].[.a.p.5 @                                                                                                                                     ",
"                                                                                                                                                          - 5 U  .b.B.B.B.B.n.../ ..b.B.}.%X}.K.J.A.B.V.N.N.N.N.N.n.o.X._ M v v v L P _ _ ` ] ] X.X.@.#.N.B.}.=X2XeXeXrXrXrXrXrXrXeX2X=X%XK.J.N.#.X._ M c 5 > ; $ + + X X X X X X . .           . . X @ 4 v M M N N P P ` #.@._ P P _ ` #./.A.S.S.S.A.F.I 2 j.aXiXuXyXiXuXj.2 v N _ _ _ #.oXA.A.).N.` P L v c 5 4 : + +           . . . X X X X X + + + + @ ; > 5 N X.B.J.Y.=X,X0XeXrXrXrXrXeXeX2X1X&X}.J.B.N.#.X.X.X.X.X.` ` ' P M M N _ `  .#.N.N.F.G.B.B.A.J.K.}.%X%X%X}.B.o. .@.#.^.].].'.a.} 4 +                                                                                                                                   ",
"                                                                                                                                                        - 5 L  .b.V.B.B.B.N.b. ./ ..N.J.}.}.K.J.J.B.V.V.N.N.N.N.N.n.o.X._ M v c v L P _ _ _ ] ] ] ] X.#.N.G.{.%X1X2XeXeXeXeXeXeXeX0X,X*XK.J.F.@.' F 5 4 1 $ $ # o X X X X X . . .                 . X X - 5 v V N N P P _ ' _ _ P _ _ ` #.B.A.S.S.S.A.F.L 8 2.uXiXxX1.2.kXl.3 L N _ ! ` N..X).A.G.@.' P L v c 5 4 $ X o X             . . . X X X X X X X X + + @ 5 U o.B.K.&X,X0XeXeXrXrXrXeXtX2X,X*XK.G.N.#.@.X.X.] ] ` ` ' _ P M M N _ `  .#.N.N.N.G.G.B.B.A.J.}.}.%X%X}.{.b. . .@.#.^.'.].'.a.I ; +                                                                                                                                 ",
"                                                                                                                                                      - 5 P  .b.V.B.B.B.B.b.../ / ..B.J.J.J.J.B.B.V.V.N.N.N.N.N.N.n.o.X._ M v c v L P _ _ _ ' ' ] ] X.@.#.N.G.}.=X,X0X0X0XeXeXeX0X0X=X}.J.F.-.' D 1 @ + + X X X . . . . . .                       . . X X ; v V N N P P P _ _ _ _ _ _ O.m.B.S.S.S.S.J.F.B m 1.lXlXcX) Z <.d.M N N _ ! ` N.{.).J.N.` ' P L S c 5 4 @ X o X                   . . . . . . . . . . X : c ' n.J.Y.=X0X0XeXeXeXeXtX0X,X*XP.J.N.#.o.X.] ` ` ` ` ' _ _ L M M N _ `  .#.N.N.N.G.G.G.B.B.A.{.{.}.%X%X}.n. .`  .#.#.^.].].'.-.I 1 +                                                                                                                               ",
"                                                                                                                                                    ; c N  .b.V.B.B.B.B.B.b.../ / ..B.J.J.J.G.B.N.N.N.n.n.n.N.N.N.N.o.X._ M v c v L P P _ _ ' ' ' ] ] @.#.#.F.G.L. X*X9X=X0X0X0X0X=X*XJ.F.-.U b 1 + X . X                                           . . X @ 3 v N N N P P _ _ _ _ _ _ O.N.B.A.S.S.S.A.B.] &.cXcX5X$.N P N P N N ! _ ` ` B.}.K.J.#.` ' P L S A 5 > $ X o X .                                   . . # : c ] N.K.R.,X0X0XeX0X0X9X8XP.L.G.F.o.o.X.] ] ] ' ' ' ' _ _ N M M M _ `  .#.N.N.N.F.F.G.G.G.B.G.J.{.}.}.{.N. .`  .O.#.N.^./.F.F.=.F ; X                                                                                                                             ",
"                                                                                                                                                  ; c _  .b.B.B.B.B.B.B.b.o. .~  .o.B.G.G.G.B.N.N.n.n.n.n.n.N.N.N.N.o.] _ M v v v L P P _ _ ' ' ' ] ] ] @.@.@.-.-.*.F.H.|.XX8X8X*XP.J.F.X.&.n ; + X                                                 . . X + ; c M N N P P P _ _ _ _ _ O.N.B.A.S.S.S.A.B.o.-.5X-.] ! _ _ P P N _ _ _ ` ` B.}.K.{.#.` ' P P S A 5 > @ X o o .                                     . X + ; c ] F.K.R.,X0X0X0X8X|.-.$.$.] X.X.X.X.] ' ' _ _ _ _ _ _ N M M M P ` X.#.N.N.N.F.N.G.G.G.G.B.G.J.{.}.{.G.o.`  . .#.#.N.^.'.'.'.-.F : X                                                                                                                           ",
"                                                                                                                                              z 2 v ` ..b.V.B.B.B.B.B.N.b.../ ~  .N.G.G.G.G.N.N.F.N.N.N.N.N.N.F.N.N.o.` _ M v v v L P P _ _ _ ' _ _ ' ' ' } U I b b n U %.H.[.L.L.L.G.*.' n ; X @                                                     . X X @ 4 v M N N P N _ _ _ _ _ O.m.B.A.S.S.A.A.B.#. .{ ` ` ` _ _ _ _ P P _ _ ` ` /.}.S.J.N. .` P P L A u > $ o # # .                                     . . X + : b $.F.Y.=X,X=XT.L.%.b 2 2 n ' ] X.] ] ' ' _ _ _ _ _ _ N M M M P ` X.#.N.N.N.N.N.N.N.G.G.G.G.G.J.{.{.G.#. .`  . .#.#.^.'.'.'.=.%.n - X                                                                                                                         ",
"                                                                                                                                            3 2 L ] b.V.V.B.B.B.B.B.B.N.o. .~ `  .N.G.G.F.F.N.n.F.N.N.n.N.N.N.F.N.N.o.` _ M v v v L P P _ _ _ ' _ _ ' ' U F 7 ; @ @ ; 4 b U $.=.H.H.*.$.I 2 +                                                         . . X X ; c L P N P N _ _ _ _ _ O.m.B.A.).A.A.A.B.#.O.{ { [ [ P P P N P N _ _ `  ./.}.S.J.B.o.` P L L A 4 > # o # * .                                       . . X + ; n X.K.T.Y.Y.I.&.2 @ + + - b B ] ] ' ' ' _ _ _ _ _ P N M M M P ` X.#.N.N.N.N.N.N.N.G.G.G.G.G.G.J.G.G.#. .`  .X.#.#.N.'.'.F.F.F.%.b @ X                                                                                                                       ",
"                                                                                                                                          3 5 U  .b.V.V.B.B.B.B.B.B.B.N.o./ ~ ~ o.N.F.F.F.N.N.n.N.N.N.N.N.N.N.N.N.o.o.` _ M v v v L P P _ _ _ _ _ _ U I D < @ + X X + @ > b Z ' ] X.] B b - ;                                                           . . X + 4 v L P P _ _ _ ! _ ` O.N.A.A.).).).).B.#.O.{ { [ P L v x m v N _ ` `  ./..XS.A.A.N.` _ L S A 4 > + o * * .                                         . . X + 8 U n.G.G.*.&.2 + X X X + ; n B ! ! _ ' ' ' _ _ _ P M M M M P ` X.#.N.N.N.N.N.N.N.F.F.G.G.G.G.G.G.G.#. .`  .X.#.#.N.N.N.G.G.G.F.%.b @ .                                                                                                                     ",
"                                                                                                                                        2 7 U #.B.B.B.B.B.B.B.B.V.B.B.N.X.~ ~ / o.N.F.F.F.N.n.n.N.N.N.F.N.N.N.N.N.o.o.` _ M v v v L P P _ _ _ _ _ P I D < + X X X . . . . + 2 n V B B n 2 +                                                               . . X @ 5 M N _ _ _ _ _ _ ` O.N.A.A.).).).).B.+.O.{ { _ P n C hXl.n M ! ` `  ./.oXS.A.A.N.` P L S u 4 > + # * * .                                         . . X X - c ] $.$.x - + . . . X X @ ; c N N ! _ ' ' _ _ P P M M M M P ` X.#.N.N.N.N.F.F.N.F.B.B.G.G.G.G.G.G.N.X.`  .X.#.N.n.N.N.G.G.G.G.'.%.b @ .                                                                                                                   ",
"                                                                                                                                    ; - 2 U #.B.A.A.A.B.B.B.B.B.V.B.B.b. .~ ~ X.#.N.F.F.F.F.N.N.N.N.N.N.B.G.G.F.N.o.o.` _ M v v L L P P _ _ _ ! N n D < + X . X . .         + @ 8 b 7 2 1 +                                                                 . X + ; v N ! ! ! ! _ _ ` O.N.).A.).).).).B.o. .` _ M x ,.kXlXl.n P ! `  .../.oX_.S.A.#.` P L S u 4 : + # * * .                                           . . X + > D F 3 -         . . X X + ; 5 M N ! _ ' _ P P P M M M M P ` X.#.N.N.N.N.N.F.N.B.B.B.B.B.G.G.G.G.F.o. . .o.#.N.N.N.N.N.].J.{.{.H.%.7 @ .                                                                                                                 ",
"                                                                                                                                  + @ g &.#.B.A.A.A.A.A.B.B.B.B.B.G.B.o./ ~ ~ o.N.N.F.F.F.F.N.N.N.N.N.G.G.G.G.F.N.o.o.` _ M v S L L P P _ _ _ P M b 1 + X X X . .               X + - 1 % X                                                                   . X @ 5 M ! ! _ _ _ _ `  .N.A.A.).).).).B.b. .` ! ^ Q.lXMXaXkXZ N _ `  .../.{._.S.A.#.` P L A u > : # # * * .                                             . O X $ > + +             . . X X + ; 5 M N ! _ _ P P P M M M M P ` X.#.F.N.N.N.F.N.N.B.B.B.B.B.G.G.G.G.G.N. . .o.#.F.N.N.N.B.B.G.{.{.].F.%.b + X                                                                                                               ",
"                                                                                                                                + - D $.N.A.A.A.A.S.J.J.B.B.B.B.G.G.N...~ ~ X.o.N.G.F.F.F.F.G.G.G.G.G.G.G.G.G.G.N.#.o.` _ M v v L P P P _ _ P P F < + X X . . .                     X . X X                                                                   X X + ; v N ! _ _ _ ` ` +.N.B.).A.A.A.A.B.b. .` V 7XvXMXaXMXlX$.` ~ `  .../.{.S.S.A.o.` P L D 5 > : + $ * = .                                             . O O X . +                 . . X X + ; v N ! _ _ _ _ P M M M M P ` X.#.F.F.F.F.F.N.N.B.V.V.B.G.G.G.G.G.G.N.o. . .#.F.N.B.B.B.B.].].].{.{.].-.D @ X                                                                                                             ",
"                                                                                                                              + ; F a.B.A.A.K.K.K.J.J.J.G.B.B.B.G.G.n. .~ ~ X.N.F.F.F.F.F.G.G.G.G.G.G.G.G.G.G.G.N.#.#.] _ M v v L P P P P P P I p + X . . . .                           .                                                                       X X - z N ! _ _ _ ` ` +.N.B.A.A.A.A.A.B.b. .! ^ vXMXdXiXiXlX*./ ` `  .../.{.S.S.B...` P L A 4 > : + $ * = .                                               . .                         . . X X @ 3 M N ! _ _ _ P M M v M P ` X.#.F.G.G.G.G.G.H.V.V.B.V.G.G.G.G.G.G.N.#. . .#.F.G.G.B.B.G.G.G.{.{.}.{.].a.F 1 X                                                                                                           ",
"                                                                                                                            @ 7 U =.G.S.S.K.K.K.K.J.J.J.J.B.B.G.G.G.o./ ~ ` #.F.G.G.G.G.J.J.J.J.L.L.L.J.J.G.G.G.F.N.#.] _ M v v L P P P P P I D : X . . . . .                                                                                                   . X @ 3 N ! _ ` ` `  ...N.B.B.A.A.A.A.B.b. .N B NXMXiXdXMXvXH. . . . ...).{._.).V...` P L A 4 > $ $ q t = .                                                                           . . . X + - c M _ P _ _ P M M v M P ` X.#.F.G.G.G.G.G.G.G.G.G.G.G.G.G.G.G.G.F.#. . .#.F.G.G.G.B.G.G.G.J.J.J.K.J.].a.I @ X                                                                                                         ",
"                                                                                                                          - 7 } N.A.J.}.}.}.K.K.K.K.J.J.J.B.B.J.G.N.o.~ ~ X.#.F.G.J.J.L.L.L.L.J.L.L.L.L.J.J.G.G.F.N.#.] _ M v M L P P _ _ P F 4 + X . . . .                                                                                                     . X @ 3 N ! ` ` ` `  ...N.B.B.A.A.A.A.B..._ L z hXNXMXMXMXvXH. . . . .../.).).A.b.+.` P S A 4 > $ $ q t * .                                                                             . . . X @ 2 v P _ _ _ P M M v M P ` X.#.F.H.G.G.L.L.G.G.G.G.G.G.B.B.B.G.G.G.N.o. ...N.G.G.G.B.G.G.G.J.J.J.J.J.J.G.'.I @ X                                                                                                       ",
"                                                                                                                        ; n $.N.J.K.K.}.K.K.K.K.K.K.J.J.J.J.A.J.B.b. .~ ~ o.F.G.J.J.J.L.L.L.P.P.L.P.K.J.J.J.G.G.F.#.X.] _ M M M M P P _ _ P D $ X . . . .                                                                                                       . X + 2 N ! ~ ` ` `  ...N.B.B.A.A.A.B.B. .L A 5 m ,.vXNXNXvX*. . . . .b./.).).B.m..._ P S A y : $ $ w e * X                                                                               . . X + - c N _ _ _ P M M v M P ` X.#.F.G.L.L.L.L.L.L.J.J.J.J.G.G.J.G.G.G.N.o. . .n.G.G.G.G.G.G.J.J.J.J.J.J.K.}.{.F.F @ X                                                                                                     ",
"                                                                                                                    2 ; v @.G.A.K.K.}.}.K.K.K.K.K.J.J.J.J.J.A.J.G.o.` ~ X.o.F.J.L.L.L.L.L.P.K.P.P.P.K.P.L.J.G.G.F.#.X.] _ M M M M P P ! P F 4 + X . . .                                                                                                         . . + 2 N ! ~ ` ` `  ...N.B.B.A.A.A.B.B.X.S u u c M <.NXvXjXX. . . . .b./.).B.V.m. ._ L S u 4 : $ $ y d , X                                                                                 . X X @ 2 M _ _ _ P M v v M P ` @.#.H.G.L.L.L.L.L.L.L.L.J.J.J.J.J.J.J.G.F.#. .( o.G.].G.G.G.G.J.J.J.J.J.J.J.K.K.{.[.Q - .                                                                                                   ",
"                                                                                                                  - ; I X.A.S.K.K.}.}.}.}.K.K.K.K.J.J.J.J.J.A.J.N. .~ ~ X.n.G.J.P.P.P.P.P.P.L.L.P.P.P.P.P.L.J.G.F.#.@.] _ M M M M P P P I 7 @ X X . . .                                                                                                         . . + 2 N ~ ~ ~ ` `  .+.n.N.B.A.A.A.B.B.X.F 5 u H E %.-.$.$.~ ` `  . .b.).).B.b.+. ._ L A 5 > : @ > J p t X                                                                                 . . X + - c N _ _ P M v v M P ` @.=.H.G.L.L.L.L.L. XP.P.P.L.L.L.J.J.J.J.G.N.../  .F.].G.G.J.J.J.J.J.J.J.J.J.J.}.}.{.[.I - X                                                                                                 ",
"                                                                                                                @ ; F X.A.K.Y.K.K.}.}.}.}.K.K.K.K.J.J.J.J.J.A.G.N.` ! ~ X.F.G.J.P.T.T.P.P.P.L.L.P.P.P.P.P.L.J.G.F.#.@.] _ P M M N P P U n 1 X X . . .                                                                                                           . . + 2 N ~ / ` ` `  .+.m.N.B.A.A.A.B.B.X.L 5 A Y P _ } } _ _ ` `  . .b.).A.V.b.+. ._ L c 4 > : ; S U p , X                                                                                   . X X @ 2 M P _ P M v v M P ` X.=.H.G.|.|. XP.P.P.P.P.P.P.P.P.P.P.P.J.G.N...~  .N.].].J.J.J.J.J.J.J.J.J.J.J.}.}.}.|.[.Q 1 X                                                                                               ",
"                                                                                                            @ + ; n X.A.K.Y.Y.Y.K.}.}.K.K.K.K.K.K.J.J.J.J.J.J.G.o.~ ` ` o.G.J. XT.T.T.T.T.P.P.P.P.P.P.P.P.L.L.G.F.=.#.] _ N M M N P L v 4 + X X . .                                                                                                             . . X ; N  ... .` `  ...b.N.B.B.A.A.A.B.O.P S S S L L L Y L _ ` `  ...m./.B.b.b.+. ._ L 5 > : : c @.O.K e +                                                                                   . . X + ; c M _ N M v v M N ` X.=.H.G.L.L. X X XP.P.P.P.P.P.P.P.P.P.K.J.N.o.~ ` #.G.G.J.J.J.J.J.J.J.J.J.K.K. XK.}.%XJ.[.%.> X                                                                                             ",
"                                                                                                          X @ 0 &.=.{.Y.%XY.Y.Y.Y.%X}.K.K.K.K.K.K.J.J.J.J.J.J.N./ ! ` X.F.J. X*X*X8X8X8X8XT.P.P.P.P.P.P.P.P.L.J.H.F.=.] ' N M M M P S 5 @ X X . . .                                                                                                             . . + 2 N ..m... .`  ...o.N.B.B.A.A.B.B.O.P L L I U B M S L _ ` `  ...b.B.V.b.b.+. ._ L u > $ : M N.+.I e +                                                                                     . X X @ 2 v P N M v v M N ] X.F.H.L.|. X X X XP.P.P.P.P.P.P.P.P.P. XJ.G.o.~ ~  .N.H.J.J.J.J.J.J.J.J.J.J.K.P.P.}. X X*X6Xp.> X                                                                                           ",
"                                                                                                        . @ Q %.H.K.Y.Y.%XY.%XY.Y.%XK.K.K.K.K.K.K.J.J.J.J.J.B.o.~ ! ] X.F.J.P.8X8X8X8X8X8X8X8X*X XP.P.P.P.P.L.J.H.F.#.] _ N M M M S 5 ; + X . . .                                                                                                               . X + 3 ! / m... .~  ...o.n.B.B.].].B.N.O.T Y U cXxXcX1.F S _ `  . ...m.B.B.b.m.+. .P S 4 : $ > _ B.b.I e +                                                                                     . . X X - 5 L P M v v M N ] X.F.H.|.|. X X X X XP.P.P. X*X*X*XT.P.P.J.G.n. .~ ` o.H.J.J.J.J.J.J.J.J.J.K. XP. X X X*X=X*XXXa.2 X                                                                                         ",
"                                                                                                      . + Q [.J.K.P.Y.*X*XY.*XY.Y.}.K.K.K.K.K.K.K.J.J.J.K.J.B. .! _ ] *.G.P.T.8X8X8X8X8X8X8X*X*X*X XP.P.P.P.L.L.H.F.o.] _ N M M v c > @ X . . .                                                                                                                 . X @ z !  ... .~ ~  ...o.n.B.B.G.].B.N.O.T S U xXlXlXcXQ v P _ `  ...m.B.V.b.m.+. .P S 4 : $ > _ A.b.I e +                                                                                       . . X + > D L M v v M N ] o.F.H.|.|. X X X X XP.P.P.*X*X*XT.T.T.P.L.J.n. .~ ! X.F.G.J.J.J.J.J.J.J.J.K. X X X X X*X=X=X=X6Xa.6 X                                                                                       ",
"                                                                                                    . - Q H.P.Y.Y.*X*X*X*X*X*X%X}.K.K.K.K.K.K.K.K.K.J.J.J.J.n.` _ ' ] *.G.K.T.!.=X8X=X8X8X8X8X*X*X*X*XP.P.P.P.L.G.F.X.] ! N V v c 4 @ X . . .                                                                                                                   X X ; M ~  ... .~ ~  . .o.n.N.B.B.B.B.N.` L S B jXNXlXjXp.M P _ `  ...m.B.b.m.m... .P A 4 : $ > ` A.b.I e +                                                                                       . . X X @ 4 c v v v M N ] o.F.[.|.L.P.P.P.P.P. X X6X8X*X*X*XT.T.T.P.I.n.X.~ ! ~ =.G.J.J.J.J.J.J.J.K.K.K.K.}.}. X*X=X=X=X=X6Xa.6 X                                                                                     ",
"                                                                                                  . @ Q [.*XR.=X=X=X=X*X*X*X*X%X}.K.K.K.K.K.K.K.K.K.K.K.J.B. .! ' ' X.N.J.P.*X!.8X!.8X8X8X8X!.!.!.T.T.P.P.P.L.L.H.F.X.] ! N v c 2 - X X X .                                                                                                                     + @ 3 N ~ /  .` ~ ~  . ...n.N.B.B.B.B.N.` L V ) jXlXiXlXd.P [ ` `  ...m.M.m.m.m... .P A 4 q q 4 ` A.b.I e +                                                                                         . . X + : 5 v v x x N ] #.H.[.|.L.P.P.P.P.P. X8X8X8X*X*X*XR.R.T.T.L.F.o.! N ! X.H.|.}.{.J.J.J.J.K.K.K.K.}.}. X*X=X=X=X=X8XqXd.7 X                                                                                   ",
"                                                                                                X - Q [.T.R.=X=X=X=X*X*X*X*X*X}.}.P.K.K.K.K.K.K.K.K.K.K.J.N.~ ! ' ' ] #.F.H.H.H.-.-.-.E.5X6X6XW.!.T.T.P.P.P.I.I.H.F.o.] ! M v 4 - + X X X .                                                                                                                     @ ; x ! ~ /  . .` ~ `  ...o.N.B.B.B.B.N.' v ,.xXlXVXMXvX$.P _ ` {  ...m.b.m.b.b... .P 5 > : q 4 ` B.o.F e +                                                                                           . . X @ 4 5 c z x N ] #.H.|.|.L.P.P.P.P.T.T.8X8X*X8X8X8X*X*XT.T.P.G.o.! N N ] H.|. X XK.K.K.K.K.K.K.K.K.}.}.*X*X=X9X=X=X=X6Xa.2 X                                                                                 ",
"                                                                                              @ % Q [.Y.R.R.=X*X=X=X*X*X*X}. X}.}.P.K.K.K.K.K.K.K.K.K.K.G.X.~ N ' ' ] ] ' U n z 2 2 ; ; 2 n $.E.6XP.T.P.P.P.I.I.I.F.o.] N v 3 - + X X X .                                                                                                                     @ + 2 x ! / /  . .~ ~ `  ...o.N.B.B.B.B.N.' x 1.NXNXNXNXjX^ _ { `  . ...m.m.m.m.b... .P 5 > q : 4 ` B.o.F e +                                                                                             . X + ; 4 3 z x N ] =.H.|.|.L.P.P.P.T.*X8X8XT.T.*X8X8X8X6X6X6X XG.o.~ N N ^ F.{. X X}.K.K.K.K.K.K.K.K.P.}.*X*X8X8X=X=X9X9XqX5X5 +                                                                               ",
"                                                                                              X g 5X*X=XR.=X=X*X*X*X*X*XY.P.P.K.K.K.K.K.K.K.K.K.K.K.K.K.F.` ! N ' ' ' U D 4 > @ @ + X + + % 6 Z <.5XL.W.W.W.I.I.I.H.*.] M 5 ; @ X X . .                                                                                                                       X + 2 V ~ / /  . .~ ~ `  ...o.N.B.B.B.B.N.U x hXNXNXvX1.^ ! _ ` ` `  ...m.m.m.m.m.+. .L 5 > : : 4 } #.| K e +                                                                                             . . O + ; 2 z x N ] =.H.L.L.L.P.P.P.*X8X*XY.Y.T.6X5X5Xd.d.d.5XL.G.o.] N N ! #.{. X X}.}.K.K.K.K.K.K.K.K.}. X*X*X8X=X8X9X:X:X9X[.c @                                                                             ",
"                                                                                            + 6 p. XR.=XR.=X=X*X*X*XY.*XY.P.P.K.P.K.K.K.K.K.K.P.}.K.P.L.o.! ! B ' ' U F 5 1 @ + X X X . X X X - b ) E.W.W.W.W.I.I.H.*.] M 2 - + X . . .                                                                                                                     X X + 3 V ~ / /  ./ ~ ~ `  ...o.n.B.B.B.B.#._ n f.7X7X<.V P _ ` ` `  . ...m.m.m.m.m.+.` L 4 > q : 4 E | } D q +                                                                                               . . X @ ; 3 x N ] =.H.L.L.P.P.P.P.P.T.Y.T.P.6XE.Z 2 - - 2 n ] o.o.` ! N N X.G.|. X X XK.K.K.K.K.K.K.K. X X*X*X*X=X8X9X9X=X:XqX5X5 X                                                                           ",
"                                                                                          + @ Q F.K.Y.R.R.R.T.*XT.Y.Y.*X*X*X*XY.Y.P.K.Y.P.Y.Y.*X*XP.P.G.X.N N U ' ' I c ; @ X X X . .           @ 8 &.E.W.W.W.W.I.H.*.] M 2 @ X X . .                                                                                                                       . O @ z N ~ / / / / ` ~ `  . .o.n.N.B.B.B.N._ L Q U N M T [ [ { ` `  . ...m.m.m.m.+. .` L 4 > : > y F L S p e +                                                                                                   X + ; 2 z N ] =.H.L.L.P.P.P.P.P.P.P.L.<.&.2 @ + X X + ; v ` / ^ ^ N N ^ F.|. XXX X XK.K.K.K.K.}.}. X X X*X*X*X=X9X9X9X9X9XqX[.4 +                                                                         ",
"                                                                                          + 7 %.N.J.P.Y.T.*XT.T.*XY.Y.%X*X*X*XY.Y.*X*X*X*XY.Y.T.Y.Y.P.n.` N P P ' P S 5 - + X X . .               X 8 ,.E.W.W.P.I.H.*.] M 2 + X . .                                                                                                                       X . # 1 v ! ~ / / /  .` ~ `  . .o.n.N.B.B.B.N.` Y E M P T T [ [ ` ` `  . ...m.m.m.m.+. ._ S 4 > : : y a D A i e +                                                                                                   + X @ ; z N ] *.G.L.L.P.W.P.P.P.6X5X-.n - X . X o O X + 2 N ~ ^ ! N N ! #.|.XX X X X}.}.K.K.}.}.}. X X X*X*X*X=X9X9X9X9X:X:XqXd.1 X                                                                       ",
"                                                                                        X 5 U @.o.=.F.G.|. X*X*X*X*XY.*XY.%X*X*X*XY.Y.T.Y.Y.*X*X*X*XI.X.! N P ' _ M c 4 @ X X . .                 + X 6 ,.5XW.W.I.I.F.] I ; + . .                                                                                                                         . X $ 2 v ! `  . .....~ ! `  . ...n.N.N.B.B.#.{ R 2 8 :.Q n S N ! ! ` O. .+.m.m.m.m.+. ._ A > w q > y a u u y q # .                                                                                                   X + ; z N X.F.G.I.P.P.P.P.P.6Xd.Q - X @   X . . . O X @ n ^ ~ ! ! N N X.].XX XY. XP.K.P.K.K.P.P.P.*X*X*X*X*X=X=X9X:X9X:X:X9X6XQ @ .                                                                     ",
"                                                                                      @ - F } @.$.$.%.*.H.J.P.P.P.P.P.*XY.*X*X*X*XT.T.*X*XT.*XR.T. XG.~ N N P _ P M 5 ; + X . .                     . X 6 &.E.I.L.I.H.$.I ; + . X                                                                                                                         . X - 3 M ! `  . .o.o./ ! ~ `  ...n.N.N.B.N.+.` v 7 :.zXf.:.Z B ^ ! ` O. .+.m.m.m.m.+.O.P A > q q w i p a u y q * o                                                                                                   . X - 3 N X.F.G.L.P.P.P.P.6Xd.C + .           . . . O + 2 V ! ~ ^ N N ` G.XX*X*X*X*XY.Y.Y.Y.Y.*X*X*X*X*X*X*X=X=X8X9X:X:X=X=X:X5Xb X +                                                                   ",
"                                                                                      @ 5 U ' ' } $.&.&.&.=.H.G.L.J.K.K.Y.Y.*X*X*X=X=X=X=X=X=X=X*XP.*.! ! P _ _ P S 5 - + . .                         . X 6 ,.E.I.I.I.*.B ; + .                                                                                                                         X . # ; v N ~ `  . .o.o.~ ! ` `  . .#.N.N.N.N.o._ x f.l.kXl.kXzXxX7XN { { +.+.+.m.m.m.+.O.T u : q q w y a a a y w q # +                                                                                                 . X @ 2 N X.H.G.L.L.L.L.L.<.b + X                 . X X - x N ! ! N N _ =.|.*X*X*X*X*X*XT.T.*XY.Y.Y.Y.Y.T.*X*X*X*X*X=X=X=X=X=X9Xa.; X                                                                   ",
"                                                                                    + 6 F U ' ' } U Q C b b Z Z $.-.H.G.J.P.*X*X*X=X=X=X,X,X=X=X*XJ./ ! ! P _ _ P c 4 @ X .                             . + b -.H.I.I.*.B 2 + .                                                                                                                         X X + 2 v ! ` `  . .b.b.~ ! _ `  . .#.N.N.N.N.o.' m 1.kXkXuXkXnXnXyXP _ { +.+.+.m.m.m.+.@.E 4 : w q y y a a a y y t * +                                                                                                 X O + 2 N o.H.L.L.L.L.L.5XB -                     . . X @ 3 V ! ! ! N ! X.{.*X9X=X=X=X=X=X*X*X*XY.Y.Y.Y.T.*X*X*X*X*X=X=X=X=X*X*X|.Q @ +                                                                 ",
"                                                                                  @ - D I U U E E E F 4 : 1 : : : 7 Q %.d.[. X*XT.=X=X0X,X,X=X*X XF._ N ! _ ! N M 5 > X .                                 . @ n -.H.H.( B 2 + X                                                                                                                         X O @ 2 M ! ` `  ...b.b.~ ! ! ` `  .#.N.N.b.N.+.' V 1.kXnXnXnXnXkXl.P { O.+.+.+.+.+.+.+.@.R 4 : w q w y a a u y y r * X                                                                                                   f @ 2 N o.H.I.L.I.H.d.B z                         . X X ; x ^ ! ~ ! ! ` G.*X9X9X=X=X=X=X=X=X*X*X*XT.T.T.*X*X*X*X*X*X*X*X X X}.{.d.W + -                                                               ",
"                                                                                  @ p I U U U I I I c 1 + . . . . X + ; C &.5X XY.=X=X0X0X,X,X*XL.X.! ! _ _ ! N M 5 - X X                                   . 2 &.*.F.( N 2 + X                                                                                                                         X O % 4 M _ ` `  .o.b.b.~ N ! ` `  .o.n.N.b.N.o._ B hXlXnXnXaXnXiXhXN { +.+.+.+.+.+.+.+.@.L > : > q w y a a u u y t * X                                                                                                   f @ 2 N o.F.J.I.H.-.V z                           . . X @ z N ~ ~ ~ ! ~ n. X9X9X0X0X,X=X=X=X=X=X=X=XT.T.*X*X*X*X*XXX|.|.G.G.G.N.@.p.4 .                                                               ",
"                                                                                X y D L P U I I F D 7 X             . . + : F -.[.P.=X0X1X,X=X*XH.! N ' ' ' ' I n > + .                                       + m $.X.^ V 2 + X                                                                                                                         X O 1 5 M _ ` ` O.#.b.b.~ N N _ `  ...m.m.b.b...] ) hXlXnXaXnXnXnX1._ { O.+.+.+.m.m.+.+.| L > : : > > y y u a y y t * X                                                                                                 . X @ 2 N ( n.H.H.-.B 3                               . X + 2 N ~ / / ~ ~ X.J.9X9X0X0X0X=X=X=X=X=X=X=XR.T.Y.P.L.|.|.[.=.=.@.@.@.X.` P c @ .                                                             ",
"                                                                              X : D F I L I I F D - @                   . X + 2 $.G.*X,X1X,X=XP.( N N ' ' ] ' I 7 ; X                                           - m B B x 2 + X                                                                                                                       X X # , 5 L _ ` ` @.#.b.b.~ N P _ `  ...+.m.b.b...] ) lXMXnXnXNXNXcX&._ { +.+.+.m.m.m.+.+.@.S 4 > > > > y y y a y y w * .                                                                                                 . X @ 2 N ( n.*.$.Z ;                                 X . + ; M ~ /  .` ~ ~ H. X9X0X0X0X0X0X,X,X,X=X=X*X X|.H.F.-.] ' U ' ' ' ' ' ' P V 6 + @                                                           ",
"                                                                              + 6 F F I L n F D @                         . X + 4 =.XX=X,X=X*XG.~ N ' } } } U F 6 + +                                             ; c x z ; + X                                                                                                                       . O # 1 5 F U ' { @.#.b.b.~ V P _ ~  . .+.o.b.n.m.X.) cXNXNXxX<.$.' _ ` O.+.+.+.m.+.+.+.+.@.S 4 > y > > > y y y y y w * .                                                                                                 . X + ; V ^ ;.&.Z 2 ;                                   . X @ z ^  ... .~ ~ o.L.9X0X0X0X0X0X=X=XR.*X6X5X-.U v 5 5 p p D F I U U U U P P F > X                                                           ",
"                                                                            X < D F F I I S K -                             . X @ '  X=X,X=X X*.! _ } } } E I D 1 +                                                 - 5 2 - + X                                                                                                                       X % % e D F I } } | #.m.b.~ M L P ~  . .+.o.b.m.m.X.^ 7XxX7X-.~ { { ` O.+.+...+.m.+.+.+.+.| S 4 4 u u 4 > y y y y y w * .                                                                                                   O + - x B B m 8 X                                       . X ; V  .o.o.X./ ( F.*X0X0X0X0X0X=X8X6X5X&.b 2 ; : : 1 : : < 6 b F I U P P P F 7 : X                                                         ",
"                                                                          X 1 p F F L F F F -                                 O @ I |.&X&X XH.' U %.%.%.} R A 4 +                                                     + 1 + X X                                                                                                                     . X $ e g W W R E E } { O.{ P S S N ~ `  .o.o.o.+.+.@.` ` `  .` { { { { ` +.+.+.+.+.+.+.+.+.| S 4 4 A A u 4 > y y y y w * .                                                                                                   O # - 2 m 3 ; +                                         . X @ z ~ ..n.n.( ( n.L.9X0X0X0X,X8X6X-.b - % $ % % * * * = % , 6 7 F I U P L L D 6 X                                                         ",
"                                                                          + 6 D F L L F F -                                   . @ I J.Y.Y.|.X.N &.%.%.%.U K p -                                                         . . .                                                                                                                       . X , g 8.0.w.0.R E E T T Y A u S ! ~ `  ...o.o.+.o.O.[ [ [ [ [ [ [ [ _ ` O.+.+.+.+.+.+.+.+.{ S 4 4 A G A u y y y y y w * .                                                                                                   + O @ ; 2 ; +                                             X + ; V ( V.N.o.X.( F.Y.0X0X0X,XW.-.2 @ + X . X .           X X @ 4 D F I L L S D , X                                                       ",
"                                                                        X i D F F F F F 2                                     . @ c n.A.J.=.N U %.%.%.U F a e                                                                                                                                                                                       . = e W 8.0.w.q.q.q.6.E R A y 4 c _ ~ `  ...+.+.o...{ T L L L L Y P T P { O.+.+.+.+.+.+.+.+.{ c 4 5 A F F A y y y y w w * X                                                                                                     X X + + X                                                 X @ 7 ^ o.n.o.X.X.o.J.=X0X0X8XE.8 @ X X                         X ; p K F S S D i +                                                       ",
"                                                                      X f g D F F F F D @                                     . $ c X.b.n.` N &.&.} ' I A : @                                                                                                                                                                                       . = e W W 0.w.w.q.q.q.q.R K i > 5 N ~ `  ...o.+.o.o.{ L F C C n F S S L { O.+.+.+.+.+.+.+.+.` c 4 5 F K S G u y y y w w * o #                                                                                                     . . .                                                   + X - b ] ( ( o.X.( H.P.,X,X8X-.; X .                             X @ 7 F F S D p q +                                                     ",
"                                                                      + i D K F K D D -                                       . % 2 M _ P v v I U U L A 4 +                                                                                                                                                                                         . * e W 8.0.w.w.w.q.q.q.E R s < 4 N _ `  .+.o.m.....` M f.z.z.z.f.:.A S { O.+.+.+.+.+.+.+.+.' c 4 5 F K Y H G u u 4 4 > $ # .                                                                                                                                                               . X : I ] ( ( / / ( V.T.R.6XQ 1 X                                 X @ p D F D A y +                                                     ",
"                                                                    X f g W K F K D 6 X                                       . # ; 2 5 5 5 5 D D D 5 > @                                                                                                                                                                                           . * e W 8.0.w.w.w.q.q.q.E R W i 4 v _ `  ...o.m.....{ x zXmXbXbXmXzXp S O.+.+.+.+.+.+.+.+.+.' c 4 5 F K S H H G A u y > : * X                                                                                                                                                                 . + 2 B X.( / / / ( D.Y.|.Z @ X                                   X ; D D D D A w +                                                   ",
"                                                                  X % g D K K K D D +                                         . . + : : : - 1 1 e : @ X X                                                                                                                                                                                           . % e g W 0.w.w.w.w.q.q.q.E R s > c _ `  ...+.+.....` V l.mXbXbXx.z.0 S O.+.+.+.+.+.+.+.+.+.' 5 4 5 K K S S S F A A u 4 q * o                                                                                                                                                                 . . @ 3 ^ X./ ~ ~ ~ ( V.H.b + -                                     X > A A S D y X                                                   ",
"                                                                  + , g D K K D D 4 X                                             . . X + + + X X X                                                                                                                                                                                                 . # e s W R q.q.q.q.q.q.q.q.0.W > c _ `  . .+.+.+.+.{ U ,.zXkXbXkXz.:.U O.+.+.+.+.+.+.+.+.O.' 5 4 A K K S S S S F A A u w q # X                                                                                                                                                                 . X ; n ^ ^ ! ! ! ~ / ^ 2 + @                                       X 4 A D A 4 $ X                                                 ",
"                                                                . , 6 D D W D D p @                                                   . . . .                                                                                                                                                                                                       . X , i g W 0.w.0.q.q.q.q.q.0.9.> 5 P `  ...+.+.+.+.O.| B ,.cXxXzXzXcXa.O.+.+.+.+.+.+.+.+.O.P 5 4 A K S S S S S S H A u y q * X                                                                                                                                                                     X 2 n V x x x V V x > + X                                         @ u A A 4 : .                                                 ",
"                                                                + < g D D W D p ;                                                                                                                                                                                                                                                                     X # , e g 9.8.8.0.0.q.q.q.0.8.y 4 P `  . .+.+.+.+.+.O.{ ` X.=.d.d.7Xa.+.+.+.+.+.+.+.+.+.O.P 3 4 D K F S S H S S H A u y q * X                                                                                                                                                                       X - 2 2 2 2 3 3 2 $ X X                                         + > 5 u 4 : .                                                 ",
"                                                              X , i g D D D D 4 X                                                                                                                                                                                                                                                                     . O # % , f g s 9.8.0.0.q.0.8.i 4 L `  . ...+.+.+.+.u.u.u.u.O.O. .O.O.+.+.+.+.+.+.+.+.+.O.I 2 5 A H S H H H H S S F A y t * X                                                                                                                                                                           + + @ @ - @ + # . .                                           @ 4 4 > @                                                   ",
"                                                              X , g p p D p i +                                                                                                                                                                                                                                                                       . X O o % $ , t d 9.8.0.0.q.8.i 4 v `  . ...+.+.+.+.y.r.[ a.=.=.*.O.u.+.+.+.+.+.+.+.+.+.{ L 4 5 F H S H H H H S S F A y t * X                                                                                                                                                                             X X + + O X X                                               X ; > : +                                                   ",
"                                                              - i p p s s i -                                                                                                                                                                                                                                                                           . O X o # # * t e s 9.8.5.8.s 4 v _ `  ...+.+...O.r.} P cXxXxXhX-.{ +.+.+.+.+.+.+.+.O.{ S 2 A F H H H H K H S H H A y t * X                                                                                                                                                                               X X X .                                                     + 1 ,                                                     ",
"                                                            X 1 i p p i i < X                                                                                                                                                                                                                                                                           . O o o o # * * q r i J 9.9.s y S _ `  . ...+... .{ P I kXnXnXnXhX] +.+...+.+.+.+.+.O.[ c 5 A F H H H K H H S S G A y t * X                                                                                                                                                                                                                                           X % X                                                     ",
"                                                            + < i p p i i +                                                                                                                                                                                                                                                                             . X X X o o # * q r r d d l d y S _ `  . . . .+. .` P B kXaXaXaXlX;. .O.+.+.+.+.+.+.O.T 5 5 A K H H K K H H H H G A y q * X                                                                                                                                                                                                                                           . .                                                       ",
"                                                          . @ < 6 i i i - X                                                                                                                                                                                                                                                                             . . X X o o # * q r r r r r r y A P `  . . . .O. .` P V yXaXaXaXlXE. .+.+.+.+.+.+.+.O.P 5 5 A K K H K K H H H H G a w q #                                                                                                                                                                                                                                                                                                       ",
"                                                          X , i 6 6 < > X                                                                                                                                                                                                                                                                                 . . . . X # * q r r r r r r d u L `  . . .+.O. .` _ B 1.lXiXlXlX5XO.+.+.+.....+.O.O.L 4 5 D K F S S S H H H G G a q * X                                                                                                                                                                                                                                                                                                       ",
"                                                        X @ < < > < 1 +                                                                                                                                                                                                                                                                                     . . . . o * q r k k k k r r y L _  . . . .O. .` { ' $.1.1.1.1.$.O.O.+.+.....+.O.{ L 4 u D K F S S H H H H G s i q * X                                                                                                                                                                                                                                                                                                       ",
"                                                      X . $ > > > < @ X                                                                                                                                                                                                                                                                                             X * t r k k k k k r d S _ `  . .O.O. .` ` ` ` ` ` ` ` O.O.+.+.+.+.+.+. .` S 4 u F S H H H H H H H G s e * # .                                                                                                                                                                                                                                                                                                       ",
"                                                      . X $ 1 > , , .                                                                                                                                                                                                                                                                                               X * t r k k k k r r r G P `  . .O.O. . . . . . .+.+.+.+.+.+.+...+.+.+. .` S 4 u F F H H H H H H G J y q $ X .                                                                                                                                                                                                                                                                                                       ",
"                                                    . X # $ : : $ X                                                                                                                                                                                                                                                                                                 X * r r k k k k k r r G P `  . . .O.O. . . . . . . . . . .+.....+.+.O.O.' c 4 u D K H H H H H G G a y : # .                                                                                                                                                                                                                                                                                                         ",
"                                                  . . O # + $ $ + .                                                                                                                                                                                                                                                                                               . o * q r k k k k k k r G P `  . . .O.{ `  .O. . . .` ` `  .+.+...+.+.O.O.' c 4 u D K H H H H H G G a q $ X .                                                                                                                                                                                                                                                                                                         ",
"                                                  . . O + + + # .                                                                                                                                                                                                                                                                                               . . # * r r k k k k k k r a P `  .O.O.O.{ ` ` { { ` ' _ ` ` ` O.O.+.+.+. . .' c 4 u D K H H H H H G a y : % .                                                                                                                                                                                                                                                                                                           ",
"                                                    . X O + # .                                                                                                                                                                                                                                                                                                 . X # * r r k k k k k k r a L {  .O.O.O.O.{ ` ` ] &.) ) &._ ` { O.O.+.+. . ._ 5 4 u D K H H H F G a i q $ X .                                                                                                                                                                                                                                                                                                           ",
"                                                      . O X .                                                                                                                                                                                                                                                                                                 . X + $ q t r k k k k k k r a Y { O.O.O.O.O.{ { ! <.cXkXkXzX$.` O.O.+.+.+. . ._ 5 4 u D K H F F A A p e : % .                                                                                                                                                                                                                                                                                                             ",
"                                                                                                                                                                                                                                                                                                                                                            . X 1 p G a d r r k k k k k r a Y { { O.O.O.O.{ { N xXIXmXsXDX1.` O.+.+.+.+. . ._ 5 4 u A K G A A A a i q $ o .                                                                                                                                                                                                                                                                                                             ",
"                                                                                                                                                                                                                                                                                                                                                            . $ a Y 6.6.3.G a a l l l l d G Y [ { { O.O.O.{ { ^ xXIXbXsXDX1._ O.+.O.+.+.O.O.P 5 4 5 D D J A A a a w : # . .                                                                                                                                                                                                                                                                                                             ",
"                                                                                                                                                                                                                                                                                                                                                            X e A T t.t.t.t.7.7.7.7.7.7.3.H Y { { { O.O.O.{ { ] <.xXnXaXBXhX' O.+.+.+.+.O.O.P 5 4 u A D D A A a y e $ # .                                                                                                                                                                                                                                                                                                               ",
"                                                                                                                                                                                                                                                                                                                                                            X e S T [ r.r.r.t.r.t.t.t.t.6.H Y { { { { { { { { O.' ,.xXNXNXd.{ O.+.+.+.+.O.O.P 5 4 u A D A p a y i , $ X .                                                                                                                                                                                                                                                                                                               ",
"                                                                                                                                                                                                                                                                                                                                                            + i F T [ r.r.y.y.y.y.y.y.y.t.7.Y } { { { { { { { O.{ ] %.7Xd.| y.O.+.+.+.+.+.O.P 5 4 u D D D a u y w : % . .                                                                                                                                                                                                                                                                                                               ",
"                                                                                                                                                                                                                                                                                                                                                            + e D L [ [ r.y.y.y.y.y.y.y.t.H H } { { { { { { O.O.O.O.{ { O.O.O.O.+.O.O.O.O.{ P 5 4 u D K J D a u y : % .                                                                                                                                                                                                                                                                                                                 ",
"                                                                                                                                                                                                                                                                                                                                                            X < u L T [ r.r.y.y.y.y.y.y.t.H H t.{ { { { { { { O.O.O.O.O.O.O.O.O.O.O.O.O.O.{ L 4 4 A K K K K D u y : % X                                                                                                                                                                                                                                                                                                                 ",
"                                                                                                                                                                                                                                                                                                                                                            . $ i F Y [ t.r.y.y.y.y.y.y.r.Y A E { { { { { { { O.O.O.O.O.O.O.{ O.O.O.O.O.O.{ L 2 4 A K K K K J a y : % .                                                                                                                                                                                                                                                                                                                 ",
"                                                                                                                                                                                                                                                                                                                                                            . X > A Y T [ r.y.y.y.y.i.^.^.E A 5.t.{ { { { { { { i.@.{ { { { { { { { O.O.{ { L 4 4 A K K K H J A y : + .                                                                                                                                                                                                                                                                                                                 ",
"                                                                                                                                                                                                                                                                                                                                                              . @ 4 S L [ { r.y.y.i.'.OXOXp.u K t.{ { { { { { { 5X5X' [ [ ` ` { { { O.O.{ [ S 4 4 A K K K J J a y : X .                                                                                                                                                                                                                                                                                                                 ",
"                                                                                                                                                                                                                                                                                                                                                              X X 1 u S L T r.r.y.i.'.OXOXs.y J E { { { { { [ } d.CXZ Q &.,.$.` O.O.O.O.{ [ S 4 u G K K K J J a y : X X                                                                                                                                                                                                                                                                                                                 ",
"                                                                                                                                                                                                                                                                                                                                                                X + < u S Y [ { r.y.i.^.OXs.> i R [ { { [ [ [ T ,.CX2.j.l.kXhX-.{ { O.{ { [ H 4 u G K K J J J a w : X                                                                                                                                                                                                                                                                                                                   ",
"                                                                                                                                                                                                                                                                                                                                                                  X + < A S L T [ [ r.i.y.p.: < H [ [ { [ [ [ T F z.mXbXk.sXNX<.{ r.{ { [ t.H 4 u J K K J J p u w $ X                                                                                                                                                                                                                                                                                                                   ",
"                                                                                                                                                                                                                                                                                                                                                                      + y u A S L Y Y Y G y @ : F [ [ [ [ [ [ [ R C bXsXsXsXBX<.[ r.r.{ [ 4.F 5 u D F F J D a y : + .                                                                                                                                                                                                                                                                                                                   ",
"                                                                                                                                                                                                                                                                                                                                                                        @ - w y y a a y w $ X $ D T [ [ [ [ [ [ R b l.mXsXaXlX$.[ t.[ [ [ 4.A 5 u A K J G A u 4 : X .                                                                                                                                                                                                                                                                                                                   ",
"                                                                                                                                                                                                                                                                                                                                                                              @ @ @ @ @ # # X $ p T [ [ [ [ [ [ E I ,.NXMXlX;._ t.t.[ [ [ T A 5 A A A A a a y > $ X                                                                                                                                                                                                                                                                                                                     ",
"                                                                                                                                                                                                                                                                                                                                                                                          X . % u T T [ [ [ [ [ T T U d.<.&.P [ t.t.[ [ T R A 5 A A A a a y w : + .                                                                                                                                                                                                                                                                                                                     ",
"                                                                                                                                                                                                                                                                                                                                                                                            . $ u L T } [ [ [ [ [ [ [ [ T [ [ [ [ [ [ [ T R A 5 u u u u y : + X .                                                                                                                                                                                                                                                                                                                       ",
"                                                                                                                                                                                                                                                                                                                                                                                            . + 4 L T T [ [ [ [ [ [ [ [ [ [ [ [ [ [ [ [ T R A u u y y ; @ +                                                                                                                                                                                                                                                                                                                             ",
"                                                                                                                                                                                                                                                                                                                                                                                            . + < F T T [ [ [ [ [ [ [ [ [ [ [ [ [ [ [ [ T Y u u y > @ +                                                                                                                                                                                                                                                                                                                                 ",
"                                                                                                                                                                                                                                                                                                                                                                                            . X > D Y P [ [ [ [ [ T T T T T [ [ [ [ [ [ T S u 4 : + +                                                                                                                                                                                                                                                                                                                                   ",
"                                                                                                                                                                                                                                                                                                                                                                                            . X : A L P T T [ T T R R R E T T T T T T T Y S u : X                                                                                                                                                                                                                                                                                                                                       ",
"                                                                                                                                                                                                                                                                                                                                                                                              X : 5 L P T T [ T 6.q.R R 0.R T T T T T T Y A > X                                                                                                                                                                                                                                                                                                                                         ",
"                                                                                                                                                                                                                                                                                                                                                                                              X @ 4 S L T T [ T q.c.v.c.e.R Y T T T T T H u +                                                                                                                                                                                                                                                                                                                                           ",
"                                                                                                                                                                                                                                                                                                                                                                                              X @ 4 S Y T T [ T E c.CXCXw.K Y Y T T T T H 4 -                                                                                                                                                                                                                                                                                                                                           ",
"                                                                                                                                                                                                                                                                                                                                                                                                @ 4 A L T T [ T E R cXc.A F Y Y T T T T H ;                                                                                                                                                                                                                                                                                                                                             ",
"                                                                                                                                                                                                                                                                                                                                                                                                + < A S T T T T T R q.0.H H Y Y T T T T H -                                                                                                                                                                                                                                                                                                                                             ",
"                                                                                                                                                                                                                                                                                                                                                                                                X > A S L T T T T 6.5.Y H Y Y Y T T T Y S @                                                                                                                                                                                                                                                                                                                                             ",
"                                                                                                                                                                                                                                                                                                                                                                                                X : u S L Y T T T 6.7.Y H Y Y Y T T T L A @                                                                                                                                                                                                                                                                                                                                             ",
"                                                                                                                                                                                                                                                                                                                                                                                                  : u A L Y T t.4.T Y H H H Y Y Y T T L A @                                                                                                                                                                                                                                                                                                                                             ",
"                                                                                                                                                                                                                                                                                                                                                                                                  + 4 A L Y T T p.s.E F H H Y Y Y T T L A -                                                                                                                                                                                                                                                                                                                                             ",
"                                                                                                                                                                                                                                                                                                                                                                                                  X 4 A S Y T T s.CXCXK G H H Y T T T L A -                                                                                                                                                                                                                                                                                                                                             ",
"                                                                                                                                                                                                                                                                                                                                                                                                  + i u S Y T T s.UXUXw.J H H Y T 4.T L A -                                                                                                                                                                                                                                                                                                                                             ",
"                                                                                                                                                                                                                                                                                                                                                                                                  @ i u S Y T T p.CXCXw.K H Y Y 4.4.T L u -                                                                                                                                                                                                                                                                                                                                             ",
"                                                                                                                                                                                                                                                                                                                                                                                                    e 5 S Y T 4.E s.s.0.K R 5.4.4.4.T L u -                                                                                                                                                                                                                                                                                                                                             ",
"                                                                                                                                                                                                                                                                                                                                                                                                    : 4 S Y T 4.6.4.R 5.5.5.6.6.4.4.T L u @                                                                                                                                                                                                                                                                                                                                             ",
"                                                                                                                                                                                                                                                                                                                                                                                                    @ 4 S Y Y E 6.4.4.4.4.4.6.6.4.4.T H u @                                                                                                                                                                                                                                                                                                                                             ",
"                                                                                                                                                                                                                                                                                                                                                                                                    + y A Y Y E 6.6.4.4.4.6.6.6.4.4.Y H u @                                                                                                                                                                                                                                                                                                                                             ",
"                                                                                                                                                                                                                                                                                                                                                                                                    + y A Y Y T 4.6.6.6.6.6.6.6.4.4.Y H u @                                                                                                                                                                                                                                                                                                                                             ",
"                                                                                                                                                                                                                                                                                                                                                                                                    @ i A S Y Y 4.4.4.4.4.6.6.4.4.4.Y H u @                                                                                                                                                                                                                                                                                                                                             ",
"                                                                                                                                                                                                                                                                                                                                                                                                    - e A S Y Y T E Y Y 4.4.4.4.4.4.Y H 4 @                                                                                                                                                                                                                                                                                                                                             ",
"                                                                                                                                                                                                                                                                                                                                                                                                      e u S Y Y Y R H H H 4.4.4.4.4.Y G 4 @                                                                                                                                                                                                                                                                                                                                             ",
"                                                                                                                                                                                                                                                                                                                                                                                                      @ y A H H K H G u G 7.7.4.4.7.H G > @                                                                                                                                                                                                                                                                                                                                             ",
"                                                                                                                                                                                                                                                                                                                                                                                                      + > A G G G a y y d G 3.7.7.H G u : +                                                                                                                                                                                                                                                                                                                                             ",
"                                                                                                                                                                                                                                                                                                                                                                                                      + < a G G a y w q t r d l 3.G a y @ +                                                                                                                                                                                                                                                                                                                                             ",
"                                                                                                                                                                                                                                                                                                                                                                                                      @ e a G K 3.3.a t q q t r d d d w + X                                                                                                                                                                                                                                                                                                                                             ",
"                                                                                                                                                                                                                                                                                                                                                                                                      > i p J R 0.w.0.9.d t t w w d y w +                                                                                                                                                                                                                                                                                                                                               ",
"                                                                                                                                                                                                                                                                                                                                                                                                        i p J R 6.q.p.w.8.3.l a a a d w X                                                                                                                                                                                                                                                                                                                                               ",
"                                                                                                                                                                                                                                                                                                                                                                                                        i p J R 6.q.p.p.q.w.5.5.3.G a w X                                                                                                                                                                                                                                                                                                                                               ",
"                                                                                                                                                                                                                                                                                                                                                                                                        , i J K 5.q.p.p.p.6.6.6.7.3.a w .                                                                                                                                                                                                                                                                                                                                               ",
"                                                                                                                                                                                                                                                                                                                                                                                                        $ i J K 5.6.q.p.p.p.p.6.7.7.G > X                                                                                                                                                                                                                                                                                                                                               ",
"                                                                                                                                                                                                                                                                                                                                                                                                        @ e p K 5.6.q.q.q.q.6.6.4.7.J w @                                                                                                                                                                                                                                                                                                                                               ",
"                                                                                                                                                                                                                                                                                                                                                                                                        + e p K 5.6.6.6.q.6.6.7.5.H J >                                                                                                                                                                                                                                                                                                                                                 ",
"                                                                                                                                                                                                                                                                                                                                                                                                        + < D K R 6.6.6.6.6.6.4.R H J ;                                                                                                                                                                                                                                                                                                                                                 ",
"                                                                                                                                                                                                                                                                                                                                                                                                        + < D F R 4.6.6.6.6.6.5.Y H a @                                                                                                                                                                                                                                                                                                                                                 ",
"                                                                                                                                                                                                                                                                                                                                                                                                        + < p A K 4.6.6.6.6.6.4.Y H a @                                                                                                                                                                                                                                                                                                                                                 ",
"                                                                                                                                                                                                                                                                                                                                                                                                        X e p D K 5.6.6.6.6.6.4.Y H a +                                                                                                                                                                                                                                                                                                                                                 ",
"                                                                                                                                                                                                                                                                                                                                                                                                        X e p D K 5.5.6.6.6.6.6.Y H y +                                                                                                                                                                                                                                                                                                                                                 ",
"                                                                                                                                                                                                                                                                                                                                                                                                        X < p D K 5.e.s.s.p.6.5.H H y -                                                                                                                                                                                                                                                                                                                                                 ",
"                                                                                                                                                                                                                                                                                                                                                                                                        X < p D 3.w.c.c.c.e.6.5.H G >                                                                                                                                                                                                                                                                                                                                                   ",
"                                                                                                                                                                                                                                                                                                                                                                                                        X e p K w.e.e.e.0.5.7.H G a -                                                                                                                                                                                                                                                                                                                                                   ",
"                                                                                                                                                                                                                                                                                                                                                                                                        X e p K e.e.0.3.G G H H a y X                                                                                                                                                                                                                                                                                                                                                   ",
"                                                                                                                                                                                                                                                                                                                                                                                                        . e D W 0.0.J J a G 3.G a q X                                                                                                                                                                                                                                                                                                                                                   ",
"                                                                                                                                                                                                                                                                                                                                                                                                        . e p J J J s s l 3.3.G d q                                                                                                                                                                                                                                                                                                                                                     ",
"                                                                                                                                                                                                                                                                                                                                                                                                        . e p p s s a s 3.3.G a y X                                                                                                                                                                                                                                                                                                                                                     ",
"                                                                                                                                                                                                                                                                                                                                                                                                        . q p a i i d s J G a y w .                                                                                                                                                                                                                                                                                                                                                     ",
"                                                                                                                                                                                                                                                                                                                                                                                                        . e p a p a a 3.3.G G y q                                                                                                                                                                                                                                                                                                                                                       ",
"                                                                                                                                                                                                                                                                                                                                                                                                        . e s J 8.8.8.8.3.G G y +                                                                                                                                                                                                                                                                                                                                                       ",
"                                                                                                                                                                                                                                                                                                                                                                                                        . e J 8.e.e.w.0.5.H G y +                                                                                                                                                                                                                                                                                                                                                       ",
"                                                                                                                                                                                                                                                                                                                                                                                                        . e W 8.w.w.w.5.3.G G w                                                                                                                                                                                                                                                                                                                                                         ",
"                                                                                                                                                                                                                                                                                                                                                                                                        . e W 8.8.0.0.5.3.G a @                                                                                                                                                                                                                                                                                                                                                         ",
"                                                                                                                                                                                                                                                                                                                                                                                                        . e W 8.8.0.0.3.3.J a X                                                                                                                                                                                                                                                                                                                                                         ",
"                                                                                                                                                                                                                                                                                                                                                                                                        . < W W 8.8.0.3.K s w                                                                                                                                                                                                                                                                                                                                                           ",
"                                                                                                                                                                                                                                                                                                                                                                                                        X < g W 8.8.8.8.J s X                                                                                                                                                                                                                                                                                                                                                           ",
"                                                                                                                                                                                                                                                                                                                                                                                                        X , p J W W 8.3.J i .                                                                                                                                                                                                                                                                                                                                                           ",
"                                                                                                                                                                                                                                                                                                                                                                                                        X e s J W W W J s :                                                                                                                                                                                                                                                                                                                                                             ",
"                                                                                                                                                                                                                                                                                                                                                                                                        X < s J K W J s i X                                                                                                                                                                                                                                                                                                                                                             ",
"                                                                                                                                                                                                                                                                                                                                                                                                        X < p s J J s s e X                                                                                                                                                                                                                                                                                                                                                             ",
"                                                                                                                                                                                                                                                                                                                                                                                                        X , p p s s s i +                                                                                                                                                                                                                                                                                                                                                               ",
"                                                                                                                                                                                                                                                                                                                                                                                                        X , i p p s i e .                                                                                                                                                                                                                                                                                                                                                               ",
"                                                                                                                                                                                                                                                                                                                                                                                                        . : y a a i i @                                                                                                                                                                                                                                                                                                                                                                 ",
"                                                                                                                                                                                                                                                                                                                                                                                                        . : w y y y e .                                                                                                                                                                                                                                                                                                                                                                 ",
"                                                                                                                                                                                                                                                                                                                                                                                                        . $ > w w w @                                                                                                                                                                                                                                                                                                                                                                   ",
"                                                                                                                                                                                                                                                                                                                                                                                                        . % : > q : .                                                                                                                                                                                                                                                                                                                                                                   ",
"                                                                                                                                                                                                                                                                                                                                                                                                        . # $ : : + .                                                                                                                                                                                                                                                                                                                                                                   ",
"                                                                                                                                                                                                                                                                                                                                                                                                        . X # $ $ .                                                                                                                                                                                                                                                                                                                                                                     ",
"                                                                                                                                                                                                                                                                                                                                                                                                        . X + # X .                                                                                                                                                                                                                                                                                                                                                                     ",
"                                                                                                                                                                                                                                                                                                                                                                                                        . X X # .                                                                                                                                                                                                                                                                                                                                                                       ",
"                                                                                                                                                                                                                                                                                                                                                                                                        X X X . .                                                                                                                                                                                                                                                                                                                                                                       ",
"                                                                                                                                                                                                                                                                                                                                                                                                        X O O .                                                                                                                                                                                                                                                                                                                                                                         ",
"                                                                                                                                                                                                                                                                                                                                                                                                        X O . .                                                                                                                                                                                                                                                                                                                                                                         ",
"                                                                                                                                                                                                                                                                                                                                                                                                        . O .                                                                                                                                                                                                                                                                                                                                                                           ",
"                                                                                                                                                                                                                                                                                                                                                                                                        . . X                                                                                                                                                                                                                                                                                                                                                                           ",
"                                                                                                                                                                                                                                                                                                                                                                                                        . .                                                                                                                                                                                                                                                                                                                                                                             ",
"                                                                                                                                                                                                                                                                                                                                                                                                        . .                                                                                                                                                                                                                                                                                                                                                                             ",
"                                                                                                                                                                                                                                                                                                                                                                                                                                                                                                                                                                                                                                                                                                                                                                                        ",
"                                                                                                                                                                                                                                                                                                                                                                                                                                                                                                                                                                                                                                                                                                                                                                                        ",
"                                                                                                                                                                                                                                                                                                                                                                                                                                                                                                                                                                                                                                                                                                                                                                                        ",
"                                                                                                                                                                                                                                                                                                                                                                                                                                                                                                                                                                                                                                                                                                                                                                                        ",
"                                                                                                                                                                                                                                                                                                                                                                                                                                                                                                                                                                                                                                                                                                                                                                                        ",
"                                                                                                                                                                                                                                                                                                                                                                                                                                                                                                                                                                                                                                                                                                                                                                                        ",
"                                                                                                                                                                                                                                                                                                                                                                                                                                                                                                                                                                                                                                                                                                                                                                                        ",
"                                                                                                                                                                                                                                                                                                                                                                                                                                                                                                                                                                                                                                                                                                                                                                                        ",
"                                                                                                                                                                                                                                                                                                                                                                                                                                                                                                                                                                                                                                                                                                                                                                                        ",
"                                                                                                                                                                                                                                                                                                                                                                                                                                                                                                                                                                                                                                                                                                                                                                                        ",
"                                                                                                                                                                                                                                                                                                                                                                                                                                                                                                                                                                                                                                                                                                                                                                                        ",
"                                                                                                                                                                                                                                                                                                                                                                                                                                                                                                                                                                                                                                                                                                                                                                                        ",
"                                                                                                                                                                                                                                                                                                                                                                                                                                                                                                                                                                                                                                                                                                                                                                                        ",
"                                                                                                                                                                                                                                                                                                                                                                                                                                                                                                                                                                                                                                                                                                                                                                                        ",
"                                                                                                                                                                                                                                                                                                                                                                                                                                                                                                                                                                                                                                                                                                                                                                                        ",
"                                                                                                                                                                                                                                                                                                                                                                                                                                                                                                                                                                                                                                                                                                                                                                                        ",
"                                                                                                                                                                                                                                                                                                                                                                                                                                                                                                                                                                                                                                                                                                                                                                                        ",
"                                                                                                                                                                                                                                                                                                                                                                                                                                                                                                                                                                                                                                                                                                                                                                                        ",
"                                                                                                                                                                                                                                                                                                                                                                                                                                                                                                                                                                                                                                                                                                                                                                                        ",
"                                                                                                                                                                                                                                                                                                                                                                                                                                                                                                                                                                                                                                                                                                                                                                                        ",
"                                                                                                                                                                                                                                                                                                                                                                                                                                                                                                                                                                                                                                                                                                                                                                                        ",
"                                                                                                                                                                                                                                                                                                                                                                                                                                                                                                                                                                                                                                                                                                                                                                                        ",
"                                                                                                                                                                                                                                                                                                                                                                                                                                                                                                                                                                                                                                                                                                                                                                                        ",
"                                                                                                                                                                                                                                                                                                                                                                                                                                                                                                                                                                                                                                                                                                                                                                                        ",
"                                                                                                                                                                                                                                                                                                                                                                                                                                                                                                                                                                                                                                                                                                                                                                                        ",
"                                                                                                                                                                                                                                                                                                                                                                                                                                                                                                                                                                                                                                                                                                                                                                                        ",
"                                                                                                                                                                                                                                                                                                                                                                                                                                                                                                                                                                                                                                                                                                                                                                                        ",
"                                                                                                                                                                                                                                                                                                                                                                                                                                                                                                                                                                                                                                                                                                                                                                                        ",
"                                                                                                                                                                                                                                                                                                                                                                                                                                                                                                                                                                                                                                                                                                                                                                                        ",
"                                                                                                                                                                                                                                                                                                                                                                                                                                                                                                                                                                                                                                                                                                                                                                                        ",
"                                                                                                                                                                                                                                                                                                                                                                                                                                                                                                                                                                                                                                                                                                                                                                                        "
};
